luts/faded.cube
# Converted by Briz LUT Converter
LUT_3D_SIZE 5
DOMAIN_MIN 0.000000 0.000000 0.000000
DOMAIN_MAX 0.903226 0.903226 0.903226
0.140762 0.089932 0.117302
0.277236 0.100148 0.131429
0.430738 0.109482 0.132942
0.646801 0.109482 0.110743
0.849872 0.105572 0.086022
0.143159 0.255542 0.165989
0.297039 0.281399 0.176494
0.479966 0.288678 0.154979
0.697135 0.278119 0.117050
0.872198 0.287054 0.100022
0.175575 0.435531 0.171160
0.334195 0.474884 0.178638
0.494089 0.477565 0.175070
0.714045 0.467585 0.135229
0.882015 0.451277 0.109881
0.220982 0.676820 0.138744
0.378520 0.724624 0.142654
0.533425 0.729022 0.151357
0.719827 0.714228 0.158929
0.898022 0.679282 0.124492
0.266137 0.923785 0.113392
0.408844 0.937586 0.118869
0.549407 0.941549 0.121611
0.725128 0.943429 0.131681
0.906037 0.938705 0.146438
0.142276 0.092328 0.228802
0.273326 0.104058 0.254659
0.421494 0.111337 0.259110
0.621961 0.108599 0.236370
0.831119 0.108652 0.210619
0.148583 0.254073 0.276606
0.314298 0.278207 0.286343
0.484806 0.275269 0.259489
0.659717 0.263170 0.228163
0.832088 0.268297 0.220022
0.182512 0.416953 0.274498
0.342656 0.455171 0.280099
0.489743 0.446952 0.273196
0.664136 0.426366 0.237287
0.838406 0.413629 0.224546
0.221613 0.634188 0.248100
0.368303 0.654441 0.251337
0.501321 0.651476 0.254055
0.674055 0.643970 0.252648
0.853863 0.618227 0.235682
0.250550 0.891569 0.224062
0.399771 0.870863 0.243271
0.522887 0.867738 0.243282
0.683806 0.872828 0.245688
0.867478 0.877616 0.250671
0.145555 0.096869 0.357708
0.277236 0.107968 0.390502
0.414016 0.114275 0.396610
0.615899 0.109624 0.375098
0.830993 0.107716 0.347744
0.161395 0.251632 0.397981
0.321305 0.271471 0.420149
0.476500 0.268586 0.398831
0.654074 0.257686 0.362226
0.833854 0.267370 0.343806
0.184856 0.405996 0.401980
0.347671 0.438571 0.404067
0.482168 0.420290 0.378541
0.643985 0.405117 0.349384
0.826794 0.417840 0.347701
0.221470 0.606565 0.377637
0.368393 0.640078 0.370413
0.488807 0.606102 0.361655
0.645271 0.598864 0.356021
0.838083 0.602675 0.354461
0.245956 0.855149 0.354681
0.389266 0.864479 0.354828
0.521467 0.842170 0.361107
0.674033 0.843269 0.362758
0.851816 0.851611 0.374708
0.163592 0.094472 0.539842
0.289850 0.103704 0.555482
0.414846 0.112224 0.556743
0.587291 0.117200 0.544911
0.805474 0.111309 0.527953
0.181133 0.242819 0.557760
0.331801 0.252507 0.572271
0.464692 0.253137 0.569112
0.642142 0.253075 0.558517
0.832055 0.258622 0.523583
0.200296 0.394429 0.549570
0.350810 0.410285 0.568185
0.479319 0.401895 0.534234
0.634553 0.393028 0.520632
0.829202 0.407961 0.511308
0.218964 0.581437 0.540647
0.364852 0.628818 0.567007
0.485977 0.594977 0.524974
0.647704 0.586819 0.513602
0.845159 0.611044 0.530653
0.247217 0.821017 0.521394
0.385005 0.866741 0.537251
0.516556 0.838805 0.522562
0.677926 0.846312 0.538182
0.856105 0.856113 0.553723
0.185161 0.092076 0.781005
0.312879 0.097154 0.771073
0.431621 0.103806 0.739866
0.577083 0.111280 0.721377
0.766593 0.116334 0.731992
0.204512 0.232533 0.774698
0.343427 0.239804 0.773099
0.464835 0.233429 0.770418
0.631461 0.235258 0.774006
0.829569 0.244737 0.777164
0.217324 0.386401 0.761515
0.352618 0.388260 0.772448
0.486721 0.392130 0.744875
0.638009 0.390014 0.750254
0.828536 0.400645 0.754903
0.231451 0.578812 0.759969
0.364678 0.596467 0.787528
0.492979 0.583630 0.752451
0.662696 0.596393 0.761126
0.847160 0.605354 0.767972
0.251253 0.827807 0.773237
0.385896 0.863779 0.798228
0.512377 0.839424 0.769500
0.677160 0.848137 0.782058
0.855707 0.859314 0.799245
