luts/faded.cube
# Converted by Briz LUT Converter
LUT_3D_SIZE 8
DOMAIN_MIN 0.000000 0.000000 0.000000
DOMAIN_MAX 0.903226 0.903226 0.903226
0.140762 0.089932 0.117302
0.225144 0.094094 0.121717
0.294390 0.101662 0.132438
0.380538 0.106329 0.136096
0.488254 0.109482 0.130924
0.614511 0.109482 0.114779
0.741273 0.107968 0.098635
0.849872 0.105572 0.086022
0.137105 0.179232 0.141772
0.232728 0.194905 0.157900
0.307162 0.195882 0.160817
0.403115 0.203197 0.152192
0.525210 0.199475 0.137988
0.653108 0.194116 0.117510
0.774039 0.186141 0.098887
0.866143 0.210550 0.091925
0.145682 0.279759 0.173052
0.241794 0.300286 0.183554
0.323274 0.307634 0.179359
0.422918 0.312203 0.163971
0.547540 0.311414 0.146434
0.671307 0.306210 0.123104
0.789582 0.297796 0.106959
0.873711 0.309400 0.102821
0.165736 0.378141 0.172043
0.262654 0.408966 0.182105
0.340176 0.417340 0.186365
0.434713 0.415920 0.179717
0.555930 0.417999 0.158238
0.680478 0.411054 0.134069
0.797654 0.398111 0.115032
0.880107 0.399747 0.107753
0.190710 0.499101 0.166115
0.290798 0.533787 0.169081
0.371709 0.546527 0.173430
0.455517 0.549932 0.177593
0.561890 0.543349 0.171294
0.687289 0.535679 0.146817
0.801426 0.518526 0.127014
0.885140 0.507524 0.112810
0.214928 0.640494 0.144799
0.313941 0.676190 0.146231
0.394665 0.691667 0.148871
0.480812 0.694991 0.153376
0.582348 0.694226 0.161448
0.689165 0.680897 0.161338
0.807602 0.664586 0.138744
0.895092 0.642761 0.122473
0.235235 0.791221 0.126005
0.330085 0.822909 0.126160
0.406899 0.834541 0.129915
0.492754 0.836629 0.130379
0.593321 0.835619 0.136612
0.702409 0.830432 0.140620
0.810825 0.817420 0.143700
0.905045 0.796466 0.134204
0.266137 0.923785 0.113392
0.353041 0.934266 0.117164
0.427886 0.938644 0.120935
0.505949 0.939100 0.119483
0.596572 0.940638 0.123531
0.698893 0.942518 0.127645
0.809636 0.946163 0.139050
0.906037 0.938705 0.146438
0.141015 0.093589 0.170656
0.228314 0.101662 0.189750
0.290480 0.102199 0.190491
0.372718 0.106532 0.190710
0.475515 0.109482 0.189636
0.593700 0.109401 0.175025
0.719957 0.107968 0.152590
0.840779 0.104034 0.148619
0.144689 0.179232 0.202693
0.236923 0.188487 0.215117
0.315692 0.198799 0.218079
0.413869 0.198842 0.208495
0.526565 0.193880 0.188672
0.639289 0.186285 0.167441
0.743843 0.189779 0.158179
0.844038 0.211283 0.167808
0.149844 0.276069 0.225177
0.246696 0.303030 0.240109
0.328124 0.306873 0.229396
0.429687 0.307054 0.219468
0.541229 0.301893 0.196635
0.647095 0.293704 0.176157
0.747840 0.290818 0.161822
0.847650 0.301679 0.172776
0.166949 0.373174 0.220730
0.270678 0.405417 0.232411
0.346993 0.409121 0.236295
0.437876 0.408771 0.227687
0.546335 0.403751 0.207608
0.653876 0.391495 0.183497
0.755641 0.382509 0.171103
0.850788 0.385044 0.176227
0.190963 0.485036 0.210452
0.293699 0.523823 0.215733
0.367775 0.526533 0.222313
0.451964 0.526533 0.227345
0.549880 0.520145 0.218329
0.658088 0.506173 0.194509
0.761501 0.489056 0.179315
0.857249 0.482692 0.178537
0.215099 0.615187 0.194071
0.312096 0.648859 0.196723
0.382902 0.648931 0.199662
0.463853 0.652269 0.203356
0.559191 0.649443 0.207733
0.659093 0.641013 0.204499
0.770476 0.625522 0.186685
0.868320 0.604881 0.183432
0.233721 0.755274 0.173109
0.330767 0.771458 0.184509
0.398831 0.772782 0.184363
0.475871 0.774293 0.188319
0.564790 0.778115 0.190321
0.672482 0.776542 0.192080
0.776685 0.771970 0.189496
0.879142 0.749854 0.187712
0.254936 0.904048 0.164601
0.352718 0.894083 0.187483
0.418221 0.891369 0.187945
0.491557 0.893603 0.188359
0.577177 0.896223 0.189521
0.670811 0.901590 0.189620
0.776607 0.904431 0.191444
0.883652 0.903966 0.196493
0.141267 0.094346 0.246965
0.224420 0.101914 0.267492
0.290920 0.106011 0.275279
0.373125 0.110239 0.279157
0.473623 0.109612 0.280137
0.593447 0.111952 0.260587
0.708674 0.107395 0.243938
0.828174 0.109482 0.228652
0.145210 0.172389 0.278530
0.238103 0.195125 0.302904
0.316500 0.195784 0.304859
0.413762 0.195532 0.292576
0.522655 0.190328 0.275218
0.630682 0.182605 0.254673
0.733588 0.178662 0.236650
0.838721 0.180247 0.227213
0.150536 0.275784 0.298300
0.255196 0.299716 0.312455
0.342711 0.303424 0.301958
0.439241 0.301454 0.287640
0.535993 0.293381 0.267463
0.631698 0.286175 0.249516
0.728851 0.282725 0.237926
0.827647 0.285494 0.235564
0.173654 0.365907 0.297137
0.278776 0.396984 0.301029
0.354306 0.402904 0.306035
0.439702 0.395023 0.292199
0.535448 0.386120 0.274477
0.631544 0.373747 0.255229
0.729297 0.364740 0.241945
0.833386 0.363685 0.238008
0.195125 0.473753 0.288332
0.298398 0.511600 0.284267
0.369300 0.505313 0.287666
0.443962 0.500175 0.290859
0.536643 0.490407 0.283265
0.637090 0.480429 0.262894
0.736161 0.465937 0.248497
0.836501 0.459718 0.240827
0.217739 0.600547 0.272155
0.313788 0.632622 0.267480
0.382167 0.617132 0.272428
0.454235 0.613881 0.274989
0.541003 0.613569 0.275430
0.639769 0.605246 0.269205
0.743806 0.592550 0.255967
0.846471 0.579198 0.248381
0.234226 0.736985 0.254085
0.326245 0.762838 0.253491
0.396351 0.734850 0.260318
0.466250 0.733854 0.262526
0.550896 0.734111 0.262329
0.648667 0.736849 0.264497
0.754688 0.734568 0.260663
0.857730 0.719457 0.257034
0.250322 0.889323 0.243787
0.344213 0.889916 0.250722
0.415854 0.861131 0.261114
0.483304 0.861053 0.259912
0.565375 0.863047 0.260426
0.656989 0.865195 0.261129
0.757384 0.869893 0.263317
0.862888 0.870321 0.267744
0.147826 0.094598 0.319617
0.225649 0.105572 0.340632
0.291042 0.109482 0.354905
0.369272 0.110849 0.356174
0.471857 0.113587 0.352984
0.592699 0.111618 0.337914
0.713272 0.108725 0.319279
0.835420 0.105987 0.307923
0.153502 0.171868 0.344086
0.242534 0.191612 0.376485
0.315877 0.197871 0.385681
0.410099 0.195116 0.371501
0.519022 0.190389 0.355023
0.629708 0.185857 0.335513
0.738294 0.180705 0.315256
0.842858 0.193913 0.308594
0.158071 0.275247 0.366285
0.265749 0.292293 0.378278
0.346454 0.298133 0.376986
0.435008 0.294591 0.360428
0.532017 0.289471 0.340659
0.628643 0.281464 0.321256
0.730549 0.282196 0.308003
0.831836 0.290271 0.307452
0.174313 0.360841 0.367148
0.281651 0.389889 0.374115
0.358446 0.390554 0.366215
0.439791 0.382552 0.353029
0.529077 0.374067 0.335421
0.622114 0.366853 0.320050
0.719522 0.364141 0.309209
0.825137 0.375667 0.311477
0.194621 0.463028 0.357708
0.301454 0.505786 0.360825
0.372617 0.495304 0.352065
0.442445 0.480118 0.348974
0.526055 0.472025 0.336789
0.622447 0.461191 0.320573
0.721689 0.454199 0.311756
0.832073 0.463680 0.313783
0.217576 0.584366 0.344464
0.313673 0.624980 0.341335
0.382438 0.607136 0.332865
0.453041 0.588346 0.334717
0.529765 0.585707 0.333176
0.625711 0.581146 0.327373
0.731207 0.572582 0.318214
0.836157 0.573987 0.318005
0.233257 0.715543 0.328320
0.324380 0.757196 0.324963
0.394214 0.729976 0.321452
0.464447 0.707633 0.322997
0.541791 0.705847 0.322363
0.636088 0.709387 0.324284
0.738163 0.708479 0.322704
0.846502 0.707092 0.323769
0.247685 0.866233 0.316048
0.339555 0.891209 0.316533
0.409874 0.859169 0.319157
0.485401 0.843313 0.325482
0.559597 0.843307 0.323771
0.651395 0.847818 0.324328
0.750393 0.849244 0.330759
0.852293 0.853242 0.337539
0.149592 0.094851 0.403115
0.233469 0.104628 0.423105
0.294765 0.108733 0.434266
0.367856 0.114149 0.441964
0.462515 0.116293 0.437037
0.581591 0.112456 0.423044
0.696118 0.111223 0.401866
0.823181 0.108725 0.391133
0.160378 0.171665 0.426071
0.252807 0.186235 0.464431
0.319860 0.189156 0.464733
0.405121 0.193102 0.467240
0.510079 0.190946 0.451359
0.622576 0.184916 0.428721
0.731896 0.177093 0.404705
0.839361 0.181353 0.390563
0.170525 0.273831 0.440198
0.273546 0.286725 0.457694
0.348479 0.288706 0.455138
0.423833 0.289471 0.449724
0.523222 0.286213 0.432180
0.624942 0.280136 0.412685
0.728057 0.275603 0.392367
0.831836 0.283777 0.384094
0.177914 0.359026 0.440760
0.285662 0.383187 0.460086
0.363453 0.378911 0.444769
0.435379 0.374214 0.433161
0.523174 0.366586 0.413832
0.619874 0.359529 0.396477
0.721689 0.356716 0.382997
0.827201 0.365654 0.384508
0.194360 0.452282 0.436028
0.298244 0.491839 0.455351
0.369935 0.484314 0.437558
0.441693 0.470052 0.419906
0.523850 0.459657 0.406446
0.615933 0.448455 0.390247
0.719680 0.450642 0.384250
0.831686 0.463390 0.388598
0.214602 0.567896 0.422035
0.313607 0.615899 0.433209
0.381038 0.602382 0.420059
0.450344 0.580631 0.405697
0.528323 0.568221 0.399836
0.616255 0.561256 0.391553
0.723265 0.560275 0.386128
0.838439 0.573396 0.395124
0.229811 0.691944 0.404112
0.322814 0.750997 0.414570
0.394160 0.729581 0.401976
0.461469 0.703617 0.394120
0.542070 0.693903 0.395446
0.631063 0.692892 0.393440
0.731192 0.695336 0.392339
0.847580 0.704450 0.400136
0.245956 0.841120 0.396052
0.334248 0.891231 0.403296
0.407010 0.857981 0.396833
0.480949 0.842898 0.394328
0.563912 0.842186 0.400979
0.651037 0.843813 0.402892
0.749583 0.846726 0.407177
0.853020 0.852771 0.417598
0.161574 0.096490 0.515625
0.245451 0.100563 0.529967
0.302967 0.107285 0.531428
0.372466 0.110507 0.534426
0.455566 0.117302 0.535879
0.563400 0.115508 0.523038
0.680983 0.114478 0.505013
0.809510 0.111504 0.498788
0.172295 0.171449 0.533075
0.262272 0.174484 0.563161
0.331013 0.178472 0.560441
0.408347 0.181914 0.558131
0.498829 0.184916 0.556682
0.608095 0.185736 0.542375
0.727452 0.175758 0.521741
0.841515 0.178097 0.504867
0.186585 0.271561 0.541697
0.282071 0.277275 0.554772
0.353326 0.277875 0.542973
0.424589 0.277998 0.538091
0.512424 0.280091 0.537929
0.616996 0.275996 0.526801
0.728113 0.274634 0.507149
0.831144 0.283051 0.489922
0.193107 0.362013 0.542254
0.293389 0.373071 0.556397
0.365503 0.363839 0.534762
0.436699 0.363334 0.520040
0.512896 0.359529 0.515830
0.614579 0.354992 0.502719
0.718547 0.355762 0.488728
0.826909 0.363652 0.482883
0.205016 0.462230 0.546380
0.302922 0.483034 0.562680
0.370183 0.470290 0.538822
0.441970 0.457405 0.512345
0.519585 0.449312 0.497608
0.613929 0.442053 0.485230
0.720303 0.443115 0.478765
0.833002 0.460058 0.486806
0.218964 0.584757 0.541298
0.314905 0.612965 0.555936
0.380367 0.596722 0.536818
0.447202 0.574772 0.510705
0.526716 0.560149 0.490714
0.620112 0.555033 0.483667
0.729150 0.561862 0.484511
0.842377 0.580268 0.497483
0.235109 0.719469 0.523445
0.325811 0.753846 0.539241
0.390034 0.729496 0.518418
0.462145 0.703513 0.496577
0.539744 0.692208 0.487428
0.635509 0.693024 0.488630
0.735738 0.693890 0.489672
0.851445 0.708992 0.502919
0.251253 0.864699 0.514428
0.336994 0.891402 0.519327
0.406163 0.860577 0.503906
0.475559 0.840523 0.493442
0.559702 0.839204 0.495626
0.654116 0.845089 0.506464
0.750221 0.849441 0.510814
0.853979 0.855094 0.523863
0.172043 0.092328 0.628764
0.251477 0.100246 0.640397
0.315959 0.100539 0.636389
0.383398 0.106329 0.630111
0.457970 0.111878 0.624224
0.551588 0.116562 0.621937
0.659756 0.114320 0.613421
0.791022 0.114307 0.618043
0.179542 0.159837 0.636487
0.268581 0.163226 0.676140
0.337323 0.163995 0.670277
0.410888 0.164089 0.668192
0.499032 0.166630 0.667079
0.601561 0.170842 0.665051
0.720332 0.167947 0.662495
0.838977 0.168609 0.645137
0.193302 0.260278 0.632743
0.286627 0.264477 0.666115
0.359883 0.270150 0.643819
0.428175 0.267478 0.641819
0.510040 0.266890 0.643694
0.609897 0.269549 0.646349
0.722057 0.268257 0.642159
0.831666 0.277053 0.623138
0.201684 0.342027 0.624224
0.294291 0.353462 0.664344
0.366924 0.348053 0.638593
0.438716 0.353766 0.622015
0.515097 0.351390 0.620773
0.606055 0.350339 0.620965
0.714619 0.350897 0.617669
0.826882 0.360912 0.608408
0.209756 0.427459 0.611484
0.300904 0.457140 0.666294
0.371029 0.450090 0.646365
0.444825 0.442739 0.619150
0.523800 0.442187 0.610047
0.612790 0.442273 0.608958
0.716137 0.440703 0.604281
0.834285 0.454981 0.609748
0.217829 0.530760 0.607070
0.309091 0.585144 0.668972
0.377096 0.577545 0.651411
0.447405 0.561610 0.623973
0.529939 0.553700 0.607879
0.625230 0.557450 0.608977
0.729555 0.560002 0.608939
0.843408 0.574626 0.620518
0.229811 0.650125 0.598708
0.317884 0.733543 0.670729
0.385949 0.722838 0.652891
0.456693 0.698226 0.625973
0.537641 0.686382 0.612724
0.636122 0.691748 0.613437
0.744221 0.700030 0.622597
0.854653 0.712145 0.634130
0.245956 0.796519 0.603916
0.327762 0.891231 0.661162
0.402882 0.860161 0.637966
0.477226 0.843035 0.624191
0.559720 0.841333 0.624879
0.653413 0.844880 0.633282
0.754655 0.851605 0.644600
0.854453 0.858200 0.653917
0.185161 0.092076 0.781005
0.265759 0.093956 0.777624
0.328421 0.098081 0.767509
0.397025 0.102077 0.749761
0.468500 0.104815 0.730426
0.553777 0.110174 0.722289
0.654043 0.113140 0.721776
0.766593 0.116334 0.731992
0.195491 0.155886 0.779100
0.281092 0.157012 0.798333
0.340957 0.151802 0.795624
0.414521 0.146208 0.795852
0.497673 0.143683 0.798800
0.601394 0.142642 0.798175
0.715416 0.148231 0.803071
0.835029 0.154618 0.801239
0.207083 0.255416 0.772859
0.293506 0.257194 0.796462
0.365821 0.264309 0.763021
0.429832 0.260685 0.762408
0.509120 0.258107 0.762734
0.606395 0.259844 0.764933
0.713014 0.263053 0.769396
0.828153 0.269490 0.770480
0.213288 0.340265 0.764119
0.297759 0.344457 0.798352
0.371183 0.344249 0.764867
0.444006 0.349823 0.748635
0.519498 0.344591 0.747667
0.611597 0.344591 0.751002
0.713154 0.348203 0.752635
0.826628 0.355145 0.757142
0.221360 0.433696 0.758911
0.300314 0.442756 0.804052
0.371554 0.437946 0.767907
0.447929 0.435747 0.749424
0.531236 0.443181 0.746721
0.618797 0.442289 0.748764
0.723591 0.444402 0.752080
0.831910 0.451294 0.756163
0.229433 0.546913 0.759253
0.306881 0.572949 0.812570
0.379993 0.558599 0.775475
0.453592 0.550704 0.755237
0.537074 0.553464 0.752263
0.633823 0.562541 0.756733
0.735248 0.564981 0.759421
0.844535 0.571869 0.763936
0.238189 0.679302 0.762789
0.317067 0.726574 0.823665
0.388629 0.702920 0.786221
0.459032 0.690445 0.763725
0.544559 0.690189 0.759621
0.641068 0.696860 0.764371
0.746395 0.704671 0.771793
0.853324 0.711569 0.777323
0.251253 0.827807 0.773237
0.330636 0.887972 0.824345
0.403246 0.857519 0.789803
0.473041 0.839973 0.771097
0.556613 0.841041 0.771705
0.651337 0.846618 0.778022
0.753138 0.853005 0.789292
0.855707 0.859314 0.799245
