luts/faded.cube
# Converted by Briz LUT Converter
LUT_3D_SIZE 32
0.140762 0.089932 0.117302
0.169016 0.093968 0.119320
0.196386 0.097626 0.121212
0.210513 0.095607 0.121212
0.225144 0.094094 0.121717
0.243307 0.096112 0.125753
0.261092 0.098130 0.129411
0.277236 0.100148 0.131429
0.294390 0.101662 0.132438
0.314571 0.101662 0.130420
0.335383 0.102292 0.130294
0.357582 0.104311 0.134330
0.380538 0.106329 0.136096
0.404755 0.108347 0.134078
0.430738 0.109482 0.132942
0.458992 0.109482 0.132942
0.488254 0.109482 0.130924
0.518526 0.109482 0.126888
0.549932 0.109482 0.122852
0.582222 0.109482 0.118816
0.614511 0.109482 0.114779
0.646801 0.109482 0.110743
0.677703 0.109482 0.106707
0.707975 0.109482 0.102671
0.741273 0.107968 0.098635
0.775581 0.105950 0.094598
0.808249 0.105572 0.090562
0.840539 0.105572 0.086526
0.849872 0.105572 0.086022
0.855927 0.105572 0.086022
0.863873 0.147195 0.116293
0.871945 0.191593 0.148583
0.140762 0.108094 0.123356
0.170057 0.110047 0.125374
0.198404 0.111752 0.127266
0.212531 0.109734 0.127266
0.227162 0.108090 0.127641
0.245325 0.109067 0.130635
0.263305 0.110043 0.133056
0.280491 0.111020 0.132991
0.298687 0.111752 0.133219
0.319910 0.111752 0.134326
0.341437 0.112383 0.135371
0.363636 0.114401 0.136283
0.387373 0.116029 0.136877
0.413674 0.117005 0.136942
0.440829 0.117554 0.136067
0.469082 0.117554 0.133984
0.498865 0.117554 0.130924
0.530178 0.117554 0.126888
0.562041 0.116968 0.122852
0.594330 0.115927 0.118816
0.625969 0.114885 0.114128
0.657217 0.113844 0.109051
0.687794 0.112802 0.104689
0.718065 0.111760 0.100653
0.750583 0.109986 0.096617
0.783849 0.107968 0.092580
0.815475 0.108436 0.089390
0.846723 0.109478 0.086396
0.855015 0.123279 0.086933
0.860028 0.138903 0.087975
0.866933 0.179550 0.120264
0.873963 0.221865 0.154637
0.140636 0.126762 0.129411
0.170778 0.126957 0.131494
0.199934 0.127022 0.133455
0.214321 0.125134 0.133585
0.229172 0.123474 0.133951
0.247270 0.123409 0.135969
0.265392 0.123369 0.137243
0.283620 0.123434 0.135290
0.302841 0.123499 0.134802
0.325040 0.123564 0.138708
0.347260 0.124239 0.140742
0.369524 0.126257 0.138659
0.394058 0.127519 0.138065
0.422377 0.127519 0.139953
0.450695 0.127490 0.139249
0.479014 0.127425 0.135213
0.509318 0.127393 0.131144
0.541608 0.127393 0.127043
0.573897 0.126257 0.122978
0.606187 0.124239 0.118942
0.637215 0.122221 0.113644
0.667487 0.120203 0.107590
0.697758 0.118185 0.102923
0.728030 0.116167 0.098887
0.759766 0.114149 0.094851
0.791990 0.112131 0.090814
0.822575 0.113445 0.088418
0.852781 0.115528 0.086400
0.860032 0.142048 0.087913
0.864003 0.172059 0.089932
0.869927 0.211469 0.124174
0.875981 0.251506 0.160565
0.138618 0.152997 0.135465
0.166676 0.156317 0.138590
0.194140 0.159442 0.141658
0.212694 0.159637 0.143871
0.231060 0.159670 0.146060
0.248116 0.158563 0.148078
0.265588 0.157872 0.149547
0.284857 0.158978 0.148635
0.304859 0.160085 0.148408
0.327058 0.161192 0.150230
0.349603 0.162583 0.150507
0.372909 0.164601 0.147382
0.398485 0.165863 0.145356
0.427845 0.165863 0.145161
0.457205 0.165378 0.143285
0.486565 0.164272 0.139249
0.517390 0.163718 0.134659
0.549680 0.163718 0.129516
0.581970 0.162583 0.124996
0.614259 0.160565 0.120960
0.645287 0.158547 0.115662
0.675559 0.156529 0.109608
0.705830 0.154511 0.104941
0.736102 0.152493 0.100905
0.767057 0.150475 0.096869
0.798240 0.148456 0.092833
0.827783 0.150617 0.090436
0.856948 0.153742 0.088418
0.863157 0.176746 0.089932
0.866086 0.202591 0.091950
0.871945 0.236858 0.127169
0.878000 0.271687 0.164601
0.137105 0.179232 0.141772
0.163340 0.185417 0.146068
0.189315 0.191341 0.150340
0.211384 0.193359 0.154246
0.232728 0.194905 0.157900
0.249003 0.193148 0.159788
0.266035 0.192073 0.161273
0.286346 0.193961 0.161013
0.307162 0.195882 0.160817
0.329491 0.197900 0.160817
0.352411 0.199918 0.159556
0.376628 0.201936 0.155520
0.403115 0.203197 0.152192
0.433387 0.203197 0.150043
0.463658 0.202371 0.147069
0.493930 0.200484 0.143033
0.525210 0.199475 0.137988
0.557500 0.199344 0.131933
0.589790 0.198152 0.126941
0.622079 0.196134 0.122775
0.653108 0.194116 0.117510
0.683379 0.192098 0.111585
0.713561 0.190080 0.106959
0.743702 0.188062 0.102923
0.774039 0.186141 0.098887
0.804441 0.184253 0.094851
0.832885 0.187073 0.092348
0.860878 0.190979 0.090200
0.866143 0.210550 0.091925
0.868161 0.232358 0.094204
0.873841 0.261857 0.130172
0.879765 0.291868 0.168385
0.139123 0.205468 0.149844
0.165358 0.212694 0.156224
0.191268 0.219594 0.162384
0.212295 0.221613 0.165248
0.232859 0.223419 0.167860
0.250175 0.223745 0.168707
0.268249 0.224168 0.168955
0.289601 0.225014 0.166611
0.311459 0.226153 0.164854
0.334830 0.228171 0.164854
0.358465 0.230190 0.163592
0.382682 0.232208 0.159556
0.409170 0.233469 0.155837
0.439441 0.233469 0.152647
0.469713 0.233099 0.149087
0.499984 0.232252 0.145051
0.531265 0.231243 0.140006
0.563554 0.230072 0.133951
0.595844 0.228424 0.128373
0.628134 0.226406 0.123165
0.659162 0.224387 0.118161
0.689433 0.222369 0.113278
0.718899 0.220351 0.108977
0.747999 0.218333 0.104941
0.778856 0.217194 0.100905
0.810300 0.216348 0.096869
0.837247 0.218516 0.093520
0.863157 0.221381 0.090330
0.868161 0.238087 0.093748
0.870179 0.256771 0.098110
0.874883 0.284121 0.133231
0.879765 0.312049 0.170403
0.141141 0.231325 0.157916
0.167571 0.239397 0.165598
0.193611 0.247091 0.172926
0.213792 0.249109 0.174944
0.233721 0.251152 0.176685
0.251884 0.253365 0.176490
0.270804 0.255163 0.175648
0.293003 0.255163 0.172002
0.315658 0.255619 0.169170
0.339680 0.257442 0.168780
0.363824 0.259326 0.167250
0.388236 0.261344 0.163214
0.414846 0.262678 0.159251
0.445117 0.262874 0.155410
0.475474 0.262898 0.151398
0.505941 0.262703 0.147167
0.537221 0.261694 0.142024
0.569316 0.259871 0.135969
0.601520 0.257938 0.129915
0.633809 0.255920 0.123861
0.664716 0.253902 0.119068
0.694792 0.251884 0.115032
0.723749 0.249866 0.110995
0.752198 0.247848 0.106959
0.783381 0.247197 0.102923
0.815475 0.247002 0.098887
0.841169 0.248605 0.095009
0.865386 0.250623 0.091168
0.870179 0.264660 0.095986
0.872198 0.280414 0.102040
0.876291 0.305811 0.136108
0.880522 0.331851 0.172043
0.143159 0.255542 0.165989
0.170631 0.263614 0.171587
0.197648 0.271308 0.176962
0.217829 0.273326 0.178980
0.237757 0.275499 0.180591
0.255920 0.278754 0.179355
0.274840 0.281399 0.178057
0.297039 0.281399 0.176494
0.319433 0.281594 0.174704
0.342414 0.282375 0.172230
0.366167 0.283543 0.169268
0.391621 0.285561 0.165232
0.418882 0.287286 0.161660
0.449153 0.288523 0.158860
0.479966 0.288678 0.154979
0.511474 0.287441 0.149706
0.542755 0.286432 0.144042
0.573808 0.285651 0.137988
0.605556 0.284174 0.131933
0.637846 0.282156 0.125879
0.668101 0.280137 0.121086
0.697135 0.278119 0.117050
0.726483 0.276101 0.113014
0.755974 0.274083 0.108977
0.786636 0.272651 0.104941
0.817688 0.271414 0.100905
0.843187 0.272822 0.097874
0.867405 0.274840 0.095074
0.872198 0.287054 0.100022
0.874216 0.300725 0.106076
0.879285 0.325016 0.138191
0.884558 0.350014 0.172043
0.145682 0.279759 0.173052
0.173935 0.287831 0.176567
0.201684 0.295542 0.179989
0.221865 0.297820 0.182007
0.241794 0.300286 0.183554
0.259956 0.304062 0.181796
0.278876 0.307178 0.180368
0.301075 0.307439 0.180368
0.323274 0.307634 0.179359
0.345473 0.307634 0.175322
0.368934 0.308265 0.171286
0.395169 0.310283 0.167250
0.422918 0.312203 0.163971
0.453190 0.313961 0.161953
0.484230 0.314181 0.158282
0.516259 0.312423 0.152489
0.547540 0.311414 0.146434
0.578072 0.311154 0.140120
0.609446 0.310051 0.133951
0.641475 0.308293 0.127897
0.671307 0.306210 0.123104
0.699821 0.303932 0.119068
0.729364 0.301832 0.115032
0.759375 0.299814 0.110995
0.789582 0.297796 0.106959
0.819853 0.295778 0.102923
0.844994 0.296827 0.100315
0.868951 0.298585 0.098037
0.873711 0.309400 0.102821
0.875729 0.321509 0.108615
0.881531 0.344481 0.139493
0.887586 0.368177 0.172043
0.149718 0.303976 0.177088
0.177971 0.312049 0.178520
0.205720 0.319824 0.179989
0.225901 0.323144 0.182007
0.245830 0.326391 0.183684
0.263993 0.329125 0.182968
0.282912 0.331591 0.182386
0.305111 0.332893 0.182386
0.327311 0.333869 0.181377
0.349510 0.333869 0.177341
0.372970 0.334500 0.173304
0.399205 0.336518 0.169268
0.426954 0.338048 0.165989
0.457226 0.338764 0.163971
0.487811 0.338854 0.160756
0.518798 0.338138 0.156004
0.550079 0.337128 0.149950
0.581652 0.335826 0.142593
0.612896 0.334854 0.135969
0.643884 0.334138 0.129915
0.673976 0.331794 0.125122
0.703532 0.328474 0.121086
0.732684 0.326049 0.117050
0.761654 0.324031 0.113014
0.791600 0.322013 0.108977
0.821871 0.319995 0.104941
0.846166 0.320198 0.101487
0.869081 0.320914 0.098167
0.873711 0.331599 0.101910
0.875729 0.343708 0.106662
0.881531 0.364727 0.138451
0.887586 0.386340 0.172043
0.154385 0.328193 0.178602
0.182638 0.336591 0.179253
0.210387 0.344737 0.179989
0.230568 0.349099 0.182007
0.250497 0.353167 0.183733
0.268660 0.355186 0.183407
0.287518 0.357204 0.183265
0.309392 0.359222 0.183916
0.331347 0.360735 0.183558
0.353546 0.360735 0.180172
0.376905 0.361163 0.176584
0.402814 0.362530 0.172548
0.430360 0.363628 0.169146
0.460631 0.364279 0.166802
0.490903 0.364503 0.163576
0.521174 0.364178 0.159214
0.552455 0.363168 0.153160
0.584744 0.361476 0.145413
0.615899 0.360552 0.138618
0.646170 0.360227 0.132564
0.676442 0.357582 0.127568
0.706713 0.353546 0.123206
0.735597 0.350897 0.119068
0.763851 0.348879 0.115032
0.793618 0.346617 0.110995
0.823889 0.344273 0.106959
0.847866 0.343834 0.103188
0.870391 0.343834 0.099477
0.874688 0.353859 0.102260
0.876380 0.365317 0.105971
0.882162 0.384953 0.137756
0.888216 0.405134 0.171412
0.160439 0.352411 0.174566
0.188692 0.361850 0.177300
0.216441 0.371037 0.179989
0.236622 0.376441 0.182007
0.256551 0.381421 0.183602
0.274714 0.383439 0.182235
0.293377 0.385457 0.181637
0.314209 0.387475 0.184371
0.335383 0.388989 0.186096
0.357582 0.388989 0.184794
0.380615 0.388765 0.182638
0.405483 0.388049 0.178602
0.432378 0.388627 0.174810
0.462649 0.391361 0.171425
0.492921 0.392301 0.167156
0.523192 0.390934 0.161753
0.554473 0.389925 0.155699
0.586763 0.389274 0.148994
0.617917 0.388220 0.142654
0.648188 0.386853 0.136600
0.678460 0.383817 0.130953
0.708731 0.379781 0.125549
0.737615 0.377132 0.121086
0.765869 0.375114 0.117050
0.795636 0.372071 0.113014
0.825907 0.368686 0.108977
0.850731 0.368051 0.106052
0.874297 0.368051 0.103383
0.877812 0.376254 0.105385
0.878463 0.385628 0.108054
0.884180 0.405134 0.137821
0.890234 0.425315 0.169394
0.165736 0.378141 0.172043
0.194380 0.388623 0.175689
0.222496 0.398778 0.179208
0.242677 0.404051 0.180836
0.262654 0.408966 0.182105
0.281208 0.411375 0.180868
0.299993 0.413710 0.180473
0.319783 0.415729 0.183728
0.340176 0.417340 0.186365
0.362375 0.417730 0.187146
0.385083 0.417490 0.186666
0.408909 0.415863 0.183411
0.434713 0.415920 0.179717
0.463813 0.418784 0.175290
0.493596 0.419854 0.170151
0.524258 0.418617 0.164097
0.555930 0.417999 0.158238
0.588610 0.417999 0.152574
0.619935 0.416644 0.146471
0.650207 0.414235 0.140026
0.680478 0.411054 0.134069
0.710750 0.407408 0.128406
0.739634 0.404344 0.123592
0.767887 0.401545 0.119166
0.797654 0.398111 0.115032
0.827925 0.394465 0.110995
0.852960 0.393464 0.108599
0.876787 0.393074 0.106581
0.880107 0.399747 0.107753
0.880498 0.407428 0.109380
0.885832 0.426096 0.137861
0.891496 0.445496 0.168133
0.169773 0.406395 0.172043
0.199458 0.417918 0.174647
0.228550 0.428919 0.177125
0.248731 0.432109 0.177711
0.268839 0.435332 0.178329
0.288434 0.438782 0.179176
0.307870 0.441964 0.180083
0.326619 0.443982 0.181255
0.346230 0.445854 0.182850
0.368429 0.447286 0.185714
0.390812 0.448087 0.187317
0.413597 0.447501 0.186145
0.437578 0.447038 0.183362
0.463553 0.446777 0.177894
0.492034 0.447001 0.172169
0.523738 0.447847 0.166115
0.556450 0.448270 0.160777
0.590172 0.448270 0.156155
0.621953 0.446330 0.149921
0.652225 0.442879 0.142435
0.682496 0.439958 0.136738
0.712768 0.437354 0.132116
0.741652 0.433184 0.126912
0.769905 0.428301 0.121444
0.799672 0.425127 0.117050
0.829944 0.422523 0.113014
0.854132 0.420871 0.110617
0.876917 0.419439 0.108599
0.881019 0.425070 0.108859
0.882451 0.431711 0.109445
0.886874 0.448360 0.137861
0.891496 0.465677 0.168133
0.175575 0.435531 0.171160
0.205390 0.448095 0.172722
0.234633 0.460029 0.174216
0.255269 0.462503 0.174671
0.275792 0.465172 0.175265
0.295517 0.469208 0.176828
0.315121 0.472866 0.178183
0.334195 0.474884 0.178638
0.353936 0.476902 0.179875
0.375680 0.478920 0.183456
0.397423 0.480308 0.185917
0.419167 0.480308 0.185917
0.442009 0.479722 0.184331
0.466682 0.478159 0.180099
0.494089 0.477565 0.175070
0.525011 0.478216 0.169016
0.557398 0.478770 0.163971
0.591250 0.479225 0.159934
0.623345 0.477154 0.153628
0.654072 0.473118 0.145555
0.684229 0.470059 0.139721
0.714045 0.467585 0.135229
0.742787 0.462963 0.129976
0.771040 0.457364 0.124378
0.800807 0.454109 0.119951
0.831079 0.451635 0.115915
0.855162 0.449161 0.112778
0.877816 0.446688 0.109848
0.882015 0.451277 0.109881
0.883578 0.456876 0.110336
0.887887 0.471934 0.138317
0.892379 0.487623 0.168133
0.183647 0.465803 0.169142
0.212421 0.479409 0.169663
0.240752 0.492384 0.170245
0.262430 0.495899 0.171742
0.283734 0.499480 0.173117
0.302418 0.503516 0.173638
0.321565 0.507174 0.174342
0.342723 0.509192 0.175839
0.363767 0.511210 0.177597
0.384468 0.513228 0.180136
0.405170 0.514615 0.181881
0.425872 0.514615 0.181881
0.448454 0.514420 0.181857
0.474168 0.513899 0.181792
0.500794 0.512524 0.179106
0.528592 0.510050 0.173052
0.558896 0.509562 0.168007
0.591706 0.511059 0.163971
0.623931 0.509444 0.157664
0.655699 0.505408 0.149592
0.685597 0.501697 0.143106
0.714371 0.498182 0.137573
0.742787 0.493950 0.132710
0.771040 0.489393 0.128153
0.800807 0.485617 0.123987
0.831079 0.482102 0.119951
0.856008 0.478587 0.115121
0.879704 0.475071 0.110109
0.883122 0.478619 0.110792
0.883643 0.483176 0.112289
0.888863 0.497193 0.139359
0.894397 0.511841 0.168133
0.190710 0.499101 0.166115
0.219485 0.512707 0.166115
0.247815 0.525715 0.166208
0.269494 0.529751 0.167706
0.290798 0.533787 0.169081
0.309481 0.537824 0.169602
0.328726 0.541579 0.170306
0.350405 0.544118 0.171803
0.371709 0.546527 0.173430
0.391890 0.548545 0.175449
0.412234 0.549932 0.176836
0.432935 0.549932 0.176836
0.455517 0.549932 0.177593
0.481231 0.549932 0.179611
0.507174 0.548394 0.179009
0.533409 0.544879 0.175038
0.561890 0.543349 0.171294
0.592617 0.543805 0.167779
0.624516 0.542320 0.161700
0.657327 0.539325 0.153628
0.687289 0.535679 0.146817
0.715543 0.531643 0.140762
0.743796 0.527249 0.135738
0.772049 0.522692 0.131181
0.801426 0.518526 0.127014
0.831176 0.514489 0.122978
0.856854 0.510030 0.117725
0.881592 0.505473 0.112192
0.885140 0.507524 0.112810
0.885661 0.510518 0.114307
0.890881 0.523461 0.140400
0.896415 0.537067 0.168133
0.196765 0.535427 0.162079
0.226581 0.547991 0.162079
0.255823 0.560023 0.162107
0.276459 0.564059 0.162563
0.296982 0.568095 0.163157
0.316707 0.572131 0.164719
0.336604 0.576082 0.166074
0.357240 0.579663 0.166530
0.377763 0.582852 0.167376
0.397944 0.584871 0.169394
0.418613 0.586258 0.170782
0.440357 0.586258 0.170782
0.463199 0.586258 0.171538
0.487872 0.586258 0.173557
0.513228 0.585176 0.174777
0.539463 0.582702 0.174973
0.566382 0.580130 0.173833
0.593985 0.577461 0.171359
0.625102 0.575781 0.165736
0.658954 0.574870 0.157664
0.689307 0.572005 0.150853
0.717561 0.567969 0.144799
0.745814 0.562859 0.139058
0.774067 0.557260 0.133459
0.802663 0.552833 0.129032
0.831372 0.548797 0.124996
0.857701 0.543491 0.120590
0.883480 0.537893 0.116098
0.888070 0.537990 0.115935
0.889632 0.538902 0.116391
0.893941 0.550738 0.141442
0.898433 0.563302 0.168133
0.202819 0.570618 0.156907
0.232505 0.583312 0.156907
0.261633 0.595466 0.156907
0.282400 0.599502 0.156907
0.303093 0.603538 0.157160
0.323274 0.607574 0.159178
0.343455 0.611610 0.160817
0.363636 0.615647 0.160817
0.383817 0.619178 0.161175
0.403998 0.621196 0.162608
0.424810 0.622584 0.163775
0.447009 0.622584 0.164361
0.469965 0.622584 0.165484
0.494182 0.622584 0.167502
0.519282 0.621957 0.169520
0.545518 0.620525 0.171538
0.572046 0.618084 0.172124
0.598867 0.614633 0.171278
0.627922 0.612135 0.167685
0.658714 0.610378 0.161957
0.689018 0.607928 0.155658
0.719029 0.605064 0.149018
0.747832 0.600006 0.142781
0.776086 0.593952 0.136726
0.804339 0.588972 0.131746
0.832592 0.584350 0.127124
0.859206 0.578564 0.122978
0.885441 0.572510 0.118942
0.890487 0.571240 0.118437
0.892505 0.570654 0.118437
0.896415 0.580871 0.141934
0.900451 0.591808 0.166998
0.208873 0.604925 0.150853
0.237517 0.618662 0.150853
0.265734 0.631791 0.150853
0.287543 0.635828 0.150853
0.309148 0.639864 0.151105
0.329329 0.643900 0.153123
0.349510 0.647936 0.154763
0.369691 0.651972 0.154763
0.389872 0.655504 0.154861
0.410053 0.657522 0.155251
0.430864 0.658910 0.156028
0.453063 0.658910 0.157656
0.476019 0.658910 0.159430
0.500236 0.658910 0.161448
0.525337 0.658739 0.163466
0.551572 0.658348 0.165484
0.578621 0.656948 0.167112
0.606484 0.654540 0.168349
0.632479 0.650740 0.168011
0.657022 0.645857 0.166448
0.686935 0.643538 0.161061
0.720071 0.642757 0.153380
0.749850 0.638350 0.146817
0.778104 0.632296 0.140762
0.806357 0.626535 0.135001
0.834610 0.620871 0.129337
0.861224 0.614890 0.124996
0.887459 0.608835 0.120960
0.892505 0.606655 0.120455
0.894523 0.605027 0.120455
0.898433 0.613226 0.141999
0.902469 0.622079 0.164980
0.214928 0.640494 0.144799
0.243181 0.654621 0.145450
0.271015 0.668117 0.146060
0.292563 0.672153 0.146060
0.313941 0.676190 0.146231
0.334122 0.680226 0.147598
0.354303 0.684262 0.148709
0.374484 0.688298 0.148709
0.394665 0.691667 0.148871
0.414846 0.693034 0.149522
0.435657 0.694178 0.150397
0.457856 0.694829 0.151764
0.480812 0.694991 0.153376
0.505029 0.694340 0.155394
0.529845 0.694259 0.157412
0.555429 0.694910 0.159430
0.582348 0.694226 0.161448
0.610601 0.692208 0.163466
0.636548 0.688652 0.164349
0.660700 0.683900 0.164349
0.689165 0.680897 0.161338
0.720218 0.678944 0.156521
0.749793 0.675067 0.150853
0.778698 0.670314 0.144799
0.807602 0.664586 0.138744
0.836506 0.658531 0.132690
0.863242 0.652477 0.127747
0.889478 0.646423 0.123059
0.895092 0.642761 0.122473
0.897761 0.639441 0.122473
0.900492 0.645580 0.142675
0.903226 0.652351 0.164223
0.220982 0.676820 0.138744
0.249235 0.690947 0.140437
0.277005 0.704443 0.142024
0.297511 0.708479 0.142024
0.317977 0.712515 0.142064
0.338158 0.716552 0.142390
0.358339 0.720588 0.142654
0.378520 0.724624 0.142654
0.398701 0.727732 0.143078
0.418882 0.728058 0.144770
0.439694 0.728811 0.146036
0.461893 0.730503 0.146361
0.484848 0.730926 0.147321
0.509066 0.729234 0.149339
0.533425 0.729022 0.151357
0.557968 0.730715 0.153376
0.584366 0.730552 0.155394
0.612619 0.728534 0.157412
0.640324 0.726150 0.158295
0.667600 0.723481 0.158295
0.693982 0.719306 0.158539
0.719827 0.714228 0.158929
0.748491 0.710806 0.154889
0.778437 0.708137 0.148835
0.808383 0.702929 0.142781
0.838329 0.696875 0.136726
0.865260 0.690821 0.130936
0.891496 0.684766 0.125208
0.898022 0.679282 0.124492
0.901733 0.673879 0.124492
0.902575 0.677935 0.143716
0.903226 0.682622 0.164223
0.225649 0.714533 0.134078
0.253902 0.727944 0.135380
0.281651 0.740769 0.136600
0.301832 0.744805 0.136600
0.322013 0.748841 0.136690
0.342194 0.752877 0.137406
0.362241 0.756779 0.137988
0.381706 0.760099 0.137988
0.401350 0.762768 0.138313
0.421531 0.763485 0.139615
0.442342 0.764384 0.140510
0.464541 0.765686 0.140510
0.487497 0.766011 0.141267
0.511714 0.764709 0.143285
0.536245 0.764547 0.145303
0.561178 0.765849 0.147321
0.587414 0.765490 0.148981
0.614951 0.763472 0.150283
0.642891 0.761857 0.151256
0.671144 0.760555 0.151972
0.697770 0.757178 0.153054
0.723420 0.752556 0.154356
0.750770 0.748739 0.152570
0.778893 0.745289 0.149380
0.809164 0.740960 0.144579
0.840152 0.736338 0.139241
0.867278 0.730552 0.133903
0.893514 0.724498 0.128564
0.900325 0.717190 0.127270
0.904361 0.709704 0.126554
0.905285 0.712349 0.144758
0.906001 0.715669 0.164223
0.229685 0.752877 0.130041
0.257938 0.765246 0.130302
0.285687 0.777095 0.130546
0.305868 0.781131 0.130546
0.326049 0.785167 0.130766
0.346230 0.789203 0.132523
0.366082 0.792910 0.133951
0.384505 0.795188 0.133951
0.403368 0.797337 0.134016
0.423549 0.799094 0.134277
0.444360 0.800384 0.134456
0.466559 0.800644 0.134456
0.489515 0.800710 0.135213
0.513733 0.800449 0.137231
0.538719 0.800417 0.139249
0.564694 0.800677 0.141267
0.590929 0.799798 0.142406
0.617425 0.797780 0.142667
0.644909 0.796751 0.143769
0.673162 0.796490 0.145527
0.701090 0.794806 0.146349
0.728823 0.792267 0.146609
0.754676 0.787669 0.147362
0.779674 0.782136 0.148338
0.809946 0.778848 0.145360
0.841975 0.776309 0.141064
0.869297 0.770914 0.136767
0.895532 0.764860 0.132470
0.902343 0.755730 0.130395
0.906379 0.746160 0.128638
0.908279 0.747698 0.145800
0.910037 0.749976 0.164223
0.235235 0.791221 0.126005
0.262707 0.802549 0.126005
0.289723 0.813469 0.126005
0.309904 0.818287 0.126005
0.330085 0.822909 0.126160
0.350266 0.826164 0.127397
0.370069 0.829333 0.128548
0.388232 0.832133 0.129329
0.406899 0.834541 0.129915
0.427080 0.835778 0.129915
0.447892 0.836629 0.129915
0.470091 0.836629 0.129915
0.492754 0.836629 0.130379
0.516190 0.836629 0.131616
0.540851 0.836629 0.133195
0.567086 0.836629 0.135213
0.593321 0.835619 0.136612
0.619557 0.833601 0.137394
0.646488 0.832279 0.138431
0.673960 0.831498 0.139668
0.702409 0.830432 0.140620
0.731443 0.829195 0.141401
0.757703 0.825720 0.143033
0.782701 0.821228 0.145051
0.810825 0.817420 0.143700
0.839989 0.813839 0.141226
0.868678 0.810153 0.138753
0.897257 0.806442 0.136279
0.905045 0.796466 0.134204
0.909862 0.785594 0.132186
0.911323 0.786074 0.148355
0.912560 0.787311 0.165736
0.241289 0.829565 0.121969
0.267720 0.839851 0.121969
0.293760 0.849860 0.121969
0.313941 0.855719 0.121969
0.334122 0.861122 0.121993
0.354303 0.863336 0.122189
0.374105 0.865854 0.122689
0.392268 0.869695 0.124512
0.410936 0.872625 0.125879
0.431117 0.872820 0.125879
0.451928 0.872954 0.125879
0.474127 0.872954 0.125879
0.496400 0.872954 0.125952
0.518794 0.872954 0.126148
0.542869 0.872954 0.127140
0.569104 0.872954 0.129158
0.595339 0.871945 0.131079
0.621575 0.869927 0.132902
0.647920 0.868019 0.133809
0.674351 0.866196 0.134004
0.703060 0.865391 0.135217
0.733136 0.865195 0.137040
0.760437 0.863478 0.138997
0.786477 0.861069 0.141015
0.811736 0.856220 0.141226
0.836734 0.850556 0.140836
0.867181 0.849018 0.140445
0.898884 0.848432 0.140055
0.907974 0.837935 0.138240
0.913833 0.826021 0.136222
0.914382 0.825460 0.151414
0.914578 0.825655 0.167755
0.245704 0.869549 0.117933
0.271939 0.877947 0.118779
0.297796 0.886092 0.119572
0.317977 0.890454 0.119572
0.338052 0.894523 0.119467
0.357387 0.896541 0.118620
0.376660 0.898779 0.118470
0.395670 0.901969 0.121334
0.414972 0.904361 0.123271
0.435153 0.904361 0.122425
0.455700 0.904361 0.121843
0.477053 0.904361 0.121843
0.498723 0.904361 0.122160
0.520922 0.904361 0.123006
0.544517 0.904361 0.123995
0.569906 0.904361 0.125167
0.595718 0.903775 0.126762
0.621953 0.902603 0.128780
0.648188 0.901431 0.129663
0.674424 0.900260 0.129663
0.702124 0.899820 0.131453
0.730703 0.899820 0.134318
0.758834 0.899015 0.136600
0.786762 0.897843 0.138618
0.813176 0.894913 0.139757
0.839086 0.891398 0.140604
0.868117 0.888676 0.141450
0.897867 0.886137 0.142296
0.908365 0.877446 0.142117
0.916112 0.867877 0.141792
0.916596 0.864898 0.156114
0.916596 0.862359 0.171412
0.249740 0.909911 0.113897
0.275975 0.916225 0.115784
0.301832 0.922288 0.117554
0.322013 0.924566 0.117554
0.341958 0.926812 0.117318
0.360251 0.928830 0.115430
0.378874 0.930873 0.114629
0.398925 0.933021 0.118535
0.419008 0.934632 0.120992
0.439189 0.934632 0.119105
0.459411 0.934632 0.117807
0.479722 0.934632 0.117807
0.500741 0.934632 0.118515
0.522940 0.934632 0.120402
0.546079 0.934632 0.121521
0.570426 0.934632 0.121652
0.595718 0.934567 0.122726
0.621953 0.934437 0.124744
0.648188 0.934307 0.125627
0.674424 0.934177 0.125627
0.700822 0.934128 0.128068
0.727317 0.934128 0.131974
0.756230 0.934038 0.134582
