luts/kodak.cube
#Generated with IWLTBAP LUT Generator
#Website: http://luts.iwltbap.com
TITLE "PictureFX Kodak Ultramax 400 V2.0"
#LUT size
LUT_3D_SIZE 25
#LUT data points
0.000000 0.000000 0.000000
0.011765 0.000000 0.000000
0.023529 0.000000 0.000000
0.043137 0.000000 0.000000
0.062745 0.000000 0.000000
0.086275 0.000000 0.000000
0.113725 0.000000 0.000000
0.137255 0.000000 0.000000
0.176471 0.000000 0.000000
0.223529 0.000000 0.000000
0.298039 0.000000 0.003922
0.388235 0.000000 0.000000
0.490196 0.000000 0.000000
0.560784 0.011765 0.015686
0.631373 0.054902 0.054902
0.698039 0.098039 0.105882
0.760784 0.141176 0.149020
0.815686 0.188235 0.200000
0.874510 0.243137 0.254902
0.925490 0.298039 0.313725
0.972549 0.360784 0.380392
1.000000 0.423529 0.443137
1.000000 0.482353 0.509804
1.000000 0.541176 0.568627
1.000000 0.592157 0.623529
0.000000 0.007843 0.000000
0.007843 0.007843 0.000000
0.023529 0.007843 0.000000
0.039216 0.007843 0.000000
0.062745 0.007843 0.000000
0.086275 0.007843 0.000000
0.109804 0.007843 0.000000
0.141176 0.007843 0.000000
0.176471 0.011765 0.000000
0.231373 0.011765 0.003922
0.305882 0.019608 0.003922
0.396078 0.023529 0.000000
0.490196 0.035294 0.000000
0.564706 0.058824 0.015686
0.635294 0.090196 0.058824
0.701961 0.125490 0.105882
0.760784 0.164706 0.152941
0.819608 0.203922 0.203922
0.874510 0.254902 0.258824
0.925490 0.309804 0.317647
0.972549 0.368627 0.384314
1.000000 0.431373 0.447059
1.000000 0.490196 0.513725
1.000000 0.549020 0.572549
1.000000 0.600000 0.627451
0.000000 0.023529 0.000000
0.007843 0.023529 0.000000
0.019608 0.023529 0.000000
0.039216 0.019608 0.000000
0.062745 0.019608 0.000000
0.086275 0.023529 0.000000
0.109804 0.023529 0.000000
0.141176 0.023529 0.000000
0.180392 0.027451 0.000000
0.239216 0.039216 0.003922
0.313725 0.050980 0.000000
0.403922 0.062745 0.000000
0.498039 0.078431 0.000000
0.568627 0.098039 0.019608
0.639216 0.125490 0.062745
0.701961 0.152941 0.109804
0.760784 0.188235 0.156863
0.819608 0.227451 0.207843
0.874510 0.274510 0.262745
0.925490 0.325490 0.325490
0.972549 0.384314 0.388235
1.000000 0.443137 0.454902
1.000000 0.501961 0.517647
1.000000 0.556863 0.576471
1.000000 0.607843 0.631373
0.000000 0.043137 0.000000
0.007843 0.043137 0.000000
0.019608 0.039216 0.000000
0.039216 0.039216 0.000000
0.062745 0.039216 0.000000
0.086275 0.043137 0.000000
0.109804 0.043137 0.000000
0.145098 0.047059 0.000000
0.188235 0.058824 0.003922
0.250980 0.070588 0.003922
0.329412 0.090196 0.000000
0.419608 0.105882 0.000000
0.501961 0.125490 0.000000
0.576471 0.141176 0.019608
0.643137 0.164706 0.070588
0.705882 0.192157 0.117647
0.764706 0.219608 0.164706
0.823529 0.254902 0.215686
0.878431 0.298039 0.270588
0.929412 0.349020 0.333333
0.972549 0.403922 0.396078
1.000000 0.458824 0.462745
1.000000 0.513725 0.525490
1.000000 0.568627 0.584314
1.000000 0.615686 0.635294
0.000000 0.062745 0.000000
0.007843 0.062745 0.000000
0.019608 0.062745 0.000000
0.039216 0.062745 0.003922
0.058824 0.062745 0.003922
0.086275 0.062745 0.003922
0.113725 0.070588 0.003922
0.152941 0.078431 0.003922
0.203922 0.094118 0.003922
0.270588 0.109804 0.000000
0.349020 0.133333 0.000000
0.439216 0.156863 0.000000
0.513725 0.172549 0.000000
0.584314 0.188235 0.027451
0.647059 0.211765 0.078431
0.709804 0.231373 0.125490
0.768627 0.258824 0.172549
0.827451 0.290196 0.223529
0.878431 0.333333 0.282353
0.929412 0.376471 0.345098
0.976471 0.427451 0.407843
1.000000 0.482353 0.470588
1.000000 0.533333 0.533333
1.000000 0.584314 0.592157
1.000000 0.631373 0.643137
0.000000 0.090196 0.000000
0.003922 0.090196 0.000000
0.019608 0.090196 0.003922
0.039216 0.090196 0.003922
0.066667 0.094118 0.003922
0.090196 0.094118 0.003922
0.121569 0.101961 0.003922
0.168627 0.113725 0.000000
0.223529 0.133333 0.000000
0.294118 0.156863 0.000000
0.376471 0.184314 0.000000
0.450980 0.203922 0.000000
0.525490 0.219608 0.000000
0.592157 0.239216 0.043137
0.654902 0.258824 0.094118
0.717647 0.278431 0.137255
0.772549 0.301961 0.184314
0.831373 0.333333 0.239216
0.882353 0.368627 0.298039
0.933333 0.411765 0.356863
0.976471 0.458824 0.423529
1.000000 0.509804 0.486275
1.000000 0.560784 0.549020
1.000000 0.607843 0.603922
1.000000 0.647059 0.654902
0.000000 0.125490 0.000000
0.000000 0.125490 0.000000
0.019608 0.129412 0.000000
0.047059 0.129412 0.000000
0.074510 0.133333 0.000000
0.109804 0.141176 0.000000
0.145098 0.149020 0.000000
0.188235 0.164706 0.000000
0.250980 0.188235 0.000000
0.321569 0.211765 0.000000
0.400000 0.239216 0.000000
0.466667 0.254902 0.000000
0.537255 0.274510 0.007843
0.603922 0.290196 0.058824
0.666667 0.309804 0.105882
0.721569 0.325490 0.152941
0.780392 0.349020 0.200000
0.835294 0.376471 0.254902
0.886275 0.411765 0.313725
0.937255 0.450980 0.376471
0.976471 0.494118 0.439216
1.000000 0.541176 0.501961
1.000000 0.588235 0.564706
1.000000 0.631373 0.619608
1.000000 0.670588 0.666667
0.000000 0.184314 0.000000
0.000000 0.184314 0.000000
0.015686 0.188235 0.000000
0.054902 0.192157 0.000000
0.094118 0.200000 0.000000
0.133333 0.207843 0.000000
0.176471 0.219608 0.000000
0.227451 0.231373 0.000000
0.282353 0.250980 0.000000
0.349020 0.274510 0.000000
0.419608 0.294118 0.000000
0.486275 0.313725 0.000000
0.552941 0.329412 0.027451
0.615686 0.345098 0.078431
0.674510 0.360784 0.125490
0.729412 0.380392 0.172549
0.788235 0.400000 0.223529
0.843137 0.427451 0.278431
0.890196 0.458824 0.337255
0.937255 0.494118 0.400000
0.980392 0.533333 0.462745
1.000000 0.576471 0.525490
1.000000 0.619608 0.580392
1.000000 0.658824 0.635294
1.000000 0.694118 0.682353
0.000000 0.266667 0.000000
0.000000 0.266667 0.000000
0.003922 0.270588 0.000000
0.062745 0.278431 0.000000
0.113725 0.286275 0.000000
0.164706 0.294118 0.000000
0.215686 0.305882 0.000000
0.266667 0.317647 0.000000
0.317647 0.325490 0.000000
0.372549 0.341176 0.000000
0.439216 0.356863 0.000000
0.505882 0.376471 0.007843
0.568627 0.388235 0.054902
0.627451 0.403922 0.101961
0.682353 0.415686 0.149020
0.741176 0.435294 0.196078
0.796078 0.454902 0.250980
0.847059 0.478431 0.305882
0.898039 0.509804 0.364706
0.941176 0.541176 0.427451
0.980392 0.576471 0.490196
1.000000 0.615686 0.549020
1.000000 0.650980 0.603922
1.000000 0.686275 0.654902
1.000000 0.717647 0.698039
0.000000 0.364706 0.000000
0.000000 0.364706 0.000000
0.000000 0.368627 0.000000
0.062745 0.368627 0.000000
0.125490 0.372549 0.000000
0.184314 0.380392 0.000000
0.235294 0.388235 0.000000
0.290196 0.396078 0.000000
0.345098 0.403922 0.000000
0.403922 0.415686 0.000000
0.462745 0.427451 0.000000
0.521569 0.439216 0.039216
0.580392 0.450980 0.086275
0.639216 0.462745 0.129412
0.694118 0.474510 0.176471
0.749020 0.490196 0.227451
0.803922 0.509804 0.282353
0.854902 0.533333 0.337255
0.901961 0.560784 0.396078
0.945098 0.588235 0.458824
0.980392 0.623529 0.517647
1.000000 0.654902 0.576471
1.000000 0.686275 0.627451
1.000000 0.717647 0.674510
1.000000 0.745098 0.717647
0.000000 0.443137 0.000000
0.000000 0.443137 0.000000
0.000000 0.447059 0.000000
0.058824 0.447059 0.000000
0.133333 0.450980 0.000000
0.196078 0.458824 0.000000
0.254902 0.462745 0.000000
0.309804 0.470588 0.000000
0.364706 0.478431 0.000000
0.423529 0.486275 0.023529
0.478431 0.494118 0.054902
0.537255 0.505882 0.078431
0.596078 0.513725 0.121569
0.650980 0.525490 0.168627
0.705882 0.537255 0.215686
0.760784 0.552941 0.266667
0.811765 0.568627 0.321569
0.862745 0.588235 0.376471
0.905882 0.611765 0.435294
0.945098 0.639216 0.494118
0.980392 0.666667 0.552941
1.000000 0.698039 0.603922
1.000000 0.725490 0.654902
1.000000 0.752941 0.701961
1.000000 0.772549 0.737255
0.000000 0.517647 0.000000
0.000000 0.517647 0.000000
0.000000 0.521569 0.000000
0.070588 0.521569 0.000000
0.149020 0.525490 0.003922
0.211765 0.529412 0.019608
0.266667 0.533333 0.035294
0.325490 0.541176 0.054902
0.380392 0.545098 0.074510
0.435294 0.552941 0.098039
0.494118 0.560784 0.117647
0.549020 0.568627 0.145098
0.611765 0.580392 0.168627
0.666667 0.588235 0.211765
0.721569 0.600000 0.258824
0.772549 0.611765 0.309804
0.823529 0.627451 0.364706
0.870588 0.647059 0.419608
0.909804 0.666667 0.474510
0.949020 0.690196 0.533333
0.980392 0.713725 0.588235
1.000000 0.737255 0.639216
1.000000 0.760784 0.686275
1.000000 0.784314 0.725490
1.000000 0.803922 0.760784
0.000000 0.588235 0.074510
0.000000 0.588235 0.074510
0.000000 0.588235 0.078431
0.098039 0.592157 0.086275
0.168627 0.592157 0.094118
0.227451 0.596078 0.105882
0.282353 0.600000 0.117647
0.337255 0.603922 0.133333
0.396078 0.611765 0.149020
0.450980 0.619608 0.168627
0.505882 0.627451 0.188235
0.564706 0.635294 0.215686
0.623529 0.643137 0.239216
0.678431 0.654902 0.270588
0.733333 0.666667 0.309804
0.784314 0.674510 0.360784
0.831373 0.686275 0.411765
0.874510 0.701961 0.466667
0.913725 0.721569 0.521569
0.949020 0.741176 0.576471
0.976471 0.760784 0.627451
1.000000 0.780392 0.670588
1.000000 0.796078 0.713725
1.000000 0.815686 0.749020
1.000000 0.831373 0.780392
0.000000 0.654902 0.156863
0.019608 0.654902 0.160784
0.090196 0.654902 0.164706
0.145098 0.654902 0.168627
0.200000 0.658824 0.176471
0.254902 0.662745 0.184314
0.309804 0.666667 0.196078
0.360784 0.670588 0.211765
0.415686 0.674510 0.227451
0.470588 0.682353 0.247059
0.525490 0.690196 0.266667
0.580392 0.698039 0.290196
0.635294 0.705882 0.317647
0.690196 0.717647 0.345098
0.745098 0.729412 0.376471
0.796078 0.737255 0.415686
0.839216 0.745098 0.466667
0.882353 0.756863 0.517647
0.917647 0.772549 0.568627
0.949020 0.788235 0.619608
0.976471 0.803922 0.666667
0.996078 0.819608 0.705882
1.000000 0.831373 0.745098
1.000000 0.847059 0.776471
1.000000 0.854902 0.800000
0.121569 0.717647 0.243137
0.145098 0.717647 0.247059
0.176471 0.721569 0.250980
0.211765 0.721569 0.254902
0.254902 0.725490 0.262745
0.298039 0.725490 0.270588
0.345098 0.729412 0.282353
0.396078 0.733333 0.294118
0.447059 0.737255 0.313725
0.498039 0.745098 0.329412
0.549020 0.752941 0.349020
0.600000 0.756863 0.372549
0.650980 0.764706 0.400000
0.701961 0.776471 0.423529
0.752941 0.784314 0.454902
0.803922 0.796078 0.486275
0.847059 0.803922 0.525490
0.886275 0.811765 0.572549
0.917647 0.819608 0.619608
0.949020 0.831373 0.662745
0.972549 0.843137 0.705882
0.992157 0.854902 0.741176
1.000000 0.862745 0.772549
1.000000 0.874510 0.800000
1.000000 0.878431 0.819608
0.231373 0.780392 0.337255
0.247059 0.780392 0.337255
0.262745 0.784314 0.341176
0.290196 0.784314 0.345098
0.321569 0.784314 0.352941
0.356863 0.788235 0.360784
0.396078 0.792157 0.372549
0.439216 0.796078 0.384314
0.486275 0.800000 0.400000
0.529412 0.803922 0.419608
0.576471 0.807843 0.439216
0.623529 0.815686 0.458824
0.670588 0.819608 0.482353
0.717647 0.827451 0.505882
0.764706 0.835294 0.533333
0.807843 0.843137 0.564706
0.850980 0.850980 0.592157
0.890196 0.858824 0.627451
0.921569 0.866667 0.670588
0.945098 0.874510 0.709804
0.968627 0.878431 0.745098
0.984314 0.886275 0.776471
1.000000 0.894118 0.800000
1.000000 0.898039 0.823529
1.000000 0.901961 0.839216
0.333333 0.839216 0.431373
0.341176 0.839216 0.431373
0.352941 0.839216 0.435294
0.372549 0.839216 0.439216
0.396078 0.843137 0.447059
0.423529 0.843137 0.454902
0.458824 0.847059 0.466667
0.494118 0.850980 0.478431
0.533333 0.850980 0.490196
0.572549 0.854902 0.505882
0.611765 0.858824 0.525490
0.654902 0.866667 0.545098
0.694118 0.870588 0.564706
0.737255 0.874510 0.588235
0.776471 0.882353 0.611765
0.815686 0.886275 0.635294
0.854902 0.894118 0.662745
0.890196 0.898039 0.690196
0.921569 0.905882 0.717647
0.945098 0.909804 0.749020
0.964706 0.909804 0.780392
0.980392 0.913725 0.803922
0.992157 0.917647 0.823529
1.000000 0.917647 0.839216
1.000000 0.921569 0.854902
0.427451 0.886275 0.525490
0.431373 0.890196 0.525490
0.443137 0.890196 0.529412
0.454902 0.890196 0.533333
0.474510 0.890196 0.537255
0.498039 0.890196 0.545098
0.521569 0.894118 0.552941
0.552941 0.894118 0.564706
0.584314 0.898039 0.576471
0.615686 0.901961 0.592157
0.650980 0.901961 0.607843
0.686275 0.905882 0.623529
0.721569 0.909804 0.643137
0.756863 0.913725 0.662745
0.792157 0.917647 0.682353
0.827451 0.921569 0.701961
0.858824 0.925490 0.725490
0.890196 0.929412 0.745098
0.917647 0.933333 0.768627
0.941176 0.937255 0.788235
0.960784 0.937255 0.807843
0.976471 0.937255 0.827451
0.988235 0.937255 0.843137
1.000000 0.937255 0.858824
1.000000 0.937255 0.866667
0.509804 0.929412 0.611765
0.517647 0.929412 0.611765
0.525490 0.929412 0.615686
0.533333 0.929412 0.615686
0.549020 0.929412 0.623529
0.564706 0.929412 0.627451
0.584314 0.933333 0.635294
0.607843 0.933333 0.647059
0.635294 0.933333 0.654902
0.662745 0.937255 0.666667
0.690196 0.937255 0.682353
0.717647 0.941176 0.694118
0.749020 0.945098 0.709804
0.780392 0.945098 0.725490
0.807843 0.949020 0.745098
0.835294 0.949020 0.760784
0.862745 0.952941 0.776471
0.890196 0.956863 0.792157
0.913725 0.956863 0.807843
0.933333 0.960784 0.819608
0.956863 0.960784 0.835294
0.968627 0.960784 0.850980
0.980392 0.956863 0.862745
0.992157 0.956863 0.874510
1.000000 0.952941 0.882353
0.584314 0.960784 0.686275
0.588235 0.960784 0.686275
0.596078 0.960784 0.690196
0.603922 0.960784 0.690196
0.611765 0.960784 0.694118
0.627451 0.960784 0.701961
0.643137 0.960784 0.705882
0.662745 0.964706 0.713725
0.682353 0.964706 0.721569
0.701961 0.964706 0.733333
0.725490 0.964706 0.741176
0.749020 0.968627 0.752941
0.772549 0.968627 0.764706
0.800000 0.968627 0.780392
0.823529 0.968627 0.792157
0.847059 0.972549 0.803922
0.866667 0.972549 0.815686
0.890196 0.972549 0.827451
0.909804 0.976471 0.839216
0.929412 0.976471 0.847059
0.949020 0.976471 0.858824
0.964706 0.976471 0.866667
0.976471 0.972549 0.878431
0.988235 0.972549 0.886275
0.996078 0.968627 0.894118
0.647059 0.984314 0.749020
0.650980 0.984314 0.749020
0.654902 0.984314 0.749020
0.658824 0.984314 0.752941
0.666667 0.984314 0.756863
0.678431 0.984314 0.760784
0.690196 0.984314 0.764706
0.705882 0.984314 0.768627
0.721569 0.984314 0.776471
0.737255 0.984314 0.784314
0.756863 0.984314 0.792157
0.776471 0.984314 0.800000
0.792157 0.984314 0.807843
0.811765 0.988235 0.819608
0.831373 0.988235 0.827451
0.850980 0.988235 0.835294
0.870588 0.988235 0.843137
0.890196 0.988235 0.854902
0.905882 0.988235 0.862745
0.921569 0.988235 0.870588
0.941176 0.988235 0.878431
0.956863 0.988235 0.882353
0.972549 0.988235 0.890196
0.980392 0.984314 0.898039
0.988235 0.980392 0.905882
0.694118 1.000000 0.796078
0.694118 1.000000 0.796078
0.698039 1.000000 0.796078
0.701961 1.000000 0.800000
0.709804 1.000000 0.800000
0.717647 1.000000 0.803922
0.725490 1.000000 0.807843
0.737255 1.000000 0.811765
0.749020 1.000000 0.815686
0.764706 1.000000 0.823529
0.776471 1.000000 0.827451
0.792157 1.000000 0.835294
0.807843 1.000000 0.839216
0.823529 1.000000 0.847059
0.839216 1.000000 0.854902
0.854902 1.000000 0.858824
0.870588 0.996078 0.866667
0.886275 0.996078 0.870588
0.901961 0.996078 0.878431
0.917647 0.996078 0.886275
0.933333 0.996078 0.890196
0.949020 0.996078 0.898039
0.960784 0.996078 0.901961
0.976471 0.996078 0.909804
0.984314 0.992157 0.913725
0.729412 1.000000 0.831373
0.729412 1.000000 0.831373
0.733333 1.000000 0.831373
0.737255 1.000000 0.831373
0.741176 1.000000 0.835294
0.745098 1.000000 0.835294
0.752941 1.000000 0.839216
0.760784 1.000000 0.843137
0.772549 1.000000 0.847059
0.784314 1.000000 0.850980
0.792157 1.000000 0.854902
0.807843 1.000000 0.858824
0.819608 1.000000 0.862745
0.831373 1.000000 0.866667
0.847059 1.000000 0.870588
0.858824 1.000000 0.878431
0.874510 1.000000 0.882353
0.886275 1.000000 0.886275
0.901961 1.000000 0.894118
0.913725 1.000000 0.898039
0.929412 1.000000 0.901961
0.941176 1.000000 0.909804
0.952941 1.000000 0.913725
0.964706 1.000000 0.917647
0.976471 1.000000 0.921569
0.752941 1.000000 0.854902
0.752941 1.000000 0.854902
0.756863 1.000000 0.858824
0.760784 1.000000 0.858824
0.760784 1.000000 0.858824
0.768627 1.000000 0.858824
0.772549 1.000000 0.862745
0.780392 1.000000 0.866667
0.788235 1.000000 0.866667
0.796078 1.000000 0.870588
0.807843 1.000000 0.874510
0.815686 1.000000 0.878431
0.827451 1.000000 0.878431
0.839216 1.000000 0.882353
0.850980 1.000000 0.886275
0.862745 1.000000 0.890196
0.874510 1.000000 0.898039
0.886275 1.000000 0.901961
0.898039 1.000000 0.905882
0.909804 1.000000 0.909804
0.921569 1.000000 0.913725
0.933333 1.000000 0.917647
0.945098 1.000000 0.921569
0.956863 1.000000 0.925490
0.968627 1.000000 0.929412
0.772549 1.000000 0.874510
0.772549 1.000000 0.874510
0.776471 1.000000 0.878431
0.776471 1.000000 0.878431
0.780392 1.000000 0.878431
0.784314 1.000000 0.878431
0.788235 1.000000 0.882353
0.796078 1.000000 0.882353
0.800000 1.000000 0.886275
0.807843 1.000000 0.886275
0.815686 1.000000 0.890196
0.823529 1.000000 0.890196
0.835294 1.000000 0.894118
0.843137 1.000000 0.898039
0.854902 1.000000 0.901961
0.862745 1.000000 0.905882
0.874510 1.000000 0.909804
0.886275 1.000000 0.909804
0.898039 1.000000 0.913725
0.909804 1.000000 0.917647
0.917647 1.000000 0.921569
0.929412 1.000000 0.925490
0.941176 1.000000 0.929412
0.952941 1.000000 0.933333
0.960784 1.000000 0.937255
0.000000 0.000000 0.007843
0.007843 0.000000 0.007843
0.023529 0.000000 0.007843
0.039216 0.000000 0.007843
0.062745 0.000000 0.007843
0.086275 0.000000 0.011765
0.109804 0.000000 0.011765
0.141176 0.000000 0.011765
0.176471 0.000000 0.011765
0.227451 0.000000 0.015686
0.301961 0.000000 0.015686
0.392157 0.000000 0.019608
0.490196 0.000000 0.019608
0.564706 0.000000 0.039216
0.635294 0.031373 0.074510
0.698039 0.086275 0.117647
0.760784 0.133333 0.160784
0.819608 0.180392 0.207843
0.874510 0.235294 0.258824
0.925490 0.294118 0.321569
0.972549 0.356863 0.384314
1.000000 0.419608 0.447059
1.000000 0.482353 0.509804
1.000000 0.541176 0.572549
1.000000 0.592157 0.623529
0.000000 0.007843 0.007843
0.007843 0.007843 0.007843
0.019608 0.007843 0.011765
0.039216 0.007843 0.011765
0.062745 0.007843 0.011765
0.086275 0.007843 0.011765
0.109804 0.007843 0.011765
0.141176 0.007843 0.011765
0.180392 0.007843 0.011765
0.235294 0.007843 0.015686
0.309804 0.011765 0.015686
0.400000 0.011765 0.019608
0.494118 0.015686 0.019608
0.564706 0.039216 0.039216
0.635294 0.074510 0.078431
0.701961 0.113725 0.121569
0.760784 0.152941 0.160784
0.819608 0.200000 0.207843
0.874510 0.250980 0.262745
0.925490 0.305882 0.325490
0.972549 0.368627 0.388235
1.000000 0.427451 0.450980
1.000000 0.490196 0.513725
1.000000 0.545098 0.572549
1.000000 0.596078 0.627451
0.000000 0.023529 0.011765
0.007843 0.023529 0.011765
0.019608 0.023529 0.011765
0.039216 0.023529 0.011765
0.062745 0.023529 0.011765
0.086275 0.023529 0.011765
0.109804 0.023529 0.011765
0.141176 0.023529 0.011765
0.184314 0.027451 0.011765
0.243137 0.031373 0.015686
0.317647 0.043137 0.015686
0.407843 0.054902 0.019608
0.498039 0.066667 0.019608
0.568627 0.086275 0.043137
0.639216 0.113725 0.082353
0.705882 0.145098 0.125490
0.764706 0.180392 0.164706
0.819608 0.219608 0.215686
0.874510 0.270588 0.270588
0.929412 0.321569 0.329412
0.976471 0.380392 0.392157
1.000000 0.439216 0.454902
1.000000 0.498039 0.517647
1.000000 0.552941 0.580392
1.000000 0.603922 0.631373
0.000000 0.039216 0.011765
0.007843 0.039216 0.011765
0.019608 0.039216 0.011765
0.039216 0.039216 0.011765
0.058824 0.039216 0.011765
0.086275 0.039216 0.011765
0.113725 0.043137 0.011765
0.145098 0.047059 0.011765
0.192157 0.054902 0.011765
0.254902 0.070588 0.015686
0.333333 0.086275 0.015686
0.423529 0.101961 0.015686
0.505882 0.117647 0.019608
0.576471 0.133333 0.047059
0.643137 0.156863 0.086275
0.705882 0.184314 0.129412
0.764706 0.215686 0.172549
0.823529 0.250980 0.219608
0.878431 0.294118 0.278431
0.929412 0.345098 0.337255
0.976471 0.400000 0.400000
1.000000 0.458824 0.462745
1.000000 0.513725 0.525490
1.000000 0.568627 0.584314
1.000000 0.615686 0.639216
0.000000 0.062745 0.011765
0.007843 0.062745 0.011765
0.019608 0.062745 0.011765
0.039216 0.062745 0.011765
0.058824 0.062745 0.011765
0.086275 0.062745 0.011765
0.117647 0.070588 0.011765
0.156863 0.078431 0.011765
0.207843 0.090196 0.011765
0.274510 0.109804 0.015686
0.352941 0.129412 0.011765
0.443137 0.149020 0.007843
0.513725 0.164706 0.023529
0.584314 0.184314 0.054902
0.650980 0.203922 0.098039
0.713725 0.227451 0.137255
0.768627 0.254902 0.180392
0.827451 0.286275 0.231373
0.882353 0.329412 0.286275
0.933333 0.376471 0.349020
0.976471 0.427451 0.411765
1.000000 0.482353 0.474510
1.000000 0.533333 0.537255
1.000000 0.584314 0.596078
1.000000 0.631373 0.647059
0.000000 0.090196 0.011765
0.003922 0.090196 0.011765
0.015686 0.090196 0.011765
0.039216 0.090196 0.011765
0.066667 0.094118 0.011765
0.094118 0.094118 0.011765
0.125490 0.101961 0.011765
0.168627 0.117647 0.011765
0.227451 0.133333 0.011765
0.298039 0.156863 0.011765
0.380392 0.180392 0.007843
0.454902 0.200000 0.007843
0.525490 0.219608 0.027451
0.592157 0.235294 0.066667
0.658824 0.254902 0.105882
0.717647 0.274510 0.149020
0.776471 0.298039 0.192157
0.831373 0.329412 0.243137
0.886275 0.368627 0.301961
0.933333 0.411765 0.364706
0.976471 0.458824 0.427451
1.000000 0.509804 0.490196
1.000000 0.556863 0.549020
1.000000 0.603922 0.607843
1.000000 0.647059 0.654902
0.000000 0.125490 0.007843
0.000000 0.129412 0.007843
0.015686 0.129412 0.007843
0.043137 0.133333 0.007843
0.074510 0.137255 0.011765
0.109804 0.141176 0.011765
0.145098 0.152941 0.011765
0.192157 0.164706 0.011765
0.254902 0.188235 0.007843
0.325490 0.215686 0.003922
0.400000 0.235294 0.000000
0.470588 0.254902 0.007843
0.541176 0.270588 0.039216
0.603922 0.290196 0.082353
0.666667 0.305882 0.121569
0.725490 0.325490 0.164706
0.780392 0.345098 0.211765
0.835294 0.376471 0.262745
0.890196 0.411765 0.321569
0.937255 0.450980 0.380392
0.980392 0.494118 0.443137
1.000000 0.541176 0.505882
1.000000 0.584314 0.564706
1.000000 0.631373 0.619608
1.000000 0.670588 0.670588
0.000000 0.184314 0.003922
0.000000 0.188235 0.003922
0.007843 0.188235 0.003922
0.050980 0.196078 0.003922
0.090196 0.200000 0.003922
0.133333 0.211765 0.003922
0.180392 0.223529 0.003922
0.227451 0.235294 0.003922
0.286275 0.250980 0.000000
0.352941 0.274510 0.000000
0.419608 0.294118 0.000000
0.490196 0.313725 0.019608
0.552941 0.329412 0.058824
0.615686 0.345098 0.098039
0.674510 0.360784 0.137255
0.733333 0.376471 0.180392
0.788235 0.400000 0.231373
0.843137 0.423529 0.286275
0.894118 0.458824 0.345098
0.937255 0.494118 0.403922
0.980392 0.533333 0.466667
1.000000 0.576471 0.525490
1.000000 0.619608 0.584314
1.000000 0.658824 0.639216
1.000000 0.694118 0.682353
0.000000 0.266667 0.000000
0.000000 0.270588 0.000000
0.000000 0.274510 0.000000
0.054902 0.278431 0.000000
0.109804 0.286275 0.000000
0.160784 0.298039 0.000000
0.211765 0.309804 0.000000
0.266667 0.317647 0.000000
0.317647 0.329412 0.000000
0.376471 0.341176 0.000000
0.443137 0.360784 0.007843
0.505882 0.376471 0.043137
0.568627 0.388235 0.082353
0.627451 0.403922 0.117647
0.686275 0.415686 0.160784
0.741176 0.431373 0.207843
0.796078 0.450980 0.258824
0.847059 0.478431 0.313725
0.898039 0.505882 0.372549
0.941176 0.541176 0.431373
0.980392 0.576471 0.490196
1.000000 0.615686 0.552941
1.000000 0.650980 0.607843
1.000000 0.686275 0.658824
1.000000 0.717647 0.701961
0.000000 0.364706 0.000000
0.000000 0.364706 0.000000
0.000000 0.368627 0.000000
0.047059 0.372549 0.000000
0.121569 0.376471 0.000000
0.180392 0.380392 0.000000
0.235294 0.388235 0.000000
0.290196 0.396078 0.000000
0.345098 0.403922 0.000000
0.403922 0.415686 0.011765
0.462745 0.427451 0.031373
0.525490 0.439216 0.070588
0.580392 0.450980 0.105882
0.639216 0.462745 0.145098
0.698039 0.474510 0.188235
0.752941 0.490196 0.239216
0.803922 0.509804 0.290196
0.854902 0.533333 0.345098
0.901961 0.560784 0.403922
0.945098 0.588235 0.462745
0.980392 0.623529 0.521569
1.000000 0.654902 0.576471
1.000000 0.686275 0.631373
1.000000 0.717647 0.678431
1.000000 0.745098 0.721569
0.000000 0.443137 0.000000
0.000000 0.447059 0.000000
0.000000 0.447059 0.000000
0.043137 0.450980 0.000000
0.129412 0.454902 0.000000
0.192157 0.458824 0.000000
0.250980 0.462745 0.003922
0.309804 0.470588 0.019608
