luts/kodak.cube
#Generated with IWLTBAP LUT Generator
#Website: http://luts.iwltbap.com
TITLE "PictureFX Kodak Ultramax 400 V2.0"
#LUT size
LUT_3D_SIZE 5
#LUT data points
0.000000 0.000000 0.000000
0.113725 0.000000 0.000000
0.490196 0.000000 0.000000
0.874510 0.243137 0.254902
1.000000 0.592157 0.623529
0.000000 0.125490 0.000000
0.145098 0.149020 0.000000
0.537255 0.274510 0.007843
0.886275 0.411765 0.313725
1.000000 0.670588 0.666667
0.000000 0.588235 0.074510
0.282353 0.600000 0.117647
0.623529 0.643137 0.239216
0.913725 0.721569 0.521569
1.000000 0.831373 0.780392
0.509804 0.929412 0.611765
0.584314 0.933333 0.635294
0.749020 0.945098 0.709804
0.913725 0.956863 0.807843
1.000000 0.952941 0.882353
0.772549 1.000000 0.874510
0.788235 1.000000 0.882353
0.835294 1.000000 0.894118
0.898039 1.000000 0.913725
0.960784 1.000000 0.937255
0.000000 0.000000 0.121569
0.133333 0.000000 0.137255
0.525490 0.000000 0.254902
0.890196 0.176471 0.364706
1.000000 0.596078 0.666667
0.000000 0.160784 0.164706
0.180392 0.188235 0.196078
0.568627 0.250980 0.262745
0.901961 0.400000 0.419608
1.000000 0.674510 0.709804
0.000000 0.603922 0.305882
0.258824 0.615686 0.325490
0.639216 0.662745 0.403922
0.921569 0.729412 0.603922
1.000000 0.835294 0.815686
0.533333 0.933333 0.678431
0.603922 0.937255 0.698039
0.760784 0.949020 0.760784
0.913725 0.960784 0.839216
1.000000 0.956863 0.901961
0.784314 1.000000 0.898039
0.800000 1.000000 0.901961
0.843137 1.000000 0.913725
0.901961 1.000000 0.929412
0.960784 1.000000 0.949020
0.035294 0.082353 0.572549
0.290196 0.086275 0.588235
0.603922 0.121569 0.635294
0.921569 0.380392 0.709804
1.000000 0.694118 0.839216
0.000000 0.274510 0.596078
0.254902 0.282353 0.611765
0.623529 0.337255 0.666667
0.925490 0.513725 0.737255
1.000000 0.752941 0.858824
0.000000 0.674510 0.705882
0.341176 0.690196 0.721569
0.701961 0.741176 0.772549
0.929412 0.784314 0.823529
1.000000 0.870588 0.909804
0.631373 0.952941 0.854902
0.678431 0.956863 0.866667
0.796078 0.960784 0.894118
0.917647 0.968627 0.925490
0.988235 0.960784 0.956863
0.823529 1.000000 0.960784
0.835294 1.000000 0.960784
0.866667 1.000000 0.968627
0.909804 1.000000 0.976471
0.960784 1.000000 0.988235
0.447059 0.494118 0.933333
0.525490 0.513725 0.941176
0.709804 0.576471 0.956863
0.913725 0.690196 0.988235
1.000000 0.807843 0.996078
0.447059 0.556863 0.945098
0.533333 0.580392 0.949020
0.721569 0.643137 0.968627
0.913725 0.745098 0.996078
1.000000 0.835294 1.000000
0.588235 0.784314 0.976471
0.643137 0.796078 0.980392
0.776471 0.827451 0.996078
0.921569 0.866667 1.000000
1.000000 0.905882 1.000000
0.745098 0.964706 1.000000
0.768627 0.968627 1.000000
0.839216 0.972549 1.000000
0.921569 0.976471 1.000000
0.968627 0.976471 1.000000
0.858824 1.000000 1.000000
0.870588 1.000000 1.000000
0.898039 1.000000 1.000000
0.929412 1.000000 1.000000
0.956863 1.000000 1.000000
0.705882 0.756863 1.000000
0.729412 0.768627 1.000000
0.800000 0.796078 1.000000
0.890196 0.835294 1.000000
0.972549 0.870588 1.000000
0.717647 0.788235 1.000000
0.745098 0.800000 1.000000
0.811765 0.823529 1.000000
0.894118 0.854902 1.000000
0.972549 0.886275 1.000000
0.784314 0.882353 1.000000
0.803922 0.886275 1.000000
0.847059 0.898039 1.000000
0.905882 0.913725 1.000000
0.964706 0.933333 1.000000
0.839216 0.960784 1.000000
0.850980 0.964706 1.000000
0.886275 0.972549 1.000000
0.925490 0.980392 1.000000
0.956863 0.984314 1.000000
0.882353 1.000000 1.000000
0.890196 1.000000 1.000000
0.909804 1.000000 1.000000
0.933333 1.000000 1.000000
0.956863 1.000000 1.000000
