luts/kodak.cube
#Generated with IWLTBAP LUT Generator
#Website: http://luts.iwltbap.com
TITLE "PictureFX Kodak Ultramax 400 V2.0"
#LUT size
LUT_3D_SIZE 9
#LUT data points
0.000000 0.000000 0.000000
0.043137 0.000000 0.000000
0.113725 0.000000 0.000000
0.223529 0.000000 0.000000
0.490196 0.000000 0.000000
0.698039 0.098039 0.105882
0.874510 0.243137 0.254902
1.000000 0.423529 0.443137
1.000000 0.592157 0.623529
0.000000 0.043137 0.000000
0.039216 0.039216 0.000000
0.109804 0.043137 0.000000
0.250980 0.070588 0.003922
0.501961 0.125490 0.000000
0.705882 0.192157 0.117647
0.878431 0.298039 0.270588
1.000000 0.458824 0.462745
1.000000 0.615686 0.635294
0.000000 0.125490 0.000000
0.047059 0.129412 0.000000
0.145098 0.149020 0.000000
0.321569 0.211765 0.000000
0.537255 0.274510 0.007843
0.721569 0.325490 0.152941
0.886275 0.411765 0.313725
1.000000 0.541176 0.501961
1.000000 0.670588 0.666667
0.000000 0.364706 0.000000
0.062745 0.368627 0.000000
0.235294 0.388235 0.000000
0.403922 0.415686 0.000000
0.580392 0.450980 0.086275
0.749020 0.490196 0.227451
0.901961 0.560784 0.396078
1.000000 0.654902 0.576471
1.000000 0.745098 0.717647
0.000000 0.588235 0.074510
0.098039 0.592157 0.086275
0.282353 0.600000 0.117647
0.450980 0.619608 0.168627
0.623529 0.643137 0.239216
0.784314 0.674510 0.360784
0.913725 0.721569 0.521569
1.000000 0.780392 0.670588
1.000000 0.831373 0.780392
0.231373 0.780392 0.337255
0.290196 0.784314 0.345098
0.396078 0.792157 0.372549
0.529412 0.803922 0.419608
0.670588 0.819608 0.482353
0.807843 0.843137 0.564706
0.921569 0.866667 0.670588
0.984314 0.886275 0.776471
1.000000 0.901961 0.839216
0.509804 0.929412 0.611765
0.533333 0.929412 0.615686
0.584314 0.933333 0.635294
0.662745 0.937255 0.666667
0.749020 0.945098 0.709804
0.835294 0.949020 0.760784
0.913725 0.956863 0.807843
0.968627 0.960784 0.850980
1.000000 0.952941 0.882353
0.694118 1.000000 0.796078
0.701961 1.000000 0.800000
0.725490 1.000000 0.807843
0.764706 1.000000 0.823529
0.807843 1.000000 0.839216
0.854902 1.000000 0.858824
0.901961 0.996078 0.878431
0.949020 0.996078 0.898039
0.984314 0.992157 0.913725
0.772549 1.000000 0.874510
0.776471 1.000000 0.878431
0.788235 1.000000 0.882353
0.807843 1.000000 0.886275
0.835294 1.000000 0.894118
0.862745 1.000000 0.905882
0.898039 1.000000 0.913725
0.929412 1.000000 0.925490
0.960784 1.000000 0.937255
0.000000 0.000000 0.039216
0.039216 0.000000 0.043137
0.109804 0.000000 0.043137
0.239216 0.000000 0.054902
0.498039 0.000000 0.086275
0.705882 0.011765 0.156863
0.878431 0.215686 0.282353
1.000000 0.411765 0.458824
1.000000 0.588235 0.631373
0.000000 0.039216 0.039216
0.035294 0.039216 0.039216
0.117647 0.039216 0.043137
0.266667 0.054902 0.058824
0.513725 0.086275 0.090196
0.713725 0.160784 0.168627
0.882353 0.282353 0.298039
1.000000 0.450980 0.474510
1.000000 0.615686 0.647059
0.000000 0.129412 0.043137
0.031373 0.137255 0.047059
0.152941 0.156863 0.054902
0.337255 0.215686 0.074510
0.545098 0.266667 0.113725
0.729412 0.313725 0.200000
0.890196 0.403922 0.341176
1.000000 0.537255 0.517647
1.000000 0.670588 0.678431
0.000000 0.368627 0.062745
0.000000 0.376471 0.070588
0.227451 0.392157 0.082353
0.407843 0.419608 0.109804
0.588235 0.450980 0.164706
0.756863 0.490196 0.270588
0.905882 0.556863 0.423529
1.000000 0.654902 0.588235
1.000000 0.749020 0.725490
0.000000 0.592157 0.160784
0.039216 0.596078 0.168627
0.274510 0.603922 0.188235
0.450980 0.623529 0.227451
0.627451 0.650980 0.290196
0.788235 0.678431 0.396078
0.917647 0.721569 0.541176
1.000000 0.780392 0.686275
1.000000 0.831373 0.788235
0.223529 0.784314 0.372549
0.286275 0.788235 0.380392
0.396078 0.796078 0.403922
0.529412 0.807843 0.447059
0.674510 0.823529 0.509804
0.811765 0.847059 0.584314
0.921569 0.866667 0.686275
0.984314 0.886275 0.784314
1.000000 0.901961 0.847059
0.517647 0.929412 0.627451
0.537255 0.929412 0.635294
0.588235 0.933333 0.654902
0.666667 0.937255 0.682353
0.752941 0.945098 0.725490
0.839216 0.952941 0.772549
0.913725 0.956863 0.815686
0.968627 0.960784 0.854902
1.000000 0.952941 0.886275
0.698039 1.000000 0.807843
0.709804 1.000000 0.807843
0.729412 1.000000 0.819608
0.768627 1.000000 0.831373
0.811765 1.000000 0.847059
0.858824 1.000000 0.866667
0.905882 0.996078 0.886275
0.949020 0.996078 0.901961
0.984314 0.992157 0.917647
0.776471 1.000000 0.882353
0.780392 1.000000 0.882353
0.792157 1.000000 0.886275
0.811765 1.000000 0.894118
0.835294 1.000000 0.901961
0.866667 1.000000 0.909804
0.898039 1.000000 0.921569
0.929412 1.000000 0.929412
0.960784 1.000000 0.941176
0.000000 0.000000 0.121569
0.047059 0.000000 0.125490
0.133333 0.000000 0.137255
0.294118 0.000000 0.192157
0.525490 0.000000 0.254902
0.721569 0.000000 0.294118
0.890196 0.176471 0.364706
1.000000 0.407843 0.513725
1.000000 0.596078 0.666667
0.000000 0.043137 0.129412
0.039216 0.039216 0.133333
0.145098 0.043137 0.149020
0.317647 0.043137 0.203922
0.537255 0.023529 0.250980
0.729412 0.098039 0.290196
0.894118 0.258824 0.380392
1.000000 0.450980 0.529412
1.000000 0.619608 0.678431
0.000000 0.160784 0.164706
0.015686 0.168627 0.172549
0.180392 0.188235 0.196078
0.372549 0.219608 0.231373
0.568627 0.250980 0.262745
0.745098 0.301961 0.313725
0.901961 0.400000 0.419608
1.000000 0.541176 0.568627
1.000000 0.674510 0.709804
0.000000 0.392157 0.247059
0.000000 0.396078 0.247059
0.215686 0.411765 0.254902
0.423529 0.439216 0.282353
0.603922 0.458824 0.309804
0.768627 0.494118 0.376471
0.913725 0.564706 0.494118
1.000000 0.662745 0.635294
1.000000 0.752941 0.756863
0.000000 0.603922 0.305882
0.000000 0.607843 0.309804
0.258824 0.615686 0.325490
0.450980 0.635294 0.356863
0.639216 0.662745 0.403922
0.796078 0.690196 0.482353
0.921569 0.729412 0.603922
1.000000 0.788235 0.725490
1.000000 0.835294 0.815686
0.223529 0.792157 0.458824
0.290196 0.796078 0.466667
0.400000 0.803922 0.486275
0.537255 0.815686 0.521569
0.682353 0.835294 0.576471
0.819608 0.854902 0.643137
0.921569 0.874510 0.729412
0.984314 0.894118 0.811765
1.000000 0.905882 0.862745
0.533333 0.933333 0.678431
0.552941 0.937255 0.682353
0.603922 0.937255 0.698039
0.674510 0.941176 0.725490
0.760784 0.949020 0.760784
0.843137 0.952941 0.803922
0.913725 0.960784 0.839216
0.968627 0.960784 0.874510
1.000000 0.956863 0.901961
0.713725 1.000000 0.831373
0.721569 1.000000 0.835294
0.741176 1.000000 0.843137
0.776471 1.000000 0.854902
0.815686 1.000000 0.866667
0.858824 1.000000 0.882353
0.905882 0.996078 0.898039
0.949020 0.996078 0.913725
0.984314 0.992157 0.929412
0.784314 1.000000 0.898039
0.788235 1.000000 0.901961
0.800000 1.000000 0.901961
0.819608 1.000000 0.909804
0.843137 1.000000 0.913725
0.870588 1.000000 0.921569
0.901961 1.000000 0.929412
0.929412 1.000000 0.941176
0.960784 1.000000 0.949020
0.000000 0.000000 0.333333
0.098039 0.000000 0.345098
0.231373 0.000000 0.368627
0.380392 0.000000 0.396078
0.568627 0.000000 0.443137
0.745098 0.062745 0.478431
0.901961 0.266667 0.537255
1.000000 0.462745 0.631373
1.000000 0.627451 0.741176
0.000000 0.070588 0.349020
0.054902 0.070588 0.360784
0.223529 0.066667 0.380392
0.392157 0.066667 0.407843
0.580392 0.086275 0.450980
0.752941 0.168627 0.482353
0.905882 0.317647 0.541176
1.000000 0.494118 0.639216
1.000000 0.650980 0.749020
0.000000 0.231373 0.388235
0.000000 0.227451 0.396078
0.215686 0.231373 0.411765
0.415686 0.254902 0.443137
0.600000 0.274510 0.466667
0.768627 0.325490 0.498039
0.913725 0.431373 0.564706
1.000000 0.572549 0.666667
1.000000 0.701961 0.776471
0.000000 0.435294 0.450980
0.000000 0.439216 0.458824
0.227451 0.450980 0.470588
0.454902 0.478431 0.498039
0.631373 0.482353 0.505882
0.788235 0.517647 0.541176
0.921569 0.588235 0.619608
1.000000 0.686275 0.721569
1.000000 0.776471 0.815686
0.000000 0.635294 0.501961
0.000000 0.639216 0.505882
0.270588 0.647059 0.513725
0.474510 0.666667 0.537255
0.662745 0.694118 0.576471
0.811765 0.713725 0.623529
0.925490 0.752941 0.701961
0.996078 0.807843 0.792157
1.000000 0.850980 0.858824
0.278431 0.815686 0.600000
0.329412 0.815686 0.603922
0.435294 0.823529 0.619608
0.564706 0.835294 0.647059
0.701961 0.850980 0.686275
0.831373 0.870588 0.737255
0.925490 0.886275 0.800000
0.980392 0.901961 0.858824
1.000000 0.909804 0.894118
0.572549 0.941176 0.756863
0.592157 0.945098 0.764706
0.635294 0.945098 0.776471
0.698039 0.949020 0.796078
0.776471 0.952941 0.823529
0.850980 0.960784 0.850980
0.917647 0.964706 0.878431
0.964706 0.960784 0.901961
0.996078 0.956863 0.925490
0.733333 1.000000 0.874510
0.741176 1.000000 0.878431
0.760784 1.000000 0.882353
0.788235 1.000000 0.890196
0.823529 1.000000 0.898039
0.866667 1.000000 0.909804
0.905882 1.000000 0.921569
0.949020 0.996078 0.937255
0.980392 0.992157 0.945098
0.800000 1.000000 0.925490
0.803922 1.000000 0.925490
0.815686 1.000000 0.929412
0.827451 1.000000 0.933333
0.850980 1.000000 0.937255
0.874510 1.000000 0.945098
0.901961 1.000000 0.949020
0.933333 1.000000 0.956863
0.960784 1.000000 0.964706
0.035294 0.082353 0.572549
0.152941 0.082353 0.576471
0.290196 0.086275 0.588235
0.439216 0.094118 0.603922
0.603922 0.121569 0.635294
0.780392 0.211765 0.670588
0.921569 0.380392 0.709804
1.000000 0.552941 0.772549
1.000000 0.694118 0.839216
0.000000 0.145098 0.580392
0.113725 0.145098 0.584314
0.274510 0.149020 0.592157
0.435294 0.164706 0.611765
0.607843 0.196078 0.643137
0.784314 0.274510 0.678431
0.921569 0.423529 0.717647
1.000000 0.580392 0.780392
1.000000 0.709804 0.847059
0.000000 0.274510 0.596078
0.000000 0.270588 0.600000
0.254902 0.282353 0.611765
0.439216 0.301961 0.631373
0.623529 0.337255 0.666667
0.800000 0.403922 0.698039
0.925490 0.513725 0.737255
1.000000 0.643137 0.796078
1.000000 0.752941 0.858824
0.000000 0.462745 0.639216
0.000000 0.462745 0.643137
0.262745 0.474510 0.654902
0.462745 0.494118 0.674510
0.654902 0.529412 0.709804
0.815686 0.572549 0.733333
0.929412 0.647059 0.772549
1.000000 0.733333 0.831373
1.000000 0.811765 0.886275
0.000000 0.674510 0.705882
0.164706 0.678431 0.709804
0.341176 0.690196 0.721569
0.517647 0.709804 0.741176
0.701961 0.741176 0.772549
0.831373 0.749020 0.784314
0.929412 0.784314 0.823529
0.992157 0.835294 0.874510
1.000000 0.870588 0.909804
0.388235 0.843137 0.764706
0.427451 0.847059 0.768627
0.501961 0.850980 0.776471
0.611765 0.862745 0.792157
0.733333 0.874510 0.819608
0.847059 0.894118 0.850980
0.925490 0.901961 0.882353
0.976471 0.909804 0.909804
1.000000 0.921569 0.933333
0.631373 0.952941 0.854902
0.647059 0.952941 0.858824
0.678431 0.956863 0.866667
0.733333 0.956863 0.878431
0.796078 0.960784 0.894118
0.858824 0.964706 0.909804
0.917647 0.968627 0.925490
0.960784 0.964706 0.941176
0.988235 0.960784 0.956863
0.764706 1.000000 0.925490
0.768627 1.000000 0.925490
0.784314 1.000000 0.929412
0.807843 1.000000 0.933333
0.839216 1.000000 0.941176
0.874510 1.000000 0.949020
0.909804 1.000000 0.956863
0.945098 1.000000 0.964706
0.976471 0.992157 0.972549
0.823529 1.000000 0.960784
0.827451 1.000000 0.960784
0.835294 1.000000 0.960784
0.847059 1.000000 0.964706
0.866667 1.000000 0.968627
0.886275 1.000000 0.972549
0.909804 1.000000 0.976471
0.933333 1.000000 0.980392
0.960784 1.000000 0.988235
0.227451 0.266667 0.768627
0.274510 0.270588 0.772549
0.372549 0.286275 0.780392
0.501961 0.309804 0.796078
0.643137 0.356863 0.815686
0.792157 0.419608 0.847059
0.933333 0.517647 0.878431
1.000000 0.658824 0.901961
1.000000 0.760784 0.929412
0.200000 0.294118 0.772549
0.258824 0.301961 0.776471
0.364706 0.313725 0.784314
0.498039 0.341176 0.800000
0.643137 0.388235 0.823529
0.796078 0.454902 0.850980
0.933333 0.549020 0.882353
1.000000 0.678431 0.905882
1.000000 0.772549 0.933333
0.168627 0.380392 0.784314
0.239216 0.384314 0.788235
0.360784 0.400000 0.800000
0.501961 0.427451 0.811765
0.654902 0.470588 0.835294
0.803922 0.533333 0.866667
0.937255 0.619608 0.894118
1.000000 0.725490 0.917647
1.000000 0.800000 0.937255
0.235294 0.533333 0.815686
0.290196 0.537255 0.819608
0.392157 0.549020 0.827451
0.533333 0.572549 0.843137
0.678431 0.607843 0.862745
0.823529 0.658824 0.890196
0.937255 0.721569 0.913725
0.992157 0.792157 0.933333
1.000000 0.843137 0.949020
0.372549 0.709804 0.862745
0.407843 0.713725 0.862745
0.486275 0.725490 0.870588
0.592157 0.741176 0.882353
0.717647 0.764706 0.901961
0.843137 0.796078 0.925490
0.933333 0.831373 0.937255
0.980392 0.862745 0.949020
1.000000 0.890196 0.964706
0.529412 0.874510 0.913725
0.549020 0.874510 0.913725
0.600000 0.882353 0.921569
0.678431 0.890196 0.929412
0.772549 0.901961 0.945098
0.866667 0.913725 0.956863
0.925490 0.913725 0.956863
0.968627 0.925490 0.968627
0.992157 0.933333 0.980392
0.690196 0.964706 0.945098
0.701961 0.964706 0.945098
0.725490 0.964706 0.949020
0.768627 0.964706 0.952941
0.819608 0.968627 0.960784
0.870588 0.968627 0.968627
0.921569 0.972549 0.976471
0.956863 0.968627 0.984314
0.980392 0.968627 0.992157
0.784314 1.000000 0.968627
0.792157 1.000000 0.968627
0.807843 1.000000 0.972549
0.831373 1.000000 0.976471
0.858824 1.000000 0.984314
0.886275 1.000000 0.988235
0.917647 1.000000 0.992157
0.945098 1.000000 0.996078
0.968627 0.996078 1.000000
0.847059 1.000000 0.992157
0.850980 1.000000 0.992157
0.858824 1.000000 0.996078
0.870588 1.000000 1.000000
0.882353 1.000000 1.000000
0.901961 1.000000 1.000000
0.917647 1.000000 1.000000
0.937255 1.000000 1.000000
0.956863 1.000000 1.000000
0.447059 0.494118 0.933333
0.470588 0.498039 0.937255
0.525490 0.513725 0.941176
0.607843 0.537255 0.949020
0.709804 0.576471 0.956863
0.815686 0.631373 0.972549
0.913725 0.690196 0.988235
0.996078 0.749020 1.000000
1.000000 0.807843 0.996078
0.443137 0.509804 0.937255
0.466667 0.513725 0.937255
0.525490 0.529412 0.941176
0.611765 0.556863 0.949020
0.709804 0.596078 0.960784
0.815686 0.647059 0.972549
0.913725 0.705882 0.988235
0.992157 0.760784 1.000000
1.000000 0.815686 0.996078
0.447059 0.556863 0.945098
0.474510 0.564706 0.945098
0.533333 0.580392 0.949020
0.619608 0.607843 0.956863
0.721569 0.643137 0.968627
0.823529 0.694118 0.980392
0.913725 0.745098 0.996078
0.988235 0.792157 1.000000
1.000000 0.835294 1.000000
0.494118 0.658824 0.956863
0.517647 0.662745 0.956863
0.572549 0.674510 0.964706
0.650980 0.698039 0.968627
0.741176 0.729412 0.980392
0.835294 0.764706 0.992157
0.917647 0.803922 1.000000
0.980392 0.835294 1.000000
1.000000 0.866667 1.000000
0.588235 0.784314 0.976471
0.603922 0.788235 0.980392
0.643137 0.796078 0.980392
0.701961 0.807843 0.988235
0.776471 0.827451 0.996078
0.850980 0.847059 1.000000
0.921569 0.866667 1.000000
0.972549 0.886275 1.000000
1.000000 0.905882 1.000000
0.682353 0.890196 0.996078
0.694118 0.894118 1.000000
0.717647 0.898039 1.000000
0.760784 0.901961 1.000000
0.811765 0.909804 1.000000
0.866667 0.917647 1.000000
0.921569 0.925490 1.000000
0.960784 0.937255 1.000000
0.980392 0.945098 1.000000
0.745098 0.964706 1.000000
0.752941 0.964706 1.000000
0.768627 0.968627 1.000000
0.800000 0.968627 1.000000
0.839216 0.972549 1.000000
0.882353 0.972549 1.000000
0.921569 0.976471 1.000000
0.952941 0.976471 1.000000
0.968627 0.976471 1.000000
0.807843 1.000000 1.000000
0.811765 1.000000 1.000000
0.823529 1.000000 1.000000
0.843137 1.000000 1.000000
0.870588 1.000000 1.000000
0.898039 1.000000 1.000000
0.921569 1.000000 1.000000
0.945098 1.000000 1.000000
0.960784 0.996078 1.000000
0.858824 1.000000 1.000000
0.862745 1.000000 1.000000
0.870588 1.000000 1.000000
0.882353 1.000000 1.000000
0.898039 1.000000 1.000000
0.917647 1.000000 1.000000
0.929412 1.000000 1.000000
0.941176 1.000000 1.000000
0.956863 1.000000 1.000000
0.615686 0.666667 1.000000
0.631373 0.670588 1.000000
0.662745 0.682353 1.000000
0.709804 0.701961 1.000000
0.772549 0.725490 1.000000
0.839216 0.760784 1.000000
0.901961 0.792157 1.000000
0.956863 0.819608 1.000000
1.000000 0.847059 1.000000
0.619608 0.678431 1.000000
0.631373 0.682353 1.000000
0.662745 0.694118 1.000000
0.713725 0.709804 1.000000
0.772549 0.737255 1.000000
0.839216 0.768627 1.000000
0.901961 0.800000 1.000000
0.956863 0.827451 1.000000
1.000000 0.850980 1.000000
0.631373 0.709804 1.000000
0.643137 0.713725 1.000000
0.674510 0.725490 1.000000
0.721569 0.741176 1.000000
0.780392 0.768627 1.000000
0.843137 0.796078 1.000000
0.901961 0.823529 1.000000
0.956863 0.843137 1.000000
1.000000 0.866667 1.000000
0.666667 0.772549 1.000000
0.678431 0.776471 1.000000
0.705882 0.784314 1.000000
0.749020 0.800000 1.000000
0.800000 0.819608 1.000000
0.854902 0.835294 1.000000
0.905882 0.854902 1.000000
0.952941 0.870588 1.000000
1.000000 0.886275 1.000000
0.721569 0.847059 1.000000
0.729412 0.850980 1.000000
0.749020 0.854902 1.000000
0.784314 0.862745 1.000000
0.819608 0.874510 1.000000
0.866667 0.886275 1.000000
0.909804 0.898039 1.000000
0.952941 0.905882 1.000000
0.988235 0.917647 1.000000
0.764706 0.909804 1.000000
0.772549 0.913725 1.000000
0.788235 0.913725 1.000000
0.811765 0.921569 1.000000
0.847059 0.925490 1.000000
0.878431 0.933333 1.000000
0.913725 0.941176 1.000000
0.949020 0.945098 1.000000
0.976471 0.952941 1.000000
0.800000 0.960784 1.000000
0.807843 0.960784 1.000000
0.819608 0.960784 1.000000
0.839216 0.964706 1.000000
0.866667 0.968627 1.000000
0.894118 0.972549 1.000000
0.921569 0.976471 1.000000
0.945098 0.980392 1.000000
0.964706 0.980392 1.000000
0.831373 0.996078 1.000000
0.835294 1.000000 1.000000
0.847059 1.000000 1.000000
0.862745 1.000000 1.000000
0.882353 1.000000 1.000000
0.905882 1.000000 1.000000
0.925490 1.000000 1.000000
0.945098 1.000000 1.000000
0.956863 1.000000 1.000000
0.870588 1.000000 1.000000
0.870588 1.000000 1.000000
0.878431 1.000000 1.000000
0.890196 1.000000 1.000000
0.905882 1.000000 1.000000
0.921569 1.000000 1.000000
0.933333 1.000000 1.000000
0.945098 1.000000 1.000000
0.956863 1.000000 1.000000
0.705882 0.756863 1.000000
0.713725 0.760784 1.000000
0.729412 0.768627 1.000000
0.760784 0.780392 1.000000
0.800000 0.796078 1.000000
0.847059 0.815686 1.000000
0.890196 0.835294 1.000000
0.933333 0.854902 1.000000
0.972549 0.870588 1.000000
0.705882 0.764706 1.000000
0.713725 0.768627 1.000000
0.733333 0.776471 1.000000
0.764706 0.788235 1.000000
0.803922 0.803922 1.000000
0.847059 0.823529 1.000000
0.890196 0.839216 1.000000
0.933333 0.858824 1.000000
0.972549 0.874510 1.000000
0.717647 0.788235 1.000000
0.725490 0.792157 1.000000
0.745098 0.800000 1.000000
0.776471 0.807843 1.000000
0.811765 0.823529 1.000000
0.850980 0.839216 1.000000
0.894118 0.854902 1.000000
0.933333 0.870588 1.000000
0.972549 0.886275 1.000000
0.749020 0.835294 1.000000
0.756863 0.835294 1.000000
0.768627 0.839216 1.000000
0.796078 0.847059 1.000000
0.827451 0.858824 1.000000
0.862745 0.870588 1.000000
0.898039 0.882353 1.000000
0.933333 0.894118 1.000000
0.968627 0.905882 1.000000
0.784314 0.882353 1.000000
0.792157 0.886275 1.000000
0.803922 0.886275 1.000000
0.819608 0.894118 1.000000
0.847059 0.898039 1.000000
0.874510 0.905882 1.000000
0.905882 0.913725 1.000000
0.937255 0.921569 1.000000
0.964706 0.933333 1.000000
0.811765 0.925490 1.000000
0.815686 0.925490 1.000000
0.827451 0.929412 1.000000
0.847059 0.933333 1.000000
0.870588 0.941176 1.000000
0.890196 0.945098 1.000000
0.913725 0.949020 1.000000
0.937255 0.952941 1.000000
0.960784 0.960784 1.000000
0.839216 0.960784 1.000000
0.843137 0.960784 1.000000
0.850980 0.964706 1.000000
0.866667 0.964706 1.000000
0.886275 0.972549 1.000000
0.909804 0.976471 1.000000
0.925490 0.980392 1.000000
0.941176 0.984314 1.000000
0.956863 0.984314 1.000000
0.862745 0.988235 1.000000
0.866667 0.988235 1.000000
0.870588 0.992157 1.000000
0.886275 0.992157 1.000000
0.898039 0.992157 1.000000
0.917647 0.996078 1.000000
0.933333 1.000000 1.000000
0.945098 1.000000 1.000000
0.956863 1.000000 1.000000
0.882353 1.000000 1.000000
0.886275 1.000000 1.000000
0.890196 1.000000 1.000000
0.898039 1.000000 1.000000
0.909804 1.000000 1.000000
0.925490 1.000000 1.000000
0.933333 1.000000 1.000000
0.945098 1.000000 1.000000
0.956863 1.000000 1.000000
