luts/polaroid.cube
# Downsampled from 64³ to 32³ by downsample-lut.mjs
LUT_3D_SIZE 32
DOMAIN_MIN 0.0 0.0 0.0
DOMAIN_MAX 1.0 1.0 1.0
0.172549 0.180392 0.172549
0.172549 0.180392 0.172549
0.176471 0.180392 0.172549
0.180392 0.180392 0.172169
0.184820 0.180392 0.168627
0.192789 0.180392 0.168627
0.201518 0.180392 0.168627
0.213536 0.180392 0.168627
0.225553 0.180392 0.168627
0.242631 0.180392 0.168627
0.262619 0.180392 0.164706
0.282606 0.180392 0.164706
0.308033 0.180392 0.160784
0.335990 0.180392 0.160784
0.363947 0.180392 0.156863
0.399747 0.178495 0.152941
0.431626 0.176471 0.146996
0.467426 0.176471 0.142947
0.501581 0.174194 0.137255
0.539026 0.172549 0.130930
0.577356 0.168627 0.122960
0.617204 0.165971 0.114990
0.653131 0.164706 0.104238
0.692979 0.160784 0.095130
0.732827 0.160784 0.084124
0.768754 0.156863 0.078431
0.804680 0.160784 0.074510
0.837192 0.164200 0.070588
0.872992 0.168248 0.066667
0.904870 0.172296 0.062745
0.936749 0.180266 0.058824
0.968627 0.188235 0.050980
0.172549 0.180519 0.172549
0.172549 0.180519 0.172549
0.176471 0.180519 0.172541
0.180392 0.180519 0.168627
0.184820 0.180519 0.168627
0.192789 0.184314 0.168627
0.201518 0.184314 0.168627
0.213536 0.184314 0.168627
0.229475 0.184314 0.168627
0.245414 0.184314 0.167489
0.262619 0.184314 0.164706
0.286528 0.184314 0.164706
0.310436 0.184314 0.160784
0.335990 0.184314 0.159140
0.367868 0.184314 0.156806
0.399747 0.184314 0.152880
0.431626 0.180519 0.146996
0.467426 0.180519 0.142947
0.503226 0.180445 0.134978
0.541430 0.176597 0.130881
0.577356 0.176516 0.122960
0.617204 0.172676 0.112293
0.657052 0.169855 0.103099
0.693991 0.168754 0.095036
0.732827 0.164832 0.083239
0.769513 0.164832 0.075269
0.805313 0.168121 0.074404
0.840607 0.168754 0.070478
0.872992 0.172676 0.066553
0.904870 0.180266 0.062627
0.936749 0.184436 0.055029
0.968627 0.192283 0.050980
0.172296 0.184567 0.168627
0.172549 0.184567 0.168627
0.176471 0.184567 0.168627
0.180392 0.184567 0.168627
0.184820 0.184567 0.168627
0.192789 0.184567 0.168627
0.201518 0.184567 0.168627
0.213536 0.184567 0.168627
0.229475 0.188235 0.168627
0.245414 0.188235 0.167309
0.262790 0.188235 0.164706
0.286528 0.188325 0.164706
0.310436 0.188488 0.160784
0.338267 0.188488 0.159140
0.367868 0.188488 0.155092
0.399747 0.188488 0.151044
0.433649 0.188488 0.146996
0.467565 0.186338 0.141176
0.503373 0.184567 0.134978
0.541430 0.184567 0.127008
0.577446 0.182037 0.119039
0.617204 0.180645 0.111069
0.657052 0.176797 0.103099
0.696901 0.176724 0.092155
0.732885 0.172859 0.083043
0.769513 0.172802 0.074510
0.805313 0.176132 0.071180
0.840640 0.176944 0.067140
0.872992 0.180874 0.063125
0.905107 0.188235 0.059061
0.937002 0.192536 0.055020
0.968627 0.200253 0.047059
0.168627 0.188615 0.168627
0.172549 0.188615 0.168627
0.176116 0.188615 0.168627
0.180392 0.188615 0.168627
0.184820 0.189072 0.168627
0.192789 0.192157 0.168627
0.201518 0.192230 0.168627
0.213536 0.192536 0.168627
0.229475 0.192536 0.168627
0.245414 0.192536 0.164706
0.265275 0.192536 0.164706
0.286528 0.192536 0.163314
0.310583 0.194054 0.160784
0.338426 0.196458 0.158919
0.367868 0.196458 0.155092
0.399931 0.196458 0.151044
0.435547 0.196458 0.146812
0.469576 0.196458 0.139026
0.505503 0.192916 0.134978
0.541577 0.192536 0.127008
0.581277 0.192536 0.119039
0.617327 0.188994 0.111069
0.657052 0.188615 0.100206
0.696901 0.185073 0.090927
0.734007 0.184779 0.079317
0.772676 0.185000 0.071347
0.805313 0.185073 0.070270
0.841113 0.188945 0.066336
0.873335 0.192879 0.062402
0.908792 0.196813 0.058469
0.940670 0.204554 0.051107
0.969007 0.212144 0.046679
0.168627 0.196584 0.168627
0.172059 0.196584 0.168627
0.172802 0.196584 0.168627
0.176850 0.196584 0.168627
0.184820 0.196584 0.168627
0.192789 0.196584 0.168627
0.201518 0.197090 0.168627
0.213536 0.200506 0.168627
0.229475 0.200506 0.167240
0.245561 0.200506 0.164706
0.266540 0.200669 0.164706
0.286528 0.201012 0.162988
0.312265 0.204428 0.160588
0.339911 0.204428 0.156863
0.371790 0.204656 0.152941
0.403668 0.204934 0.149020
0.435808 0.204934 0.144837
0.471347 0.204934 0.139026
0.507148 0.204934 0.131056
0.543258 0.204934 0.126502
0.581277 0.204428 0.116329
0.621126 0.201012 0.107147
0.658550 0.201012 0.098819
0.697031 0.197972 0.087287
0.736749 0.197090 0.076167
0.772774 0.197090 0.070180
0.808602 0.201012 0.066667
0.841113 0.204428 0.062745
0.876583 0.208476 0.058367
0.908792 0.212524 0.054429
0.940670 0.216698 0.047169
0.972549 0.224541 0.042631
0.164706 0.205187 0.168627
0.168627 0.205187 0.168627
0.172549 0.205187 0.168627
0.176850 0.208476 0.168627
0.184820 0.208476 0.168627
0.192789 0.208476 0.168627
0.201518 0.208476 0.168627
0.213536 0.208618 0.168484
0.229475 0.209108 0.164706
0.246553 0.210063 0.164706
0.266540 0.212397 0.164502
0.290449 0.213030 0.160784
0.314358 0.214303 0.158879
0.342454 0.216584 0.155218
0.371790 0.216951 0.151170
0.403974 0.216951 0.147122
0.439469 0.218649 0.142768
0.473498 0.220587 0.136908
0.509424 0.220873 0.130424
0.545596 0.217196 0.123087
0.583077 0.216951 0.114484
0.621330 0.216951 0.104287
0.660974 0.216951 0.094807
0.700822 0.214511 0.082896
0.736891 0.213662 0.071727
0.773435 0.216314 0.066157
0.809235 0.216951 0.062215
0.844611 0.220449 0.058697
0.876913 0.224476 0.054331
0.908792 0.228504 0.050388
0.940670 0.236433 0.042631
0.972549 0.241113 0.035294
0.163947 0.217204 0.167868
0.164808 0.217204 0.167868
0.168880 0.220367 0.167868
0.175785 0.220367 0.167868
0.180898 0.221126 0.167868
0.192153 0.221126 0.164706
0.201518 0.221126 0.164706
0.213536 0.221126 0.164706
0.229475 0.221126 0.164706
0.246553 0.224508 0.164486
0.266540 0.225047 0.160784
0.290449 0.226439 0.160515
0.315876 0.228969 0.156863
0.343833 0.230614 0.152941
0.375711 0.232891 0.149020
0.407590 0.232891 0.144731
0.439861 0.233650 0.139152
0.475269 0.236812 0.134345
0.511510 0.236812 0.126816
0.549273 0.236812 0.119165
0.585469 0.236812 0.110436
0.625048 0.234670 0.100324
0.664895 0.233650 0.090576
0.701581 0.233650 0.078684
0.740670 0.233650 0.066793
0.776597 0.233650 0.061986
0.809871 0.237449 0.058065
0.845035 0.240326 0.054143
0.877599 0.244349 0.047365
0.912713 0.249083 0.042631
0.944592 0.253233 0.034662
0.972549 0.261101 0.030614
0.159899 0.233144 0.164706
0.160882 0.234029 0.164706
0.164959 0.234029 0.164706
0.172043 0.234323 0.164706
0.180013 0.237065 0.164706
0.188868 0.237065 0.164706
0.201347 0.237065 0.163820
0.213536 0.237065 0.163820
0.229475 0.237951 0.163820
0.249336 0.238832 0.160784
0.269197 0.240987 0.160498
0.290764 0.242950 0.156863
0.318280 0.245251 0.154802
0.346481 0.248830 0.150783
0.376597 0.249716 0.146763
0.408476 0.252751 0.142315
0.443390 0.253637 0.136798
0.477820 0.253637 0.130297
0.513718 0.255400 0.122328
0.549616 0.256673 0.114358
0.589121 0.256673 0.106388
0.626912 0.256673 0.094783
0.665781 0.254518 0.083744
0.704744 0.253637 0.071727
0.741556 0.257359 0.058824
0.777356 0.257559 0.054016
0.813156 0.260848 0.050095
0.848564 0.261480 0.046173
0.880835 0.265402 0.038710
0.912713 0.269323 0.034605
0.944592 0.277040 0.026692
0.976471 0.281088 0.018722
0.151929 0.254016 0.160784
0.155977 0.254016 0.160784
0.160025 0.254016 0.160784
0.167995 0.254016 0.160784
0.175965 0.254016 0.160784
0.185416 0.254485 0.160784
0.197596 0.256926 0.160588
0.213536 0.257938 0.159772
0.229475 0.257938 0.159772
0.249336 0.257938 0.159772
0.270462 0.261174 0.156863
0.294371 0.262892 0.154818
0.319798 0.265781 0.151929
0.347754 0.269115 0.146788
0.379633 0.271017 0.142772
0.411512 0.273624 0.138267
0.445904 0.273624 0.131309
0.479745 0.277546 0.126249
0.517267 0.277546 0.118280
0.553586 0.277546 0.108526
0.591165 0.277546 0.098419
0.629295 0.277546 0.087793
0.668817 0.278264 0.075775
0.706507 0.278558 0.061994
0.744592 0.281467 0.049842
0.780715 0.281467 0.045231
0.814005 0.284920 0.041276
0.848956 0.286270 0.034658
0.881749 0.290225 0.029728
0.913725 0.296901 0.022770
0.945604 0.300949 0.017617
0.976471 0.306009 0.009741
0.142821 0.277926 0.156863
0.146779 0.277926 0.156863
0.152056 0.277926 0.156790
0.160025 0.277926 0.155724
0.168501 0.277926 0.155724
0.180519 0.278109 0.155724
0.193675 0.279064 0.155724
0.209614 0.281847 0.155724
0.228630 0.281847 0.155006
0.248528 0.282177 0.152611
0.270462 0.283883 0.151803
0.294371 0.285769 0.150815
0.320496 0.289690 0.146804
0.351676 0.291335 0.142792
0.380772 0.294126 0.138267
0.415433 0.297533 0.132782
0.447900 0.298121 0.126249
0.483112 0.301455 0.118280
0.519573 0.301455 0.110310
0.557116 0.302593 0.101643
0.594181 0.305377 0.090449
0.632891 0.305377 0.077786
0.672739 0.305377 0.063884
0.708960 0.305377 0.050727
0.746359 0.306515 0.037567
0.782196 0.308759 0.033017
0.817078 0.310436 0.025807
0.852519 0.314211 0.021758
0.884757 0.318170 0.017331
0.916635 0.322128 0.009741
0.948514 0.326086 0.002873
0.977609 0.332827 0.000000
0.126882 0.303099 0.151676
0.133501 0.303099 0.151676
0.138899 0.303099 0.151676
0.146992 0.305756 0.151554
0.158923 0.305919 0.147755
0.172549 0.307021 0.147755
0.188488 0.307021 0.147755
0.205313 0.307021 0.147755
0.225300 0.310004 0.147755
0.246553 0.310942 0.145718
0.270462 0.311799 0.143833
0.294819 0.314048 0.143384
0.322691 0.314864 0.139911
0.351676 0.318051 0.138267
0.383555 0.321442 0.130869
0.415433 0.323993 0.126249
0.449948 0.326017 0.118280
0.485834 0.328086 0.110310
0.521720 0.330020 0.101606
0.559409 0.330550 0.091477
0.596964 0.330550 0.078684
0.636812 0.333207 0.065810
0.674775 0.334105 0.049830
0.712587 0.334472 0.031552
0.748799 0.334472 0.020999
0.785199 0.338148 0.016058
0.820571 0.338393 0.009867
0.852878 0.342315 0.005819
0.886022 0.346114 0.002657
0.920386 0.350076 0.000000
0.949779 0.356650 0.000000
0.980392 0.361923 0.000000
0.104238 0.334978 0.142315
0.112208 0.334978 0.139785
0.120267 0.334978 0.139785
0.129918 0.334978 0.139785
0.143327 0.336370 0.139785
0.159266 0.338899 0.139785
0.177087 0.338899 0.138393
0.197343 0.338899 0.138393
0.220599 0.339911 0.135863
0.242631 0.342821 0.135459
0.269070 0.342821 0.134472
0.295268 0.344212 0.131448
0.323719 0.346742 0.130550
0.351676 0.346742 0.127437
0.383555 0.350664 0.122328
0.417331 0.352562 0.116888
0.451952 0.354586 0.108918
0.487797 0.357879 0.099561
0.525111 0.358507 0.089641
0.561576 0.360911 0.077705
0.600885 0.362429 0.062745
0.639020 0.362429 0.045863
0.677064 0.362429 0.026692
0.714632 0.366350 0.009614
0.752435 0.366350 0.003102
0.788362 0.369513 0.000490
0.820999 0.370272 0.000000
0.856473 0.374193 0.000000
0.888678 0.377735 0.000000
0.920557 0.381784 0.000000
0.952435 0.385913 0.000000
0.980392 0.389880 0.000000
0.067805 0.368374 0.130297
0.077342 0.368374 0.127894
0.090800 0.368529 0.127894
0.104491 0.370778 0.126376
0.121948 0.370778 0.126376
0.142054 0.370778 0.126376
0.163947 0.371072 0.126376
0.185452 0.372839 0.125490
0.209981 0.374699 0.122454
0.237192 0.374699 0.122454
0.263394 0.376217 0.118533
0.291841 0.378621 0.118533
0.321271 0.379209 0.114611
0.351676 0.381147 0.112966
0.383555 0.382543 0.110004
0.419355 0.385224 0.104870
0.453257 0.386464 0.096901
0.489184 0.389300 0.085010
0.525747 0.390386 0.073245
0.564959 0.393377 0.057306
0.602404 0.394307 0.040387
0.641224 0.394307 0.019987
0.680582 0.397531 0.003799
0.716901 0.398229 0.000000
0.753321 0.398229 0.000000
0.789121 0.401685 0.000000
0.824533 0.403423 0.000000
0.856800 0.406072 0.000000
0.890196 0.409994 0.000000
0.922075 0.413760 0.000000
0.952484 0.417837 0.000000
0.984314 0.423276 0.000000
0.006831 0.404301 0.112713
0.018363 0.404301 0.110436
0.033609 0.404301 0.110436
0.058730 0.404521 0.110436
0.085981 0.406578 0.110436
0.113599 0.406578 0.108792
0.141115 0.408223 0.108792
0.168509 0.408223 0.106515
0.196837 0.408810 0.104870
0.225961 0.410977 0.104209
0.255939 0.412144 0.100949
0.286274 0.412952 0.098088
0.318153 0.415058 0.095509
0.350721 0.416066 0.092416
0.383555 0.418343 0.088442
0.418506 0.419988 0.083365
0.453257 0.421163 0.076497
0.489184 0.423166 0.065275
0.527710 0.425231 0.048381
0.564959 0.427194 0.028712
0.604807 0.427831 0.009839
0.644655 0.430107 0.000000
0.681721 0.431274 0.000000
0.720430 0.431752 0.000000
0.756356 0.434029 0.000000
0.792283 0.435674 0.000000
0.824921 0.437951 0.000000
0.860427 0.441578 0.000000
0.892600 0.445574 0.000000
0.924478 0.449462 0.000000
0.956357 0.453511 0.000000
0.984314 0.457558 0.000000
0.000000 0.442378 0.088805
0.000000 0.442378 0.088805
0.000000 0.442492 0.087034
0.000832 0.444149 0.087034
0.024036 0.444149 0.087034
0.067997 0.444149 0.084883
0.108249 0.444149 0.083112
0.145478 0.444635 0.082626
0.179127 0.448071 0.079191
0.212777 0.448071 0.078052
0.244655 0.448765 0.074698
0.278305 0.450850 0.070719
0.310869 0.451992 0.066740
0.345983 0.452894 0.061733
0.380604 0.455914 0.056041
0.416474 0.455914 0.050222
0.453257 0.458978 0.041338
0.489184 0.459835 0.030152
0.529032 0.461986 0.012793
0.568881 0.463757 0.001665
0.606578 0.465145 0.000000
0.644655 0.467108 0.000000
0.684503 0.467679 0.000000
0.720887 0.469274 0.000000
0.757242 0.471200 0.000000
0.793042 0.471600 0.000000
0.828210 0.475237 0.000000
0.860721 0.477395 0.000000
0.892600 0.481386 0.000000
0.924478 0.483365 0.000000
0.956357 0.487229 0.000000
0.984314 0.491208 0.000000
0.000000 0.480076 0.051360
0.000000 0.480076 0.051360
0.000000 0.480076 0.051360
0.000000 0.480272 0.051176
0.000000 0.483998 0.047439
0.002938 0.483998 0.047133
0.052209 0.483998 0.045149
0.109551 0.483998 0.041619
0.153810 0.485010 0.037697
0.192157 0.487919 0.033776
0.229981 0.487919 0.029242
0.267132 0.488637 0.024542
0.302997 0.491841 0.018596
0.339658 0.491841 0.013319
0.375585 0.493612 0.009206
0.412491 0.495762 0.005093
0.450315 0.495762 0.000979
0.489184 0.499684 0.000000
0.529032 0.499684 0.000000
0.568881 0.502871 0.000000
0.608728 0.503606 0.000000
0.645920 0.503606 0.000000
0.684503 0.507527 0.000000
0.721442 0.507527 0.000000
0.758711 0.507527 0.000000
0.793042 0.511081 0.000000
0.828843 0.511449 0.000000
0.862374 0.515125 0.000000
0.896325 0.517198 0.000000
0.928400 0.519292 0.000000
0.956418 0.523152 0.000000
0.988235 0.525237 0.000000
0.000000 0.519924 0.005693
0.000000 0.521948 0.005632
0.000000 0.521948 0.003795
0.000000 0.523846 0.003795
0.000000 0.523846 0.003550
0.000000 0.523846 0.001898
0.001469 0.523846 0.000000
0.047369 0.523846 0.000000
0.116541 0.526360 0.000000
0.166811 0.527767 0.000000
0.212018 0.527767 0.000000
0.253890 0.529159 0.000000
0.291841 0.531689 0.000000
0.331689 0.531689 0.000000
0.369766 0.534570 0.000000
0.407463 0.535610 0.000000
0.447312 0.536655 0.000000
0.487160 0.539532 0.000000
0.527008 0.539532 0.000000
0.568881 0.541935 0.000000
0.608728 0.543453 0.000000
0.645920 0.543453 0.000000
0.684503 0.544800 0.000000
0.722944 0.546853 0.000000
0.760278 0.547375 0.000000
0.796205 0.547375 0.000000
0.828843 0.549273 0.000000
0.864398 0.551296 0.000000
0.896521 0.553194 0.000000
0.928400 0.555218 0.000000
0.958442 0.557116 0.000000
0.988235 0.561037 0.000000
0.000000 0.563694 0.000000
0.000000 0.563694 0.000000
0.000000 0.563694 0.000000
0.000000 0.563694 0.000000
0.000000 0.563694 0.000000
0.000000 0.563694 0.000000
0.000000 0.564110 0.000000
0.001600 0.567616 0.000000
0.060411 0.567616 0.000000
0.135096 0.567616 0.000000
0.189374 0.568309 0.000000
0.235421 0.571537 0.000000
0.279949 0.571537 0.000000
0.322470 0.571537 0.000000
0.363567 0.575459 0.000000
0.403416 0.575459 0.000000
0.444374 0.576373 0.000000
0.485263 0.579380 0.000000
0.525111 0.579380 0.000000
0.566044 0.580465 0.000000
0.607341 0.583302 0.000000
0.644655 0.583302 0.000000
0.684503 0.583302 0.000000
0.724352 0.583302 0.000000
0.760278 0.584673 0.000000
0.796205 0.586807 0.000000
0.830646 0.587223 0.000000
0.864643 0.588766 0.000000
0.896521 0.590937 0.000000
0.928400 0.591145 0.000000
0.960278 0.592916 0.000000
0.988235 0.595067 0.000000
0.000000 0.603542 0.000000
0.000000 0.603542 0.000000
0.000000 0.603542 0.000000
0.000000 0.603542 0.000000
0.000000 0.603542 0.000000
0.000000 0.604175 0.000000
0.000000 0.607463 0.000000
0.000000 0.607463 0.000000
0.008292 0.607463 0.000000
0.099867 0.607463 0.000000
0.167464 0.608728 0.000000
0.221758 0.611385 0.000000
0.269576 0.611385 0.000000
0.314794 0.611385 0.000000
0.357875 0.614058 0.000000
0.401645 0.615307 0.000000
0.442668 0.615307 0.000000
0.485263 0.616951 0.000000
0.527388 0.618273 0.000000
0.568881 0.619228 0.000000
0.608728 0.619228 0.000000
0.648577 0.620873 0.000000
0.685164 0.623150 0.000000
0.724352 0.623150 0.000000
0.760278 0.623150 0.000000
0.796646 0.623150 0.000000
0.832131 0.623150 0.000000
0.864643 0.624795 0.000000
0.896521 0.626851 0.000000
0.928400 0.627071 0.000000
0.960278 0.628716 0.000000
0.988235 0.628716 0.000000
0.000000 0.643390 0.000000
0.000000 0.643390 0.000000
0.000000 0.643390 0.000000
0.000000 0.643390 0.000000
0.000000 0.643390 0.000000
0.000000 0.643390 0.000000
0.000000 0.643684 0.000000
0.000000 0.644908 0.000000
0.000620 0.644908 0.000000
0.087034 0.647312 0.000000
0.163061 0.647312 0.000000
0.220967 0.647312 0.000000
0.270335 0.648830 0.000000
0.317145 0.648830 0.000000
0.360964 0.651234 0.000000
0.404782 0.651234 0.000000
0.446655 0.652017 0.000000
0.489184 0.652752 0.000000
0.531436 0.654147 0.000000
0.571284 0.655155 0.000000
0.609581 0.656134 0.000000
0.648577 0.656673 0.000000
0.687348 0.659077 0.000000
0.724352 0.659077 0.000000
0.761164 0.659077 0.000000
0.796964 0.660301 0.000000
0.832519 0.660595 0.000000
0.864643 0.660595 0.000000
0.898692 0.662765 0.000000
0.928400 0.662998 0.000000
0.960278 0.662998 0.000000
0.988235 0.664516 0.000000
0.000000 0.679317 0.000000
0.000000 0.679317 0.000000
0.000000 0.679317 0.000000
0.000000 0.679317 0.000000
0.000000 0.679497 0.000000
0.000000 0.680709 0.000000
0.000000 0.680709 0.000000
0.000000 0.680709 0.000000
0.004995 0.681361 0.000000
0.096015 0.683238 0.000000
0.171227 0.683238 0.000000
0.226565 0.683732 0.000000
0.278305 0.684630 0.000000
0.322201 0.684630 0.000000
0.368248 0.687160 0.000000
0.410712 0.687160 0.000000
0.452584 0.688552 0.000000
0.495636 0.688552 0.000000
0.535484 0.688552 0.000000
0.575332 0.691081 0.000000
0.612650 0.691979 0.000000
0.651556 0.692473 0.000000
0.688425 0.694269 0.000000
0.725364 0.695003 0.000000
0.761164 0.696395 0.000000
0.796964 0.696395 0.000000
0.832764 0.696395 0.000000
0.866846 0.696395 0.000000
0.900443 0.696395 0.000000
0.928653 0.696395 0.000000
0.960278 0.696395 0.000000
0.988235 0.696395 0.000000
0.000000 0.715244 0.000000
0.000000 0.715244 0.000000
0.000000 0.715244 0.000000
0.000000 0.715244 0.000000
0.000000 0.716509 0.000000
0.000000 0.716509 0.000000
0.000000 0.716509 0.000000
0.000000 0.716509 0.000000
0.014234 0.716509 0.000000
0.116623 0.717280 0.000000
0.184061 0.719165 0.000000
0.237641 0.719165 0.000000
0.286274 0.720430 0.000000
0.333562 0.720430 0.000000
0.376217 0.720430 0.000000
0.419988 0.721716 0.000000
0.459835 0.723087 0.000000
0.500378 0.724352 0.000000
0.540063 0.724352 0.000000
0.579380 0.724352 0.000000
0.617514 0.727008 0.000000
0.655563 0.727865 0.000000
0.691449 0.728273 0.000000
0.728273 0.728273 0.000000
0.764200 0.731909 0.000000
0.799107 0.732195 0.000000
0.832764 0.732195 0.000000
0.868401 0.732195 0.000000
0.900443 0.732195 0.000000
0.928653 0.732195 0.000000
0.960278 0.732195 0.000000
0.988235 0.732195 0.000000
0.000000 0.751170 0.000000
0.000000 0.751170 0.000000
0.000000 0.751170 0.000000
0.000000 0.751170 0.000000
0.000000 0.751170 0.000000
0.000000 0.751170 0.000000
0.000000 0.751391 0.000000
0.000000 0.752309 0.000000
0.057130 0.752309 0.000000
0.145730 0.752309 0.000000
0.204542 0.752309 0.000000
0.255914 0.752309 0.000000
0.300949 0.755091 0.000000
0.347122 0.755091 0.000000
0.389366 0.756230 0.000000
0.430740 0.756230 0.000000
0.470588 0.756230 0.000000
0.508910 0.756230 0.000000
0.547502 0.759013 0.000000
0.585644 0.760152 0.000000
0.623277 0.760152 0.000000
0.659570 0.760152 0.000000
0.695460 0.762127 0.000000
0.731350 0.764073 0.000000
0.765085 0.764073 0.000000
0.800665 0.764073 0.000000
0.835098 0.767362 0.000000
0.868564 0.767995 0.000000
0.900443 0.766856 0.000000
0.928653 0.764253 0.000000
0.960278 0.764073 0.000000
0.988235 0.764073 0.000000
0.000000 0.784187 0.000000
0.000000 0.784187 0.000000
0.000000 0.784187 0.000000
0.000000 0.784187 0.000000
0.000000 0.784187 0.000000
0.000000 0.784187 0.000000
0.000000 0.784187 0.000000
0.017931 0.784187 0.000000
0.115260 0.784187 0.000000
0.178536 0.785032 0.000000
0.230993 0.787097 0.000000
0.275901 0.788109 0.000000
0.320418 0.788109 0.000000
0.363062 0.788109 0.000000
0.402909 0.788109 0.000000
0.442758 0.788109 0.000000
0.481104 0.788109 0.000000
0.519545 0.790259 0.000000
0.555471 0.792030 0.000000
0.592916 0.792030 0.000000
0.628716 0.792030 0.000000
0.664516 0.792030 0.000000
0.699472 0.792748 0.000000
0.733207 0.795952 0.000000
0.768778 0.795952 0.000000
0.800886 0.795952 0.000000
0.836523 0.796801 0.000000
0.868564 0.799874 0.000000
0.900443 0.799874 0.000000
0.928653 0.799874 0.000000
0.960278 0.795952 0.000000
0.984314 0.795952 0.000000
0.000000 0.816066 0.000000
0.000000 0.816066 0.000000
0.000000 0.816066 0.000000
0.000000 0.816066 0.000000
0.000000 0.816066 0.000000
0.000000 0.816066 0.000000
0.017507 0.816066 0.000000
0.104511 0.816066 0.000000
0.165693 0.816066 0.000000
0.214168 0.816323 0.000000
0.258950 0.817931 0.000000
0.301769 0.819987 0.000000
0.342189 0.819987 0.000000
0.382037 0.819987 0.000000
0.418849 0.819987 0.000000
0.457228 0.819987 0.000000
0.493057 0.819987 0.000000
0.528886 0.819987 0.000000
0.565085 0.820873 0.000000
0.600886 0.823909 0.000000
0.635608 0.823909 0.000000
0.669164 0.823909 0.000000
0.704364 0.823909 0.000000
0.737128 0.824566 0.000000
0.772043 0.824794 0.000000
0.804807 0.827243 0.000000
0.836686 0.827831 0.000000
0.868564 0.827831 0.000000
0.900443 0.828716 0.000000
0.928653 0.828716 0.000000
0.957340 0.827831 0.000000
0.984314 0.827831 0.000000
0.000000 0.847944 0.000000
0.000000 0.847944 0.000000
0.000000 0.847944 0.000000
0.000000 0.847944 0.000000
0.002857 0.847944 0.000000
0.058946 0.847944 0.000000
0.121377 0.847944 0.000000
0.168627 0.847944 0.000000
0.212467 0.847944 0.000000
0.252878 0.847944 0.000000
0.289564 0.847944 0.000000
0.328289 0.847944 0.000000
0.364873 0.847944 0.000000
0.400698 0.848703 0.000000
0.436523 0.848703 0.000000
0.472739 0.848703 0.000000
0.507009 0.848703 0.000000
0.540834 0.851866 0.000000
0.574892 0.851866 0.000000
0.608855 0.851866 0.000000
0.643264 0.851866 0.000000
0.676534 0.852380 0.000000
0.708951 0.852625 0.000000
0.741050 0.852625 0.000000
0.772929 0.852625 0.000000
0.804807 0.855176 0.000000
0.836686 0.855788 0.000000
0.868564 0.855788 0.000000
0.897280 0.856547 0.000000
0.928400 0.856547 0.000000
0.956381 0.859709 0.000000
0.980392 0.856547 0.000000
0.000000 0.875901 0.000000
0.023448 0.875901 0.000000
0.053474 0.875901 0.000000
0.082598 0.875901 0.000000
0.118904 0.875901 0.000000
0.153272 0.875901 0.000000
0.187480 0.875901 0.000000
0.222786 0.875901 0.000000
0.255787 0.875901 0.000000
0.288299 0.875901 0.000000
0.321442 0.876534 0.000000
0.356201 0.876534 0.000000
0.388488 0.876534 0.000000
0.420999 0.876534 0.000000
0.452878 0.876534 0.000000
0.485389 0.876534 0.000000
0.517268 0.876534 0.000000
0.549493 0.878337 0.000000
0.581657 0.879823 0.000000
0.613536 0.879823 0.000000
0.645414 0.879823 0.000000
0.677497 0.879823 0.000000
0.709172 0.880455 0.000000
0.738609 0.880455 0.000000
0.769640 0.880455 0.000000
0.801518 0.883745 0.000000
0.830108 0.883745 0.000000
0.861354 0.883745 0.000000
0.889690 0.884377 0.000000
0.918112 0.884377 0.000000
0.949146 0.884377 0.000000
0.977103 0.884377 0.000000
0.043264 0.903858 0.000000
0.069956 0.903858 0.000000
0.089564 0.903858 0.000000
0.113803 0.903858 0.000000
0.141238 0.903858 0.000000
0.168754 0.903858 0.000000
0.199873 0.903858 0.000000
0.228589 0.903858 0.000000
0.259962 0.903858 0.000000
0.288425 0.903858 0.000000
0.320141 0.904021 0.000000
0.351676 0.904364 0.000000
0.383555 0.904364 0.000000
0.415433 0.904364 0.000000
0.447312 0.904364 0.000000
0.479190 0.907780 0.000000
0.511069 0.907780 0.000000
0.542442 0.907780 0.000000
0.574320 0.907780 0.000000
0.606199 0.907780 0.000000
