luts/polaroid.cube
# Downsampled from 64³ to 32³ by downsample-lut.mjs
LUT_3D_SIZE 5
DOMAIN_MIN 0.000000 0.000000 0.000000
DOMAIN_MAX 0.903226 0.903226 0.903226
0.172549 0.180392 0.172549
0.213536 0.180392 0.168627
0.363947 0.180392 0.156863
0.617204 0.165971 0.114990
0.872992 0.168248 0.066667
0.159899 0.233144 0.164706
0.213536 0.237065 0.163820
0.376597 0.249716 0.146763
0.626912 0.256673 0.094783
0.880835 0.265402 0.038710
0.000000 0.442378 0.088805
0.145478 0.444635 0.082626
0.380604 0.455914 0.056041
0.644655 0.467108 0.000000
0.892600 0.481386 0.000000
0.000000 0.715244 0.000000
0.000000 0.716509 0.000000
0.376217 0.720430 0.000000
0.655563 0.727865 0.000000
0.900443 0.732195 0.000000
0.000000 0.932195 0.000000
0.190553 0.932195 0.000000
0.432972 0.932195 0.000000
0.658065 0.932195 0.000000
0.873371 0.932195 0.000000
0.163820 0.180392 0.217457
0.213536 0.180392 0.221379
0.371790 0.174700 0.216086
0.626912 0.145478 0.178528
0.880835 0.148640 0.151676
0.151170 0.237065 0.221379
0.208729 0.240987 0.221379
0.383555 0.246855 0.208153
0.636812 0.245794 0.168563
0.886328 0.257492 0.146869
0.000000 0.448957 0.179507
0.060522 0.452102 0.175585
0.371571 0.460055 0.163821
0.648577 0.468008 0.118912
0.896521 0.481386 0.114125
0.000000 0.720430 0.041493
0.000000 0.721494 0.041028
0.364959 0.724623 0.032341
0.651642 0.731123 0.018561
0.899463 0.734851 0.039562
0.000000 0.932195 0.137128
0.201938 0.932195 0.140756
0.435655 0.932195 0.148246
0.661986 0.932195 0.162515
0.873371 0.932195 0.182930
0.087034 0.186085 0.403162
0.185199 0.184314 0.404933
0.375711 0.172549 0.407084
0.636812 0.134598 0.398355
0.888678 0.144718 0.373561
0.000000 0.248830 0.414927
0.143017 0.248920 0.416698
0.376463 0.247165 0.415327
0.644655 0.242029 0.398355
0.896521 0.265022 0.373561
0.000000 0.455914 0.416698
0.000000 0.463757 0.415727
0.298192 0.479804 0.407084
0.629890 0.487286 0.375797
0.896521 0.494081 0.369639
0.000000 0.732195 0.378054
0.000000 0.736116 0.375332
0.296561 0.740038 0.370839
0.631054 0.741809 0.370839
0.890829 0.740038 0.378566
0.000000 0.936116 0.423782
0.207843 0.936116 0.424221
0.438665 0.936116 0.429646
0.661607 0.936116 0.437004
0.865908 0.932574 0.447312
0.000000 0.203922 0.627578
0.131689 0.202657 0.631499
0.356104 0.194813 0.643264
0.625048 0.160784 0.657685
0.888678 0.156361 0.650099
0.000000 0.259616 0.647185
0.061533 0.260595 0.650128
0.353225 0.263537 0.657971
0.632891 0.256293 0.666220
0.892600 0.272865 0.654021
0.000000 0.456608 0.671914
0.000000 0.463757 0.674907
0.289792 0.479443 0.683138
0.622011 0.487286 0.677293
0.888562 0.505999 0.656542
0.000000 0.735259 0.672514
0.000000 0.739181 0.672514
0.207665 0.747881 0.669450
0.603767 0.747881 0.664394
0.878056 0.747881 0.657859
0.002400 0.936116 0.672869
0.232892 0.936116 0.673533
0.465149 0.936116 0.680835
0.676222 0.932574 0.692560
0.865186 0.932195 0.700320
0.112840 0.239595 0.797723
0.208011 0.239595 0.802024
0.387856 0.235674 0.817502
0.625048 0.221509 0.839975
0.869070 0.216445 0.860847
0.100569 0.284504 0.814295
0.208096 0.288046 0.818510
0.399620 0.292185 0.831599
0.637192 0.293232 0.850167
0.874094 0.304997 0.868425
0.037787 0.458064 0.854776
0.204613 0.465908 0.858697
0.423150 0.474645 0.864941
0.653764 0.490637 0.872784
0.877138 0.514754 0.878358
0.000000 0.711444 0.880713
0.159429 0.715271 0.880835
0.428088 0.723725 0.880835
0.665528 0.736116 0.880835
0.869792 0.751423 0.884757
0.140201 0.932574 0.888678
0.276000 0.932574 0.888678
0.484377 0.932574 0.889021
0.693742 0.932195 0.889057
0.869792 0.928653 0.892637
