luts/polaroid.cube
# Downsampled from 64³ to 32³ by downsample-lut.mjs
LUT_3D_SIZE 8
DOMAIN_MIN 0.000000 0.000000 0.000000
DOMAIN_MAX 0.903226 0.903226 0.903226
0.172549 0.180392 0.172549
0.184820 0.180392 0.168627
0.225553 0.180392 0.168627
0.308033 0.180392 0.160784
0.431626 0.176471 0.146996
0.577356 0.168627 0.122960
0.732827 0.160784 0.084124
0.872992 0.168248 0.066667
0.168627 0.196584 0.168627
0.184820 0.196584 0.168627
0.229475 0.200506 0.167240
0.312265 0.204428 0.160588
0.435808 0.204934 0.144837
0.581277 0.204428 0.116329
0.736749 0.197090 0.076167
0.876583 0.208476 0.058367
0.151929 0.254016 0.160784
0.175965 0.254016 0.160784
0.229475 0.257938 0.159772
0.319798 0.265781 0.151929
0.445904 0.273624 0.131309
0.591165 0.277546 0.098419
0.744592 0.281467 0.049842
0.881749 0.290225 0.029728
0.067805 0.368374 0.130297
0.121948 0.370778 0.126376
0.209981 0.374699 0.122454
0.321271 0.379209 0.114611
0.453257 0.386464 0.096901
0.602404 0.394307 0.040387
0.753321 0.398229 0.000000
0.890196 0.409994 0.000000
0.000000 0.519924 0.005693
0.000000 0.523846 0.003550
0.116541 0.526360 0.000000
0.291841 0.531689 0.000000
0.447312 0.536655 0.000000
0.608728 0.543453 0.000000
0.760278 0.547375 0.000000
0.896521 0.553194 0.000000
0.000000 0.679317 0.000000
0.000000 0.679497 0.000000
0.004995 0.681361 0.000000
0.278305 0.684630 0.000000
0.452584 0.688552 0.000000
0.612650 0.691979 0.000000
0.761164 0.696395 0.000000
0.900443 0.696395 0.000000
0.000000 0.816066 0.000000
0.000000 0.816066 0.000000
0.165693 0.816066 0.000000
0.342189 0.819987 0.000000
0.493057 0.819987 0.000000
0.635608 0.823909 0.000000
0.772043 0.824794 0.000000
0.900443 0.828716 0.000000
0.000000 0.932195 0.000000
0.062521 0.932195 0.000000
0.228814 0.932195 0.000000
0.367615 0.932195 0.000000
0.498672 0.932195 0.000000
0.626186 0.932195 0.000000
0.753700 0.932195 0.000000
0.873371 0.932195 0.000000
0.168627 0.180392 0.184820
0.184820 0.180392 0.184820
0.229475 0.180392 0.184820
0.310436 0.180196 0.180898
0.435547 0.172549 0.167109
0.581277 0.161996 0.143074
0.736749 0.149791 0.111195
0.876583 0.159948 0.099382
0.168121 0.196584 0.184820
0.184755 0.197090 0.184820
0.229475 0.200506 0.184820
0.314383 0.201012 0.179110
0.439503 0.201012 0.163415
0.585222 0.197090 0.139152
0.740670 0.192663 0.106833
0.876972 0.200963 0.095130
0.146996 0.254016 0.180898
0.171602 0.256943 0.180898
0.228724 0.258035 0.179886
0.320418 0.265781 0.172663
0.447834 0.273624 0.154918
0.594188 0.277171 0.126506
0.748513 0.277546 0.089906
0.884757 0.288592 0.080064
0.026831 0.370778 0.154529
0.100626 0.372296 0.152239
0.201913 0.376217 0.150556
0.319602 0.381260 0.142954
0.453257 0.387248 0.126882
0.604807 0.394307 0.087160
0.756401 0.398229 0.045655
0.892600 0.409761 0.034534
0.000000 0.523846 0.064145
0.000000 0.524366 0.060223
0.081808 0.527767 0.050550
0.282656 0.532727 0.031634
0.444300 0.539532 0.007835
0.608728 0.543453 0.000000
0.760278 0.547375 0.000000
0.896521 0.553430 0.000000
0.000000 0.681035 0.000000
0.000000 0.683238 0.000000
0.000000 0.683731 0.000000
0.267393 0.687160 0.000000
0.449969 0.688720 0.000000
0.612650 0.692473 0.000000
0.761164 0.696648 0.000000
0.900443 0.698925 0.000000
0.000000 0.816066 0.000000
0.000000 0.816180 0.000000
0.160511 0.819987 0.000000
0.342189 0.819987 0.000000
0.493057 0.820499 0.000000
0.635294 0.823909 0.000000
0.771358 0.827234 0.000000
0.900443 0.828716 0.000000
0.000000 0.932195 0.000000
0.073857 0.932195 0.000000
0.232638 0.932195 0.000000
0.367615 0.932195 0.000000
0.498891 0.932195 0.000000
0.630108 0.932195 0.001371
0.753700 0.932195 0.006959
0.873371 0.932195 0.039121
0.159772 0.180392 0.237318
0.179886 0.180392 0.237318
0.229475 0.180392 0.237318
0.314358 0.176471 0.237318
0.441493 0.168627 0.230487
0.589480 0.146490 0.208349
0.746261 0.128400 0.179507
0.881749 0.144718 0.175585
0.155851 0.200506 0.237449
0.176079 0.200506 0.238330
0.229475 0.200506 0.238330
0.318280 0.200506 0.237318
0.447312 0.194821 0.226371
0.595329 0.184757 0.202952
0.748928 0.176801 0.176471
0.884757 0.192789 0.172921
0.137389 0.257187 0.238330
0.160557 0.257938 0.238330
0.220257 0.261860 0.238330
0.319798 0.265781 0.232270
0.453257 0.270090 0.218200
0.601147 0.270715 0.195741
0.754685 0.270715 0.171082
0.888939 0.285108 0.168754
0.000000 0.374699 0.226059
0.020079 0.378621 0.224902
0.168405 0.382543 0.221126
0.309424 0.386464 0.215388
0.453257 0.391359 0.202553
0.608728 0.395426 0.176471
0.760278 0.398532 0.158772
0.896521 0.409761 0.159393
0.000000 0.532211 0.172549
0.000000 0.532701 0.172549
0.000000 0.535745 0.168627
0.253286 0.539734 0.162457
0.434805 0.544228 0.152166
0.604622 0.548387 0.133839
0.760278 0.551296 0.132448
0.896521 0.556932 0.140107
0.000000 0.687519 0.113346
0.000000 0.688552 0.112267
0.000000 0.689204 0.110077
0.241505 0.691840 0.108392
0.441429 0.693126 0.105623
0.608369 0.696395 0.101202
0.760278 0.700316 0.096905
0.896521 0.700316 0.117576
0.000000 0.819987 0.112966
0.000000 0.819987 0.112966
0.142602 0.820216 0.113750
0.335217 0.823909 0.113750
0.490702 0.823909 0.116003
0.632764 0.824794 0.116003
0.769007 0.827831 0.116609
0.896739 0.831752 0.119860
0.000000 0.932195 0.184032
0.092339 0.932195 0.184032
0.238152 0.932195 0.185906
0.371537 0.933109 0.189150
0.502594 0.932195 0.195750
0.630108 0.932195 0.200589
0.753700 0.932195 0.210585
0.873371 0.932195 0.219608
0.126376 0.184314 0.339405
0.155851 0.184314 0.339405
0.220506 0.180392 0.339405
0.318280 0.176471 0.339405
0.443390 0.164706 0.339405
0.593581 0.144119 0.330012
0.752435 0.121569 0.310094
0.888678 0.144339 0.297786
0.110183 0.204428 0.343327
0.144356 0.204428 0.343327
0.217124 0.204428 0.343327
0.319210 0.200506 0.343327
0.449336 0.193169 0.342086
0.600885 0.181404 0.328922
0.756471 0.170145 0.306471
0.892600 0.192985 0.297609
0.059570 0.265781 0.347248
0.104238 0.265781 0.347248
0.188911 0.267459 0.348926
0.313738 0.269703 0.347248
0.453055 0.270715 0.340721
0.604807 0.270715 0.322707
0.761164 0.274408 0.299404
0.896521 0.289943 0.296268
0.000000 0.378621 0.347248
0.000000 0.380259 0.347248
0.123997 0.386464 0.346318
0.275818 0.394895 0.342967
0.436053 0.400677 0.330322
0.603559 0.404599 0.309094
0.761031 0.406527 0.295338
0.896521 0.417604 0.296268
0.000000 0.537635 0.323213
0.000000 0.539532 0.323213
0.000000 0.547375 0.316967
0.153889 0.554055 0.307527
0.402183 0.556736 0.300602
0.590006 0.559140 0.288637
0.756356 0.558860 0.289486
0.896521 0.562941 0.293865
0.000000 0.696395 0.290482
0.000000 0.698994 0.287539
0.000000 0.700316 0.286021
0.157487 0.701834 0.286021
0.415212 0.701834 0.284368
0.594402 0.704238 0.283079
0.752435 0.705217 0.285479
0.895490 0.704238 0.293865
0.000000 0.825970 0.296901
0.000000 0.825970 0.296901
0.071407 0.827831 0.297244
0.317221 0.827831 0.297244
0.480798 0.827831 0.299922
0.628111 0.828716 0.300823
0.765008 0.831752 0.304744
0.892780 0.833699 0.308433
0.000000 0.936116 0.344086
0.102068 0.936116 0.344086
0.243643 0.936116 0.347628
0.375079 0.936116 0.348848
0.502594 0.936116 0.353050
0.630108 0.936116 0.359393
0.753700 0.932574 0.363694
0.869450 0.932195 0.371537
0.011385 0.188235 0.470841
0.085642 0.188235 0.472865
0.187745 0.186338 0.474763
0.304111 0.180392 0.476787
0.438490 0.166603 0.480708
0.596964 0.138646 0.480708
0.752864 0.121569 0.465479
0.888678 0.148457 0.449716
0.000000 0.208349 0.478685
0.047478 0.208349 0.478946
0.175538 0.208349 0.480708
0.301683 0.204588 0.482707
0.441493 0.195858 0.484630
0.600885 0.178156 0.482100
0.756412 0.172790 0.465908
0.892600 0.196947 0.453257
0.000000 0.271204 0.488551
0.000000 0.273624 0.492473
0.110824 0.273624 0.492963
0.282985 0.274147 0.492963
0.439469 0.273877 0.492473
0.604807 0.270715 0.485348
0.760389 0.274636 0.467475
0.896521 0.293865 0.453308
0.000000 0.386464 0.492473
0.000000 0.387342 0.496395
0.000000 0.394510 0.496715
0.201928 0.404148 0.500316
0.411006 0.407590 0.496016
0.592749 0.407590 0.482166
0.756619 0.411512 0.463387
0.896521 0.426939 0.453257
0.000000 0.540577 0.491494
0.000000 0.543453 0.491494
0.000000 0.549889 0.490449
0.008696 0.559923 0.487168
0.318279 0.573908 0.477261
0.548893 0.575544 0.461819
0.742347 0.569007 0.455282
0.891460 0.571789 0.453257
0.000000 0.700316 0.469662
0.000000 0.700316 0.469662
0.000000 0.704575 0.467046
0.000000 0.712081 0.462619
0.348041 0.716003 0.457179
0.563145 0.714105 0.455282
0.736292 0.713663 0.455282
0.886536 0.711408 0.460239
0.000000 0.828716 0.465022
0.000000 0.831752 0.465022
0.000000 0.831870 0.465022
0.269679 0.834205 0.464594
0.456420 0.835674 0.465022
0.612939 0.835674 0.467537
0.754687 0.836131 0.468058
0.884757 0.837975 0.471980
0.000000 0.936116 0.499557
0.111384 0.936116 0.499557
0.247116 0.936116 0.503479
0.376723 0.936116 0.503479
0.504238 0.936116 0.507400
0.629728 0.936116 0.511322
0.750578 0.934701 0.516754
0.865528 0.932574 0.523087
0.000000 0.200000 0.602277
0.001485 0.200000 0.603668
0.155598 0.198608 0.606558
0.285483 0.194687 0.611512
0.425806 0.182922 0.618681
0.585199 0.160784 0.625807
0.748828 0.124670 0.628651
0.888678 0.154847 0.612650
0.000000 0.218902 0.607917
0.000000 0.218902 0.610300
0.139026 0.218855 0.612453
0.281561 0.216392 0.618143
0.427704 0.209829 0.623603
0.589121 0.193169 0.629728
0.752435 0.174524 0.632572
0.892387 0.203129 0.613030
0.000000 0.277546 0.627851
0.000000 0.277546 0.627851
0.053859 0.279591 0.630087
0.264010 0.281467 0.632858
0.425806 0.281467 0.635694
0.593042 0.278199 0.637571
0.756356 0.274636 0.636260
0.892600 0.297786 0.616770
0.000000 0.387003 0.637571
0.000000 0.390386 0.641493
0.000000 0.397078 0.645414
0.192663 0.403668 0.649875
0.406063 0.407116 0.649336
0.587932 0.407590 0.645414
0.751677 0.413372 0.637065
0.892600 0.430253 0.616951
0.000000 0.537002 0.641493
0.000000 0.539625 0.641493
0.000000 0.545498 0.645414
0.038464 0.555757 0.646638
0.337974 0.567701 0.646638
0.546996 0.571623 0.641464
0.730080 0.574826 0.630008
0.884561 0.578551 0.616706
0.000000 0.700316 0.637571
0.000000 0.702846 0.638469
0.000000 0.706768 0.636673
0.000000 0.711531 0.636673
0.307931 0.719490 0.633395
0.541809 0.719924 0.628655
0.728020 0.716003 0.624415
0.880677 0.716003 0.620493
0.000000 0.831752 0.624415
0.000000 0.831752 0.624415
0.000000 0.833143 0.624415
0.255347 0.836367 0.622456
0.455661 0.836559 0.624415
0.613534 0.836559 0.624415
0.752435 0.836559 0.625492
0.880835 0.839595 0.627765
0.000000 0.936116 0.639477
0.128475 0.936116 0.640734
0.264785 0.936116 0.641113
0.397470 0.936116 0.646406
0.527894 0.936116 0.654057
0.643865 0.933831 0.656752
0.756269 0.932574 0.660691
0.865186 0.932208 0.664643
0.030866 0.219608 0.703226
0.100822 0.219608 0.703226
0.195091 0.218722 0.707147
0.307147 0.218722 0.714990
0.435118 0.210879 0.724858
0.585199 0.198543 0.737128
0.736949 0.182543 0.746363
0.884463 0.173900 0.756948
0.008325 0.238445 0.707147
0.087666 0.238836 0.707753
0.190512 0.238836 0.713029
0.307147 0.236192 0.719717
0.439040 0.234915 0.730677
0.589121 0.227251 0.741189
0.740696 0.219049 0.750284
0.885921 0.216166 0.758053
0.000000 0.287642 0.723846
0.029955 0.289082 0.723846
0.177693 0.291563 0.727767
0.307147 0.294104 0.734990
0.446949 0.296925 0.742441
0.597748 0.297154 0.750284
0.748513 0.300190 0.757471
0.889478 0.307751 0.761456
0.000000 0.390386 0.743960
0.000000 0.392398 0.746559
0.132714 0.398229 0.751803
0.299139 0.402150 0.754206
0.452029 0.406072 0.758128
0.604236 0.413722 0.762049
0.750840 0.421636 0.765428
0.888678 0.434842 0.765171
0.000000 0.531689 0.758128
0.000000 0.531689 0.758330
0.049617 0.536940 0.762049
0.271003 0.546415 0.765971
0.435122 0.555218 0.769892
0.593778 0.563061 0.769464
0.740648 0.570904 0.769007
0.880835 0.580461 0.764285
0.000000 0.687160 0.765085
0.000000 0.687475 0.765085
0.000000 0.691162 0.765971
0.250504 0.695956 0.765971
0.431054 0.703161 0.769007
0.595193 0.707082 0.765971
0.740670 0.712081 0.765156
0.876913 0.718288 0.761164
0.000000 0.831066 0.765971
0.000000 0.832438 0.765971
0.000000 0.833244 0.765285
0.276550 0.835674 0.765285
0.462320 0.835674 0.765085
0.617638 0.836316 0.765085
0.755471 0.836559 0.765085
0.876913 0.839595 0.765019
0.047189 0.936116 0.768627
0.151572 0.936116 0.769007
0.276534 0.936116 0.772549
0.405313 0.936116 0.772549
0.533121 0.934701 0.776471
0.656800 0.932384 0.783236
0.769626 0.932195 0.789121
0.865528 0.929718 0.792965
0.112840 0.239595 0.797723
0.152309 0.239595 0.798102
0.228083 0.239595 0.802938
0.328400 0.235674 0.811238
0.451234 0.231936 0.823460
0.589255 0.224043 0.837318
0.730085 0.216445 0.849376
0.869070 0.216445 0.860847
0.108918 0.255739 0.802481
0.151862 0.255788 0.805615
0.228083 0.255788 0.809622
0.332193 0.255788 0.817508
0.455535 0.252372 0.829315
0.593371 0.248781 0.841239
0.734361 0.247993 0.853042
0.872693 0.252327 0.864471
0.097534 0.301357 0.818722
0.148387 0.303985 0.821350
0.232919 0.304364 0.825508
0.341139 0.308004 0.831504
0.467771 0.311926 0.841711
0.605329 0.313220 0.851972
0.742580 0.319883 0.860923
0.876913 0.328906 0.868779
0.075416 0.398229 0.844929
0.139502 0.398462 0.846679
0.238452 0.402150 0.848910
0.354631 0.406162 0.853592
0.484357 0.413252 0.858444
0.618110 0.420502 0.864916
0.749726 0.429895 0.870441
0.877293 0.445631 0.876534
0.003379 0.529665 0.864769
0.089971 0.531689 0.866793
0.223103 0.536100 0.868690
0.355471 0.544188 0.871562
0.490449 0.551391 0.874820
0.621885 0.560429 0.876729
0.749779 0.570491 0.880068
0.875262 0.582658 0.880835
0.000000 0.675530 0.879198
0.002456 0.676819 0.879198
0.205954 0.680709 0.880455
0.351602 0.685760 0.880700
0.495865 0.692473 0.880835
0.631447 0.701948 0.880835
0.753700 0.708160 0.880835
0.870964 0.718288 0.883365
0.000000 0.815266 0.884757
0.003722 0.816066 0.884757
0.222897 0.816066 0.884757
0.373091 0.817816 0.884757
0.510016 0.820367 0.884757
0.641493 0.826858 0.884757
0.764400 0.832457 0.884757
0.869450 0.839595 0.884757
0.140201 0.932574 0.888678
0.202066 0.932574 0.888678
0.304139 0.932574 0.888678
0.424199 0.932574 0.888678
0.544758 0.932231 0.889021
0.664619 0.932195 0.889044
0.776283 0.928730 0.889057
0.869792 0.928653 0.892637
