luts/seventies.cube
TITLE "Generated LUT"
LUT_3D_SIZE 5
DOMAIN_MIN 0.0 0.0 0.0
DOMAIN_MAX 1.0 1.0 1.0
0.039216 0.000000 0.000000
0.078431 0.000000 0.000000
0.235294 0.117647 0.035294
0.462745 0.341176 0.254902
0.592157 0.466667 0.388235
0.113725 0.011765 0.000000
0.168627 0.058824 0.003922
0.317647 0.200000 0.121569
0.521569 0.396078 0.317647
0.619608 0.505882 0.427451
0.364706 0.239216 0.152941
0.400000 0.278431 0.196078
0.552941 0.431373 0.352941
0.682353 0.560784 0.482353
0.764706 0.639216 0.560784
0.521569 0.396078 0.309804
0.580392 0.458824 0.376471
0.678431 0.560784 0.486275
0.764706 0.643137 0.560784
0.843137 0.713726 0.631373
0.635294 0.505882 0.427451
0.670588 0.541176 0.462745
0.772549 0.643137 0.556863
0.862745 0.737255 0.654902
0.882353 0.749020 0.666667
0.066667 0.000000 0.000000
0.125490 0.023529 0.003922
0.266667 0.145098 0.066667
0.478431 0.352941 0.270588
0.592157 0.462745 0.388235
0.156863 0.050980 0.007843
0.200000 0.090196 0.023529
0.341176 0.219608 0.141176
0.537255 0.407843 0.329412
0.627451 0.513726 0.435294
0.349020 0.227451 0.141176
0.392157 0.270588 0.184314
0.560784 0.439216 0.364706
0.690196 0.568627 0.490196
0.768627 0.643137 0.564706
0.537255 0.411765 0.329412
0.592157 0.466667 0.384314
0.682353 0.564706 0.490196
0.768627 0.643137 0.560784
0.843137 0.713726 0.631373
0.635294 0.505882 0.427451
0.674510 0.545098 0.466667
0.772549 0.643137 0.556863
0.882353 0.749020 0.666667
0.925490 0.792157 0.705882
0.211765 0.101961 0.027451
0.258824 0.141176 0.062745
0.392157 0.274510 0.188235
0.560784 0.431373 0.356863
0.698039 0.572549 0.490196
0.298039 0.176471 0.098039
0.337255 0.215686 0.137255
0.458824 0.337255 0.250980
0.603922 0.478431 0.400000
0.725490 0.600000 0.521569
0.501961 0.376471 0.294118
0.513726 0.384314 0.301961
0.603922 0.478431 0.403922
0.729412 0.607843 0.529412
0.843137 0.709804 0.627451
0.674510 0.545098 0.462745
0.686275 0.556863 0.474510
0.764706 0.627451 0.545098
0.858824 0.729412 0.647059
0.956863 0.819608 0.737255
0.780392 0.647059 0.560784
0.796078 0.658824 0.572549
0.874510 0.737255 0.650980
0.984314 0.839216 0.752941
1.000000 0.866667 0.780392
0.427451 0.309804 0.223529
0.458824 0.337255 0.250980
0.556863 0.427451 0.352941
0.686275 0.568627 0.490196
0.800000 0.674510 0.596078
0.486275 0.360784 0.278431
0.517647 0.388235 0.309804
0.600000 0.478431 0.400000
0.725490 0.603922 0.525490
0.831373 0.701961 0.623529
0.643137 0.521569 0.443137
0.666667 0.545098 0.466667
0.737255 0.615686 0.537255
0.831373 0.709804 0.631373
0.913725 0.784314 0.701961
0.803922 0.670588 0.588235
0.831373 0.694118 0.611765
0.894118 0.756863 0.670588
0.964706 0.827451 0.745098
1.000000 0.917647 0.831373
0.901961 0.760784 0.674510
0.929412 0.788235 0.698039
0.996078 0.843137 0.756863
1.000000 0.894118 0.807843
1.000000 0.937255 0.858824
0.603922 0.486275 0.415686
0.635294 0.513726 0.439216
0.717647 0.592157 0.513726
0.827451 0.698039 0.615686
0.858824 0.729412 0.647059
0.654902 0.533333 0.458824
0.686275 0.560784 0.482353
0.776471 0.647059 0.564706
0.843137 0.717647 0.635294
0.858824 0.733333 0.650980
0.752941 0.627451 0.545098
0.807843 0.678431 0.592157
0.874510 0.749020 0.662745
0.929412 0.803922 0.717647
0.956863 0.823529 0.741176
0.913725 0.776471 0.686275
0.949020 0.807843 0.713726
0.988235 0.854902 0.764706
1.000000 0.909804 0.819608
1.000000 0.937255 0.858824
0.956863 0.811765 0.721569
0.976471 0.835294 0.745098
1.000000 0.894118 0.807843
1.000000 0.925490 0.843137
1.000000 0.952941 0.886275
