luts/seventies.cube
TITLE "Generated LUT"
LUT_3D_SIZE 25
DOMAIN_MIN 0.0 0.0 0.0
DOMAIN_MAX 1.0 1.0 1.0
0.039216 0.000000 0.000000
0.039216 0.000000 0.000000
0.043137 0.000000 0.000000
0.047059 0.000000 0.000000
0.054902 0.000000 0.000000
0.062745 0.000000 0.000000
0.078431 0.000000 0.000000
0.090196 0.007843 0.000000
0.113725 0.015686 0.000000
0.141176 0.031373 0.000000
0.168627 0.058824 0.003922
0.200000 0.090196 0.015686
0.235294 0.117647 0.035294
0.266667 0.149020 0.070588
0.305882 0.184314 0.105882
0.341176 0.223529 0.141176
0.376471 0.258824 0.176471
0.419608 0.301961 0.215686
0.462745 0.341176 0.254902
0.498039 0.372549 0.286275
0.533333 0.403922 0.325490
0.549020 0.423529 0.345098
0.580392 0.450980 0.376471
0.596078 0.470588 0.392157
0.592157 0.466667 0.388235
0.039216 0.000000 0.000000
0.043137 0.000000 0.000000
0.047059 0.000000 0.000000
0.050980 0.000000 0.000000
0.058824 0.000000 0.000000
0.066667 0.000000 0.000000
0.078431 0.000000 0.000000
0.098039 0.007843 0.000000
0.121569 0.019608 0.000000
0.145098 0.035294 0.000000
0.176471 0.066667 0.007843
0.207843 0.094118 0.019608
0.243137 0.125490 0.043137
0.274510 0.156863 0.078431
0.309804 0.192157 0.109804
0.345098 0.227451 0.145098
0.384314 0.262745 0.180392
0.427451 0.305882 0.223529
0.466667 0.345098 0.262745
0.501961 0.372549 0.294118
0.533333 0.407843 0.329412
0.552941 0.427451 0.345098
0.580392 0.454902 0.380392
0.596078 0.470588 0.396078
0.592157 0.466667 0.388235
0.043137 0.000000 0.000000
0.047059 0.000000 0.000000
0.050980 0.000000 0.000000
0.054902 0.000000 0.000000
0.062745 0.000000 0.000000
0.074510 0.000000 0.000000
0.094118 0.007843 0.000000
0.109804 0.011765 0.000000
0.129412 0.023529 0.000000
0.152941 0.043137 0.003922
0.184314 0.074510 0.007843
0.215686 0.101961 0.023529
0.247059 0.133333 0.047059
0.282353 0.164706 0.086275
0.317647 0.200000 0.117647
0.352941 0.231373 0.149020
0.392157 0.270588 0.188235
0.431373 0.313726 0.227451
0.474510 0.349020 0.262745
0.505882 0.380392 0.301961
0.537255 0.411765 0.333333
0.556863 0.427451 0.349020
0.584314 0.458824 0.384314
0.596078 0.470588 0.396078
0.596078 0.470588 0.392157
0.054902 0.000000 0.000000
0.058824 0.000000 0.000000
0.058824 0.000000 0.000000
0.066667 0.000000 0.000000
0.074510 0.003922 0.000000
0.090196 0.007843 0.000000
0.105882 0.011765 0.000000
0.121569 0.019608 0.000000
0.145098 0.035294 0.000000
0.164706 0.054902 0.003922
0.196078 0.086275 0.011765
0.227451 0.113725 0.031373
0.258824 0.141176 0.058824
0.294118 0.172549 0.094118
0.325490 0.207843 0.125490
0.360784 0.243137 0.156863
0.400000 0.278431 0.196078
0.443137 0.321569 0.235294
0.482353 0.356863 0.270588
0.513726 0.388235 0.309804
0.541176 0.411765 0.337255
0.560784 0.435294 0.356863
0.588235 0.462745 0.388235
0.596078 0.474510 0.400000
0.600000 0.474510 0.396078
0.070588 0.000000 0.000000
0.070588 0.000000 0.000000
0.074510 0.000000 0.000000
0.082353 0.003922 0.000000
0.094118 0.011765 0.000000
0.105882 0.015686 0.000000
0.125490 0.019608 0.000000
0.137255 0.031373 0.000000
0.156863 0.047059 0.003922
0.184314 0.074510 0.011765
0.211765 0.098039 0.019608
0.243137 0.129412 0.043137
0.274510 0.156863 0.078431
0.305882 0.188235 0.109804
0.341176 0.219608 0.141176
0.376471 0.254902 0.168627
0.411765 0.294118 0.211765
0.450980 0.329412 0.247059
0.494118 0.368627 0.286275
0.521569 0.396078 0.317647
0.545098 0.415686 0.341176
0.572549 0.447059 0.368627
0.596078 0.470588 0.396078
0.600000 0.474510 0.400000
0.603922 0.482353 0.407843
0.090196 0.003922 0.000000
0.090196 0.003922 0.000000
0.094118 0.007843 0.000000
0.105882 0.011765 0.000000
0.117647 0.019608 0.000000
0.129412 0.027451 0.000000
0.145098 0.039216 0.003922
0.164706 0.050980 0.003922
0.180392 0.070588 0.007843
0.207843 0.094118 0.019608
0.235294 0.117647 0.035294
0.266667 0.149020 0.066667
0.298039 0.176471 0.098039
0.329412 0.211765 0.129412
0.360784 0.243137 0.156863
0.392157 0.274510 0.192157
0.427451 0.309804 0.223529
0.474510 0.349020 0.266667
0.505882 0.380392 0.301961
0.537255 0.407843 0.329412
0.556863 0.431373 0.352941
0.584314 0.458824 0.380392
0.603922 0.482353 0.403922
0.603922 0.482353 0.407843
0.611765 0.490196 0.411765
0.113725 0.011765 0.000000
0.113725 0.011765 0.000000
0.121569 0.015686 0.000000
0.129412 0.023529 0.000000
0.141176 0.031373 0.000000
0.152941 0.043137 0.003922
0.168627 0.058824 0.003922
0.188235 0.074510 0.011765
0.207843 0.094118 0.019608
0.235294 0.117647 0.039216
0.262745 0.145098 0.062745
0.290196 0.172549 0.094118
0.317647 0.200000 0.121569
0.352941 0.235294 0.152941
0.380392 0.262745 0.180392
0.415686 0.298039 0.215686
0.450980 0.333333 0.247059
0.494118 0.368627 0.286275
0.521569 0.396078 0.317647
0.552941 0.427451 0.345098
0.572549 0.447059 0.372549
0.596078 0.474510 0.400000
0.607843 0.486275 0.411765
0.607843 0.490196 0.411765
0.619608 0.505882 0.427451
0.149020 0.039216 0.000000
0.149020 0.039216 0.000000
0.152941 0.043137 0.003922
0.160784 0.054902 0.003922
0.172549 0.062745 0.007843
0.172549 0.062745 0.007843
0.180392 0.066667 0.007843
0.203922 0.094118 0.019608
0.235294 0.117647 0.039216
0.266667 0.145098 0.066667
0.294118 0.172549 0.094118
0.317647 0.200000 0.121569
0.349020 0.231373 0.149020
0.384314 0.262745 0.180392
0.407843 0.294118 0.207843
0.443137 0.325490 0.239216
0.482353 0.356863 0.274510
0.517647 0.388235 0.309804
0.549020 0.419608 0.341176
0.572549 0.447059 0.368627
0.596078 0.478431 0.400000
0.607843 0.486275 0.411765
0.611765 0.494118 0.419608
0.619608 0.501961 0.427451
0.639216 0.521569 0.447059
0.188235 0.074510 0.007843
0.188235 0.074510 0.007843
0.192157 0.078431 0.011765
0.200000 0.086275 0.019608
0.211765 0.098039 0.027451
0.211765 0.098039 0.031373
0.223529 0.105882 0.039216
0.247059 0.129412 0.054902
0.278431 0.160784 0.078431
0.313726 0.196078 0.109804
0.333333 0.211765 0.129412
0.352941 0.231373 0.149020
0.388235 0.266667 0.184314
0.411765 0.294118 0.211765
0.443137 0.325490 0.239216
0.478431 0.352941 0.270588
0.509804 0.388235 0.305882
0.541176 0.415686 0.337255
0.568627 0.447059 0.368627
0.592157 0.470588 0.396078
0.611765 0.494118 0.415686
0.615686 0.498039 0.423529
0.623529 0.509804 0.435294
0.639216 0.521569 0.447059
0.662745 0.541176 0.466667
0.223529 0.105882 0.023529
0.223529 0.109804 0.027451
0.231373 0.117647 0.035294
0.243137 0.129412 0.047059
0.254902 0.137255 0.058824
0.266667 0.149020 0.070588
0.282353 0.164706 0.086275
0.305882 0.184314 0.105882
0.333333 0.211765 0.129412
0.368627 0.247059 0.160784
0.380392 0.258824 0.172549
0.400000 0.278431 0.196078
0.431373 0.309804 0.227451
0.450980 0.333333 0.247059
0.482353 0.356863 0.274510
0.509804 0.388235 0.305882
0.541176 0.415686 0.337255
0.568627 0.443137 0.368627
0.596078 0.474510 0.396078
0.611765 0.490196 0.415686
0.623529 0.505882 0.431373
0.631373 0.513726 0.439216
0.650980 0.529412 0.450980
0.662745 0.545098 0.466667
0.694118 0.568627 0.490196
0.274510 0.156863 0.078431
0.294118 0.176471 0.094118
0.294118 0.176471 0.098039
0.301961 0.180392 0.101961
0.305882 0.188235 0.105882
0.317647 0.196078 0.117647
0.329412 0.211765 0.129412
0.349020 0.231373 0.149020
0.380392 0.258824 0.176471
0.419608 0.298039 0.211765
0.427451 0.309804 0.223529
0.447059 0.329412 0.243137
0.474510 0.352941 0.270588
0.494118 0.372549 0.290196
0.521569 0.396078 0.317647
0.545098 0.419608 0.341176
0.572549 0.447059 0.372549
0.596078 0.474510 0.396078
0.615686 0.498039 0.419608
0.635294 0.517647 0.439216
0.650980 0.529412 0.450980
0.662745 0.541176 0.462745
0.682353 0.556863 0.478431
0.690196 0.568627 0.486275
0.713726 0.588235 0.509804
0.325490 0.203922 0.121569
0.352941 0.223529 0.141176
0.352941 0.227451 0.145098
0.352941 0.227451 0.145098
0.356863 0.231373 0.149020
0.364706 0.243137 0.156863
0.372549 0.250980 0.168627
0.380392 0.262745 0.176471
0.411765 0.294118 0.207843
0.450980 0.333333 0.247059
0.470588 0.349020 0.262745
0.494118 0.372549 0.290196
0.525490 0.400000 0.321569
0.537255 0.415686 0.337255
0.556863 0.431373 0.356863
0.580392 0.458824 0.380392
0.603922 0.482353 0.407843
0.627451 0.505882 0.427451
0.650980 0.529412 0.450980
0.674510 0.552941 0.470588
0.686275 0.560784 0.478431
0.690196 0.568627 0.486275
0.698039 0.572549 0.494118
0.713726 0.588235 0.505882
0.737255 0.611765 0.529412
0.364706 0.239216 0.152941
0.380392 0.254902 0.168627
0.380392 0.254902 0.168627
0.380392 0.254902 0.168627
0.380392 0.258824 0.172549
0.388235 0.266667 0.180392
0.400000 0.278431 0.196078
0.423529 0.305882 0.219608
0.458824 0.337255 0.254902
0.490196 0.368627 0.286275
0.509804 0.384314 0.305882
0.529412 0.407843 0.329412
0.552941 0.431373 0.352941
0.572549 0.454902 0.380392
0.596078 0.478431 0.403922
0.619608 0.501961 0.423529
0.639216 0.521569 0.447059
0.662745 0.541176 0.462745
0.682353 0.560784 0.482353
0.698039 0.576471 0.494118
0.701961 0.580392 0.498039
0.709804 0.584314 0.505882
0.721569 0.596078 0.517647
0.749020 0.623529 0.541176
0.764706 0.639216 0.560784
0.368627 0.243137 0.156863
0.376471 0.250980 0.164706
0.380392 0.254902 0.168627
0.380392 0.254902 0.168627
0.388235 0.262745 0.176471
0.407843 0.282353 0.196078
0.427451 0.309804 0.223529
0.458824 0.337255 0.250980
0.486275 0.360784 0.278431
0.513726 0.388235 0.309804
0.545098 0.423529 0.341176
0.549020 0.427451 0.349020
0.572549 0.454902 0.376471
0.615686 0.498039 0.423529
0.623529 0.505882 0.431373
0.650980 0.537255 0.462745
0.678431 0.556863 0.482353
0.694118 0.572549 0.494118
0.709804 0.588235 0.509804
0.721569 0.596078 0.517647
0.713726 0.588235 0.505882
0.733333 0.611765 0.529412
0.772549 0.647059 0.564706
0.780392 0.658824 0.576471
0.784314 0.658824 0.576471
0.352941 0.227451 0.141176
0.380392 0.254902 0.168627
0.380392 0.254902 0.168627
0.380392 0.254902 0.168627
0.415686 0.290196 0.203922
0.466667 0.345098 0.262745
0.470588 0.349020 0.262745
0.466667 0.345098 0.258824
0.509804 0.384314 0.301961
0.541176 0.415686 0.337255
0.560784 0.439216 0.360784
0.556863 0.435294 0.356863
0.607843 0.486275 0.411765
0.662745 0.545098 0.470588
0.662745 0.545098 0.470588
0.666667 0.552941 0.482353
0.698039 0.580392 0.505882
0.729412 0.611765 0.533333
0.752941 0.627451 0.545098
0.733333 0.607843 0.525490
0.725490 0.603922 0.521569
0.764706 0.639216 0.556863
0.780392 0.658824 0.576471
0.780392 0.658824 0.576471
0.803922 0.674510 0.596078
0.380392 0.254902 0.168627
0.380392 0.254902 0.168627
0.380392 0.254902 0.168627
0.439216 0.313726 0.227451
0.529412 0.403922 0.325490
0.533333 0.403922 0.325490
0.474510 0.352941 0.266667
0.498039 0.372549 0.294118
0.549020 0.423529 0.349020
0.556863 0.431373 0.356863
0.568627 0.443137 0.368627
0.580392 0.458824 0.384314
0.654902 0.537255 0.462745
0.682353 0.568627 0.494118
0.686275 0.572549 0.494118
0.701961 0.584314 0.509804
0.721569 0.603922 0.529412
0.741176 0.619608 0.541176
0.752941 0.631373 0.549020
0.749020 0.627451 0.545098
0.760784 0.635294 0.552941
0.776471 0.650980 0.568627
0.784314 0.658824 0.580392
0.800000 0.670588 0.588235
0.831373 0.701961 0.619608
0.419608 0.294118 0.207843
0.443137 0.321569 0.235294
0.490196 0.364706 0.282353
0.541176 0.415686 0.337255
0.533333 0.403922 0.325490
0.486275 0.360784 0.274510
0.470588 0.349020 0.262745
0.494118 0.368627 0.286275
0.525490 0.400000 0.321569
0.564706 0.439216 0.364706
0.600000 0.478431 0.400000
0.639216 0.517647 0.443137
0.682353 0.564706 0.490196
0.682353 0.568627 0.490196
0.698039 0.584314 0.509804
0.717647 0.600000 0.525490
0.729412 0.611765 0.533333
0.745098 0.623529 0.545098
0.756863 0.631373 0.552941
0.768627 0.639216 0.560784
0.776471 0.650980 0.568627
0.780392 0.654902 0.576471
0.803922 0.674510 0.596078
0.839216 0.709804 0.627451
0.843137 0.713726 0.631373
0.490196 0.368627 0.282353
0.486275 0.364706 0.282353
0.478431 0.356863 0.274510
0.470588 0.349020 0.266667
0.462745 0.341176 0.254902
0.470588 0.349020 0.266667
0.490196 0.364706 0.282353
0.525490 0.403922 0.321569
0.584314 0.462745 0.380392
0.611765 0.490196 0.411765
0.619608 0.501961 0.423529
0.654902 0.533333 0.454902
0.678431 0.560784 0.482353
0.682353 0.568627 0.494118
0.682353 0.568627 0.494118
0.698039 0.580392 0.505882
0.729412 0.611765 0.537255
0.745098 0.623529 0.545098
0.764706 0.639216 0.556863
0.780392 0.654902 0.572549
0.792157 0.666667 0.584314
0.807843 0.682353 0.600000
0.831373 0.701961 0.623529
0.843137 0.713726 0.631373
0.843137 0.713726 0.631373
0.521569 0.396078 0.309804
0.521569 0.396078 0.313726
0.525490 0.400000 0.317647
0.533333 0.407843 0.325490
0.541176 0.415686 0.333333
0.552941 0.427451 0.349020
0.580392 0.458824 0.376471
0.611765 0.490196 0.407843
0.619608 0.501961 0.423529
0.619608 0.501961 0.423529
0.643137 0.521569 0.447059
0.674510 0.552941 0.478431
0.678431 0.560784 0.486275
0.682353 0.568627 0.494118
0.682353 0.568627 0.494118
0.709804 0.592157 0.517647
0.733333 0.615686 0.537255
0.749020 0.623529 0.545098
0.764706 0.643137 0.560784
0.784314 0.654902 0.576471
0.819608 0.694118 0.611765
0.843137 0.713726 0.631373
0.843137 0.713726 0.631373
0.843137 0.713726 0.631373
0.843137 0.713726 0.631373
0.639216 0.509804 0.431373
0.639216 0.513726 0.431373
0.639216 0.513726 0.431373
0.643137 0.513726 0.435294
0.635294 0.513726 0.431373
0.635294 0.509804 0.431373
0.627451 0.505882 0.431373
0.627451 0.505882 0.431373
0.631373 0.505882 0.431373
0.650980 0.529412 0.450980
0.682353 0.560784 0.482353
0.686275 0.564706 0.490196
0.682353 0.568627 0.494118
0.698039 0.576471 0.501961
0.709804 0.592157 0.513726
0.725490 0.607843 0.533333
0.741176 0.619608 0.541176
0.752941 0.631373 0.549020
0.764706 0.635294 0.556863
0.776471 0.650980 0.568627
0.823529 0.694118 0.611765
0.843137 0.713726 0.631373
0.843137 0.713726 0.631373
0.843137 0.713726 0.631373
0.843137 0.713726 0.631373
0.650980 0.525490 0.443137
0.650980 0.525490 0.447059
0.654902 0.529412 0.447059
0.658824 0.533333 0.450980
0.666667 0.541176 0.458824
0.670588 0.545098 0.462745
0.670588 0.545098 0.462745
0.670588 0.545098 0.462745
0.690196 0.564706 0.482353
0.717647 0.588235 0.509804
0.721569 0.600000 0.517647
0.698039 0.580392 0.501961
0.701961 0.584314 0.505882
0.737255 0.615686 0.537255
0.745098 0.623529 0.545098
0.733333 0.611765 0.537255
0.749020 0.627451 0.549020
0.760784 0.639216 0.556863
0.768627 0.643137 0.560784
0.796078 0.666667 0.588235
0.839216 0.709804 0.627451
0.843137 0.713726 0.631373
0.843137 0.713726 0.631373
0.843137 0.713726 0.631373
0.843137 0.713726 0.631373
0.639216 0.513726 0.431373
0.643137 0.513726 0.431373
0.643137 0.513726 0.435294
0.654902 0.525490 0.447059
0.662745 0.533333 0.454902
0.678431 0.552941 0.470588
0.686275 0.560784 0.478431
0.686275 0.560784 0.478431
0.690196 0.564706 0.482353
0.721569 0.592157 0.513726
0.741176 0.615686 0.533333
0.729412 0.603922 0.525490
0.733333 0.607843 0.529412
0.764706 0.635294 0.552941
0.764706 0.643137 0.564706
0.764706 0.643137 0.564706
0.792157 0.670588 0.588235
0.819608 0.690196 0.611765
0.831373 0.701961 0.619608
0.839216 0.709804 0.627451
0.843137 0.713726 0.631373
0.843137 0.713726 0.631373
0.843137 0.713726 0.631373
0.843137 0.713726 0.631373
0.843137 0.713726 0.631373
0.635294 0.505882 0.427451
0.635294 0.505882 0.427451
0.635294 0.505882 0.427451
0.635294 0.509804 0.427451
0.639216 0.513726 0.431373
0.647059 0.521569 0.439216
0.670588 0.541176 0.462745
0.686275 0.560784 0.478431
0.686275 0.560784 0.478431
0.705882 0.580392 0.498039
0.741176 0.615686 0.533333
0.745098 0.619608 0.537255
0.752941 0.623529 0.541176
0.776471 0.647059 0.564706
0.788235 0.658824 0.580392
0.796078 0.674510 0.596078
0.827451 0.705882 0.623529
0.850980 0.725490 0.643137
0.862745 0.737255 0.654902
0.854902 0.725490 0.643137
0.847059 0.717647 0.635294
0.847059 0.717647 0.635294
0.847059 0.717647 0.635294
0.854902 0.721569 0.643137
0.854902 0.721569 0.643137
0.623529 0.494118 0.411765
0.635294 0.505882 0.427451
0.635294 0.505882 0.427451
0.635294 0.505882 0.427451
0.635294 0.509804 0.427451
0.639216 0.513726 0.431373
0.658824 0.533333 0.450980
0.686275 0.556863 0.478431
0.686275 0.560784 0.478431
0.701961 0.576471 0.494118
0.741176 0.611765 0.529412
0.752941 0.623529 0.541176
0.764706 0.635294 0.549020
0.780392 0.650980 0.568627
0.807843 0.678431 0.596078
0.827451 0.701961 0.623529
0.839216 0.713726 0.635294
0.854902 0.725490 0.647059
0.862745 0.733333 0.654902
0.858824 0.729412 0.650980
0.854902 0.721569 0.643137
0.843137 0.713726 0.631373
0.858824 0.729412 0.647059
0.870588 0.737255 0.654902
0.870588 0.737255 0.654902
0.635294 0.505882 0.427451
0.635294 0.505882 0.427451
0.635294 0.505882 0.427451
0.635294 0.505882 0.427451
0.639216 0.509804 0.431373
0.643137 0.517647 0.435294
0.670588 0.541176 0.462745
0.686275 0.560784 0.478431
0.686275 0.560784 0.478431
0.713726 0.584314 0.505882
0.749020 0.619608 0.537255
0.760784 0.627451 0.545098
0.772549 0.643137 0.556863
0.788235 0.658824 0.576471
0.827451 0.701961 0.619608
0.839216 0.713726 0.635294
0.843137 0.717647 0.635294
0.858824 0.729412 0.650980
0.862745 0.737255 0.654902
0.862745 0.737255 0.654902
0.854902 0.725490 0.643137
0.850980 0.717647 0.639216
0.870588 0.737255 0.658824
0.882353 0.749020 0.666667
0.882353 0.749020 0.666667
0.039216 0.000000 0.000000
0.043137 0.000000 0.000000
0.043137 0.000000 0.000000
0.047059 0.000000 0.000000
0.054902 0.000000 0.000000
0.066667 0.000000 0.000000
0.078431 0.003922 0.000000
0.094118 0.007843 0.000000
0.113725 0.015686 0.000000
0.141176 0.031373 0.000000
0.172549 0.058824 0.003922
0.203922 0.094118 0.015686
0.239216 0.121569 0.035294
0.270588 0.152941 0.070588
0.305882 0.188235 0.105882
0.341176 0.223529 0.141176
0.380392 0.258824 0.176471
0.423529 0.301961 0.219608
0.466667 0.341176 0.254902
0.498039 0.372549 0.290196
0.533333 0.403922 0.325490
0.552941 0.423529 0.345098
0.580392 0.450980 0.376471
0.596078 0.470588 0.392157
0.592157 0.466667 0.388235
0.043137 0.000000 0.000000
0.043137 0.000000 0.000000
0.047059 0.000000 0.000000
0.050980 0.000000 0.000000
0.062745 0.000000 0.000000
0.066667 0.000000 0.000000
0.086275 0.003922 0.000000
0.098039 0.007843 0.000000
0.125490 0.019608 0.000000
0.145098 0.035294 0.000000
0.176471 0.066667 0.007843
0.207843 0.098039 0.019608
0.243137 0.125490 0.043137
0.274510 0.156863 0.078431
0.313726 0.192157 0.113725
0.345098 0.227451 0.145098
0.384314 0.262745 0.180392
0.427451 0.309804 0.223529
0.470588 0.345098 0.262745
0.501961 0.376471 0.294118
0.533333 0.407843 0.329412
0.552941 0.427451 0.349020
0.580392 0.454902 0.380392
0.596078 0.470588 0.396078
0.592157 0.466667 0.388235
0.047059 0.000000 0.000000
0.047059 0.000000 0.000000
0.050980 0.000000 0.000000
0.058824 0.000000 0.000000
0.066667 0.000000 0.000000
0.078431 0.003922 0.000000
0.094118 0.007843 0.000000
0.109804 0.015686 0.000000
0.129412 0.023529 0.000000
0.156863 0.047059 0.003922
0.188235 0.074510 0.007843
0.215686 0.101961 0.023529
0.247059 0.133333 0.050980
0.282353 0.164706 0.086275
0.317647 0.200000 0.117647
0.352941 0.231373 0.149020
0.392157 0.274510 0.188235
0.431373 0.313726 0.227451
0.474510 0.349020 0.266667
0.505882 0.380392 0.301961
0.537255 0.411765 0.333333
0.556863 0.427451 0.352941
0.584314 0.458824 0.384314
0.596078 0.470588 0.396078
0.596078 0.470588 0.392157
0.058824 0.000000 0.000000
0.058824 0.000000 0.000000
0.062745 0.000000 0.000000
0.066667 0.000000 0.000000
0.078431 0.003922 0.000000
0.090196 0.007843 0.000000
0.105882 0.015686 0.000000
0.125490 0.019608 0.000000
0.145098 0.035294 0.000000
0.168627 0.054902 0.003922
0.196078 0.086275 0.011765
0.227451 0.113725 0.035294
0.258824 0.141176 0.062745
0.294118 0.176471 0.098039
0.325490 0.207843 0.125490
0.360784 0.243137 0.156863
0.400000 0.282353 0.196078
0.443137 0.325490 0.235294
0.482353 0.356863 0.274510
0.517647 0.388235 0.309804
0.541176 0.415686 0.337255
0.560784 0.435294 0.356863
0.588235 0.462745 0.388235
0.596078 0.474510 0.400000
0.600000 0.474510 0.396078
0.074510 0.000000 0.000000
0.074510 0.000000 0.000000
0.078431 0.000000 0.000000
0.082353 0.007843 0.000000
0.098039 0.011765 0.000000
0.105882 0.015686 0.000000
0.125490 0.019608 0.000000
0.137255 0.031373 0.000000
0.160784 0.047059 0.003922
0.184314 0.074510 0.011765
0.211765 0.101961 0.019608
0.243137 0.129412 0.047059
0.278431 0.160784 0.078431
0.309804 0.188235 0.109804
0.341176 0.223529 0.141176
0.376471 0.258824 0.172549
0.415686 0.294118 0.211765
0.454902 0.333333 0.247059
0.494118 0.368627 0.286275
0.525490 0.396078 0.317647
0.545098 0.415686 0.341176
0.572549 0.447059 0.368627
0.596078 0.470588 0.396078
0.600000 0.474510 0.400000
0.603922 0.482353 0.407843
0.090196 0.003922 0.000000
0.094118 0.003922 0.000000
0.098039 0.007843 0.000000
0.105882 0.015686 0.000000
0.117647 0.019608 0.000000
0.133333 0.027451 0.000000
0.149020 0.039216 0.003922
0.164706 0.054902 0.003922
0.180392 0.070588 0.011765
0.207843 0.094118 0.019608
0.235294 0.117647 0.035294
0.266667 0.149020 0.066667
0.298039 0.180392 0.101961
0.329412 0.211765 0.129412
0.360784 0.243137 0.160784
0.396078 0.278431 0.192157
0.427451 0.309804 0.223529
0.474510 0.349020 0.266667
0.505882 0.380392 0.301961
0.537255 0.407843 0.333333
0.556863 0.431373 0.356863
0.584314 0.458824 0.380392
0.603922 0.482353 0.403922
0.603922 0.482353 0.407843
0.611765 0.490196 0.411765
0.113725 0.011765 0.000000
0.117647 0.011765 0.000000
0.121569 0.015686 0.000000
0.129412 0.023529 0.000000
0.141176 0.031373 0.000000
0.152941 0.043137 0.003922
0.168627 0.058824 0.003922
0.188235 0.074510 0.011765
0.207843 0.094118 0.019608
0.235294 0.117647 0.039216
0.262745 0.145098 0.062745
0.290196 0.172549 0.094118
0.321569 0.200000 0.121569
0.352941 0.235294 0.152941
0.380392 0.262745 0.180392
0.415686 0.298039 0.215686
0.454902 0.333333 0.250980
0.494118 0.368627 0.286275
0.525490 0.400000 0.317647
0.552941 0.427451 0.349020
0.576471 0.447059 0.372549
0.596078 0.474510 0.400000
0.607843 0.486275 0.411765
0.607843 0.490196 0.411765
0.619608 0.505882 0.427451
0.149020 0.039216 0.000000
0.149020 0.039216 0.000000
0.156863 0.043137 0.003922
0.164706 0.054902 0.003922
0.172549 0.062745 0.007843
0.172549 0.062745 0.007843
0.180392 0.066667 0.007843
0.203922 0.094118 0.023529
0.235294 0.117647 0.039216
0.266667 0.145098 0.066667
0.294118 0.172549 0.094118
0.317647 0.200000 0.121569
0.352941 0.235294 0.152941
0.384314 0.266667 0.184314
0.407843 0.294118 0.207843
0.443137 0.325490 0.239216
0.482353 0.360784 0.278431
0.517647 0.388235 0.309804
0.549020 0.423529 0.345098
0.572549 0.447059 0.372549
0.596078 0.478431 0.400000
0.607843 0.486275 0.411765
0.611765 0.494118 0.419608
0.619608 0.501961 0.427451
0.639216 0.521569 0.447059
0.188235 0.074510 0.007843
0.188235 0.074510 0.007843
0.192157 0.078431 0.011765
0.203922 0.090196 0.019608
0.211765 0.098039 0.027451
0.211765 0.098039 0.031373
0.223529 0.109804 0.039216
0.250980 0.129412 0.054902
0.282353 0.160784 0.082353
0.317647 0.196078 0.113725
0.333333 0.215686 0.129412
0.352941 0.235294 0.152941
0.388235 0.266667 0.184314
0.415686 0.294118 0.211765
0.443137 0.325490 0.243137
0.478431 0.352941 0.274510
0.513726 0.388235 0.305882
0.541176 0.415686 0.337255
0.572549 0.447059 0.368627
0.592157 0.470588 0.396078
0.611765 0.494118 0.419608
0.615686 0.498039 0.423529
0.623529 0.509804 0.435294
0.639216 0.521569 0.447059
0.662745 0.541176 0.466667
0.223529 0.109804 0.027451
0.223529 0.109804 0.027451
0.231373 0.117647 0.035294
0.243137 0.129412 0.047059
0.254902 0.137255 0.058824
0.266667 0.149020 0.070588
0.282353 0.164706 0.086275
0.305882 0.184314 0.105882
0.337255 0.215686 0.133333
0.368627 0.247059 0.164706
0.380392 0.258824 0.176471
0.400000 0.278431 0.196078
0.431373 0.313726 0.227451
0.454902 0.333333 0.250980
0.482353 0.360784 0.278431
0.513726 0.388235 0.305882
0.545098 0.415686 0.337255
0.568627 0.443137 0.368627
0.596078 0.474510 0.400000
0.611765 0.494118 0.415686
0.623529 0.505882 0.431373
0.631373 0.513726 0.439216
0.650980 0.529412 0.450980
0.662745 0.545098 0.466667
0.694118 0.568627 0.490196
0.274510 0.156863 0.078431
0.294118 0.176471 0.094118
0.298039 0.176471 0.098039
0.301961 0.180392 0.101961
0.305882 0.188235 0.105882
0.317647 0.196078 0.117647
0.329412 0.211765 0.129412
0.349020 0.231373 0.149020
0.380392 0.262745 0.180392
0.419608 0.301961 0.215686
