luts/seventies.cube
TITLE "Generated LUT"
LUT_3D_SIZE 9
DOMAIN_MIN 0.0 0.0 0.0
DOMAIN_MAX 1.0 1.0 1.0
0.039216 0.000000 0.000000
0.047059 0.000000 0.000000
0.078431 0.000000 0.000000
0.141176 0.031373 0.000000
0.235294 0.117647 0.035294
0.341176 0.223529 0.141176
0.462745 0.341176 0.254902
0.549020 0.423529 0.345098
0.592157 0.466667 0.388235
0.054902 0.000000 0.000000
0.066667 0.000000 0.000000
0.105882 0.011765 0.000000
0.164706 0.054902 0.003922
0.258824 0.141176 0.058824
0.360784 0.243137 0.156863
0.482353 0.356863 0.270588
0.560784 0.435294 0.356863
0.600000 0.474510 0.396078
0.113725 0.011765 0.000000
0.129412 0.023529 0.000000
0.168627 0.058824 0.003922
0.235294 0.117647 0.039216
0.317647 0.200000 0.121569
0.415686 0.298039 0.215686
0.521569 0.396078 0.317647
0.596078 0.474510 0.400000
0.619608 0.505882 0.427451
0.223529 0.105882 0.023529
0.243137 0.129412 0.047059
0.282353 0.164706 0.086275
0.368627 0.247059 0.160784
0.431373 0.309804 0.227451
0.509804 0.388235 0.305882
0.596078 0.474510 0.396078
0.631373 0.513726 0.439216
0.694118 0.568627 0.490196
0.364706 0.239216 0.152941
0.380392 0.254902 0.168627
0.400000 0.278431 0.196078
0.490196 0.368627 0.286275
0.552941 0.431373 0.352941
0.619608 0.501961 0.423529
0.682353 0.560784 0.482353
0.709804 0.584314 0.505882
0.764706 0.639216 0.560784
0.380392 0.254902 0.168627
0.439216 0.313726 0.227451
0.474510 0.352941 0.266667
0.556863 0.431373 0.356863
0.654902 0.537255 0.462745
0.701961 0.584314 0.509804
0.752941 0.631373 0.549020
0.776471 0.650980 0.568627
0.831373 0.701961 0.619608
0.521569 0.396078 0.309804
0.533333 0.407843 0.325490
0.580392 0.458824 0.376471
0.619608 0.501961 0.423529
0.678431 0.560784 0.486275
0.709804 0.592157 0.517647
0.764706 0.643137 0.560784
0.843137 0.713726 0.631373
0.843137 0.713726 0.631373
0.639216 0.513726 0.431373
0.654902 0.525490 0.447059
0.686275 0.560784 0.478431
0.721569 0.592157 0.513726
0.733333 0.607843 0.529412
0.764706 0.643137 0.564706
0.831373 0.701961 0.619608
0.843137 0.713726 0.631373
0.843137 0.713726 0.631373
0.635294 0.505882 0.427451
0.635294 0.505882 0.427451
0.670588 0.541176 0.462745
0.713726 0.584314 0.505882
0.772549 0.643137 0.556863
0.839216 0.713726 0.635294
0.862745 0.737255 0.654902
0.850980 0.717647 0.639216
0.882353 0.749020 0.666667
0.043137 0.000000 0.000000
0.050980 0.000000 0.000000
0.090196 0.007843 0.000000
0.149020 0.043137 0.003922
0.239216 0.121569 0.039216
0.345098 0.227451 0.145098
0.466667 0.345098 0.258824
0.552941 0.427451 0.349020
0.592157 0.462745 0.388235
0.066667 0.000000 0.000000
0.078431 0.007843 0.000000
0.117647 0.019608 0.003922
0.172549 0.062745 0.007843
0.266667 0.145098 0.066667
0.364706 0.247059 0.164706
0.486275 0.356863 0.274510
0.564706 0.435294 0.360784
0.600000 0.474510 0.400000
0.121569 0.023529 0.003922
0.137255 0.031373 0.003922
0.172549 0.062745 0.007843
0.239216 0.121569 0.043137
0.325490 0.207843 0.125490
0.419608 0.301961 0.215686
0.525490 0.400000 0.317647
0.596078 0.478431 0.400000
0.623529 0.505882 0.427451
0.227451 0.109804 0.027451
0.247059 0.129412 0.047059
0.286275 0.168627 0.090196
0.372549 0.250980 0.168627
0.431373 0.313726 0.227451
0.517647 0.388235 0.309804
0.596078 0.474510 0.400000
0.631373 0.513726 0.439216
0.694118 0.568627 0.490196
0.349020 0.219608 0.137255
0.380392 0.254902 0.168627
0.400000 0.278431 0.192157
0.494118 0.368627 0.286275
0.556863 0.435294 0.356863
0.619608 0.501961 0.427451
0.686275 0.564706 0.486275
0.709804 0.584314 0.505882
0.764706 0.643137 0.560784
0.380392 0.254902 0.168627
0.423529 0.298039 0.211765
0.482353 0.352941 0.270588
0.556863 0.431373 0.352941
0.658824 0.541176 0.466667
0.701961 0.588235 0.513726
0.752941 0.627451 0.549020
0.776471 0.650980 0.568627
0.831373 0.701961 0.619608
0.525490 0.400000 0.317647
0.537255 0.411765 0.329412
0.584314 0.462745 0.380392
0.619608 0.501961 0.423529
0.682353 0.560784 0.486275
0.709804 0.592157 0.517647
0.764706 0.643137 0.560784
0.843137 0.713726 0.631373
0.843137 0.713726 0.631373
0.639216 0.513726 0.431373
0.654902 0.525490 0.447059
0.686275 0.560784 0.478431
0.721569 0.592157 0.513726
0.733333 0.607843 0.529412
0.764706 0.643137 0.564706
0.831373 0.701961 0.619608
0.843137 0.713726 0.631373
0.843137 0.713726 0.631373
0.635294 0.505882 0.427451
0.635294 0.505882 0.427451
0.670588 0.545098 0.462745
0.717647 0.584314 0.505882
0.772549 0.643137 0.556863
0.839216 0.713726 0.635294
0.862745 0.737255 0.654902
0.850980 0.717647 0.639216
0.882353 0.749020 0.666667
0.066667 0.000000 0.000000
0.078431 0.003922 0.000000
0.125490 0.023529 0.003922
0.188235 0.078431 0.015686
0.266667 0.145098 0.066667
0.356863 0.239216 0.156863
0.478431 0.352941 0.270588
0.556863 0.427451 0.352941
0.592157 0.462745 0.388235
0.098039 0.015686 0.003922
0.113725 0.019608 0.003922
0.149020 0.047059 0.003922
0.207843 0.094118 0.023529
0.286275 0.168627 0.086275
0.380392 0.262745 0.176471
0.490196 0.364706 0.282353
0.572549 0.443137 0.364706
0.600000 0.474510 0.396078
0.156863 0.050980 0.007843
0.168627 0.066667 0.015686
0.200000 0.090196 0.023529
0.258824 0.141176 0.062745
0.341176 0.219608 0.141176
0.431373 0.313726 0.231373
0.537255 0.407843 0.329412
0.600000 0.482353 0.403922
0.627451 0.513726 0.435294
0.254902 0.137255 0.058824
0.270588 0.149020 0.070588
0.305882 0.180392 0.101961
0.368627 0.247059 0.164706
0.443137 0.321569 0.239216
0.525490 0.400000 0.321569
0.600000 0.478431 0.403922
0.635294 0.517647 0.443137
0.698039 0.572549 0.494118
0.349020 0.227451 0.141176
0.372549 0.247059 0.160784
0.392157 0.270588 0.184314
0.498039 0.376471 0.294118
0.560784 0.439216 0.364706
0.627451 0.509804 0.435294
0.690196 0.568627 0.490196
0.709804 0.588235 0.509804
0.768627 0.643137 0.564706
0.341176 0.215686 0.137255
0.380392 0.254902 0.168627
0.498039 0.376471 0.294118
0.552941 0.427451 0.349020
0.666667 0.549020 0.474510
0.705882 0.592157 0.517647
0.752941 0.627451 0.549020
0.780392 0.654902 0.572549
0.835294 0.705882 0.623529
0.537255 0.411765 0.329412
0.549020 0.423529 0.341176
0.592157 0.466667 0.384314
0.619608 0.501961 0.423529
0.682353 0.564706 0.490196
0.713726 0.596078 0.517647
0.768627 0.643137 0.560784
0.843137 0.713726 0.631373
0.843137 0.713726 0.631373
0.643137 0.513726 0.431373
0.658824 0.529412 0.447059
0.686275 0.560784 0.478431
0.725490 0.596078 0.517647
0.737255 0.611765 0.533333
0.764706 0.647059 0.568627
0.831373 0.705882 0.623529
0.843137 0.713726 0.631373
0.843137 0.713726 0.631373
0.635294 0.505882 0.427451
0.635294 0.509804 0.427451
0.674510 0.545098 0.466667
0.717647 0.588235 0.509804
0.772549 0.643137 0.556863
0.839216 0.713726 0.635294
0.882353 0.749020 0.666667
0.925490 0.792157 0.705882
0.925490 0.792157 0.705882
0.133333 0.031373 0.003922
0.145098 0.043137 0.003922
0.180392 0.070588 0.011765
0.254902 0.133333 0.058824
0.325490 0.207843 0.125490
0.407843 0.290196 0.203922
0.501961 0.372549 0.290196
0.584314 0.454902 0.376471
0.600000 0.470588 0.396078
0.152941 0.050980 0.007843
0.168627 0.062745 0.011765
0.203922 0.090196 0.023529
0.266667 0.149020 0.070588
0.345098 0.223529 0.141176
0.419608 0.301961 0.215686
0.513726 0.388235 0.305882
0.592157 0.466667 0.388235
0.615686 0.486275 0.411765
0.211765 0.101961 0.027451
0.223529 0.109804 0.039216
0.258824 0.141176 0.062745
0.321569 0.200000 0.121569
0.388235 0.266667 0.184314
0.458824 0.337255 0.254902
0.545098 0.419608 0.341176
0.603922 0.482353 0.403922
0.647059 0.529412 0.450980
0.313726 0.196078 0.113725
0.325490 0.207843 0.125490
0.349020 0.231373 0.149020
0.400000 0.282353 0.196078
0.466667 0.341176 0.258824
0.545098 0.415686 0.341176
0.607843 0.486275 0.411765
0.643137 0.525490 0.447059
0.705882 0.580392 0.501961
0.403922 0.282353 0.196078
0.396078 0.270588 0.184314
0.439216 0.317647 0.231373
0.501961 0.376471 0.294118
0.568627 0.447059 0.372549
0.639216 0.525490 0.447059
0.698039 0.576471 0.494118
0.717647 0.592157 0.513726
0.780392 0.654902 0.572549
0.376471 0.254902 0.172549
0.384314 0.262745 0.180392
0.556863 0.431373 0.352941
0.545098 0.419608 0.341176
0.670588 0.552941 0.478431
0.717647 0.600000 0.525490
0.752941 0.627451 0.549020
0.780392 0.654902 0.572549
0.843137 0.713726 0.631373
0.560784 0.435294 0.352941
0.568627 0.443137 0.360784
0.600000 0.474510 0.396078
0.619608 0.501961 0.423529
0.682353 0.564706 0.490196
0.713726 0.596078 0.517647
0.768627 0.643137 0.564706
0.843137 0.713726 0.631373
0.870588 0.741176 0.658824
0.643137 0.513726 0.431373
0.658824 0.529412 0.447059
0.686275 0.560784 0.478431
0.725490 0.596078 0.517647
0.768627 0.635294 0.549020
0.831373 0.701961 0.623529
0.862745 0.737255 0.654902
0.925490 0.788235 0.705882
0.937255 0.800000 0.717647
0.694118 0.560784 0.478431
0.717647 0.588235 0.501961
0.764706 0.631373 0.545098
0.811765 0.678431 0.592157
0.850980 0.721569 0.639216
0.874510 0.741176 0.658824
0.941176 0.800000 0.717647
0.956863 0.819608 0.737255
0.976471 0.839216 0.756863
0.211765 0.101961 0.027451
0.227451 0.113725 0.039216
0.258824 0.141176 0.062745
0.321569 0.200000 0.117647
0.392157 0.274510 0.188235
0.482353 0.356863 0.274510
0.560784 0.431373 0.356863
0.631373 0.505882 0.431373
0.698039 0.572549 0.490196
0.235294 0.117647 0.043137
0.247059 0.129412 0.050980
0.278431 0.160784 0.082353
0.337255 0.219608 0.137255
0.411765 0.290196 0.207843
0.498039 0.372549 0.290196
0.576471 0.447059 0.372549
0.643137 0.517647 0.439216
0.705882 0.580392 0.498039
0.298039 0.176471 0.098039
0.305882 0.188235 0.105882
0.337255 0.215686 0.137255
0.388235 0.270588 0.184314
0.458824 0.337255 0.250980
0.537255 0.407843 0.329412
0.603922 0.478431 0.400000
0.666667 0.545098 0.466667
0.725490 0.600000 0.521569
0.384314 0.262745 0.176471
0.392157 0.274510 0.188235
0.415686 0.298039 0.215686
0.466667 0.345098 0.262745
0.537255 0.407843 0.329412
0.596078 0.470588 0.396078
0.658824 0.537255 0.458824
0.717647 0.596078 0.513726
0.760784 0.635294 0.552941
0.501961 0.376471 0.294118
0.501961 0.380392 0.298039
0.513726 0.384314 0.301961
0.552941 0.423529 0.349020
0.603922 0.478431 0.403922
0.666667 0.549020 0.470588
0.729412 0.607843 0.529412
0.788235 0.662745 0.580392
0.843137 0.709804 0.627451
0.533333 0.411765 0.333333
0.533333 0.411765 0.333333
0.549020 0.423529 0.345098
0.635294 0.505882 0.427451
0.670588 0.549020 0.470588
0.737255 0.615686 0.541176
0.811765 0.686275 0.607843
0.862745 0.733333 0.650980
0.905882 0.772549 0.690196
0.674510 0.545098 0.462745
0.678431 0.549020 0.466667
0.686275 0.556863 0.474510
0.709804 0.580392 0.498039
0.764706 0.627451 0.545098
0.811765 0.682353 0.600000
0.858824 0.729412 0.647059
0.921569 0.788235 0.701961
0.956863 0.819608 0.737255
0.741176 0.607843 0.525490
0.749020 0.615686 0.533333
0.737255 0.607843 0.525490
0.792157 0.658824 0.576471
0.854902 0.721569 0.639216
0.882353 0.745098 0.658824
0.913725 0.780392 0.698039
0.960784 0.823529 0.741176
0.996078 0.858824 0.776471
0.780392 0.647059 0.560784
0.780392 0.643137 0.556863
0.796078 0.658824 0.572549
0.819608 0.682353 0.596078
0.874510 0.737255 0.650980
0.937255 0.796078 0.709804
0.984314 0.839216 0.752941
0.996078 0.862745 0.776471
1.000000 0.866667 0.780392
0.321569 0.203922 0.121569
0.333333 0.215686 0.133333
0.360784 0.243137 0.156863
0.403922 0.286275 0.203922
0.474510 0.349020 0.266667
0.556863 0.431373 0.352941
0.631373 0.509804 0.431373
0.690196 0.568627 0.490196
0.749020 0.623529 0.541176
0.345098 0.227451 0.141176
0.352941 0.235294 0.152941
0.376471 0.258824 0.172549
0.423529 0.305882 0.219608
0.494118 0.368627 0.286275
0.572549 0.443137 0.368627
0.639216 0.517647 0.439216
0.701961 0.580392 0.501961
0.756863 0.631373 0.549020
0.392157 0.274510 0.188235
0.403922 0.286275 0.200000
0.427451 0.309804 0.223529
0.470588 0.349020 0.266667
0.537255 0.407843 0.329412
0.603922 0.482353 0.403922
0.670588 0.549020 0.470588
0.725490 0.603922 0.525490
0.784314 0.654902 0.576471
0.474510 0.349020 0.266667
0.482353 0.356863 0.274510
0.505882 0.380392 0.298039
0.549020 0.419608 0.341176
0.600000 0.474510 0.400000
0.662745 0.541176 0.462745
0.717647 0.596078 0.521569
0.768627 0.643137 0.564706
0.823529 0.698039 0.615686
0.568627 0.439216 0.364706
0.576471 0.447059 0.372549
0.596078 0.470588 0.392157
0.631373 0.505882 0.427451
0.682353 0.556863 0.478431
0.737255 0.615686 0.537255
0.784314 0.666667 0.588235
0.831373 0.705882 0.627451
0.874510 0.745098 0.662745
0.662745 0.545098 0.466667
0.662745 0.545098 0.466667
0.674510 0.552941 0.474510
0.709804 0.584314 0.505882
0.756863 0.631373 0.549020
0.807843 0.686275 0.607843
0.854902 0.733333 0.654902
0.901961 0.772549 0.690196
0.949020 0.811765 0.729412
0.729412 0.600000 0.513726
0.729412 0.596078 0.513726
0.772549 0.639216 0.552941
0.784314 0.647059 0.564706
0.847059 0.713726 0.627451
0.878431 0.741176 0.654902
0.925490 0.788235 0.705882
0.964706 0.827451 0.745098
1.000000 0.878431 0.788235
0.784314 0.650980 0.564706
0.792157 0.654902 0.568627
0.807843 0.670588 0.584314
0.835294 0.698039 0.611765
0.878431 0.741176 0.654902
0.921569 0.780392 0.698039
0.996078 0.850980 0.768627
1.000000 0.874510 0.788235
1.000000 0.905882 0.815686
0.890196 0.749020 0.662745
0.890196 0.749020 0.662745
0.886275 0.745098 0.658824
0.952941 0.803922 0.713726
0.960784 0.815686 0.729412
0.996078 0.850980 0.764706
1.000000 0.862745 0.776471
1.000000 0.890196 0.807843
1.000000 0.909804 0.819608
0.427451 0.309804 0.223529
0.435294 0.317647 0.231373
0.458824 0.337255 0.250980
0.498039 0.372549 0.290196
0.556863 0.427451 0.352941
0.619608 0.498039 0.419608
0.686275 0.568627 0.490196
0.745098 0.623529 0.549020
0.800000 0.674510 0.596078
0.443137 0.325490 0.239216
0.450980 0.329412 0.247059
0.474510 0.352941 0.266667
0.517647 0.388235 0.305882
0.568627 0.439216 0.364706
0.631373 0.509804 0.431373
0.698039 0.580392 0.501961
0.752941 0.631373 0.556863
0.807843 0.682353 0.600000
0.486275 0.360784 0.278431
0.494118 0.368627 0.290196
0.517647 0.388235 0.309804
0.552941 0.427451 0.349020
0.600000 0.478431 0.400000
0.662745 0.541176 0.462745
0.725490 0.603922 0.525490
0.776471 0.654902 0.576471
0.831373 0.701961 0.623529
0.556863 0.431373 0.352941
0.564706 0.435294 0.356863
0.580392 0.454902 0.380392
0.611765 0.490196 0.411765
0.654902 0.537255 0.458824
0.717647 0.596078 0.517647
0.768627 0.647059 0.568627
0.815686 0.694118 0.615686
0.866667 0.737255 0.654902
0.643137 0.521569 0.443137
0.647059 0.525490 0.447059
0.666667 0.545098 0.466667
0.694118 0.572549 0.494118
0.737255 0.615686 0.537255
0.784314 0.662745 0.588235
0.831373 0.709804 0.631373
0.874510 0.749020 0.670588
0.913725 0.784314 0.701961
0.729412 0.607843 0.529412
0.737255 0.615686 0.537255
0.752941 0.631373 0.549020
0.780392 0.658824 0.576471
0.819608 0.694118 0.615686
0.854902 0.733333 0.650980
0.894118 0.768627 0.690196
0.933333 0.807843 0.725490
0.996078 0.878431 0.792157
0.803922 0.670588 0.588235
0.811765 0.678431 0.596078
0.831373 0.694118 0.611765
0.858824 0.717647 0.631373
0.894118 0.756863 0.670588
0.929412 0.788235 0.705882
0.964706 0.827451 0.745098
0.992157 0.862745 0.780392
1.000000 0.917647 0.831373
0.862745 0.725490 0.639216
0.870588 0.733333 0.647059
0.909804 0.764706 0.678431
0.941176 0.796078 0.705882
0.980392 0.831373 0.745098
0.988235 0.839216 0.752941
1.000000 0.870588 0.784314
1.000000 0.898039 0.815686
1.000000 0.933333 0.850980
0.901961 0.760784 0.674510
0.905882 0.764706 0.678431
0.929412 0.788235 0.698039
0.960784 0.811765 0.721569
0.996078 0.843137 0.756863
1.000000 0.862745 0.776471
1.000000 0.894118 0.807843
1.000000 0.917647 0.835294
1.000000 0.937255 0.858824
0.541176 0.411765 0.333333
0.549020 0.419608 0.341176
0.564706 0.435294 0.360784
0.592157 0.466667 0.392157
0.635294 0.513726 0.435294
0.694118 0.572549 0.498039
0.749020 0.627451 0.552941
0.796078 0.674510 0.596078
0.839216 0.713726 0.631373
0.552941 0.423529 0.345098
0.556863 0.431373 0.352941
0.576471 0.447059 0.368627
0.603922 0.478431 0.403922
0.650980 0.525490 0.447059
0.705882 0.584314 0.505882
0.756863 0.635294 0.560784
0.803922 0.682353 0.603922
0.847059 0.717647 0.635294
0.584314 0.454902 0.380392
0.588235 0.462745 0.384314
0.603922 0.478431 0.400000
0.635294 0.509804 0.431373
0.678431 0.556863 0.478431
0.729412 0.607843 0.533333
0.780392 0.658824 0.580392
0.827451 0.701961 0.623529
0.866667 0.737255 0.654902
0.635294 0.513726 0.435294
0.639216 0.517647 0.443137
0.658824 0.537255 0.454902
0.686275 0.564706 0.486275
0.729412 0.607843 0.529412
0.776471 0.654902 0.576471
0.819608 0.698039 0.619608
0.862745 0.741176 0.658824
0.901961 0.772549 0.690196
0.713726 0.592157 0.513726
0.721569 0.596078 0.521569
0.733333 0.611765 0.533333
0.760784 0.639216 0.560784
0.796078 0.674510 0.600000
0.835294 0.713726 0.639216
0.874510 0.752941 0.674510
0.917647 0.792157 0.713726
0.952941 0.819608 0.737255
0.792157 0.666667 0.588235
0.796078 0.674510 0.596078
0.811765 0.690196 0.611765
0.839216 0.713726 0.635294
0.870588 0.745098 0.666667
0.901961 0.780392 0.701961
0.933333 0.807843 0.729412
0.976471 0.847059 0.768627
0.996078 0.878431 0.792157
0.866667 0.733333 0.650980
0.874510 0.741176 0.658824
0.890196 0.756863 0.670588
0.917647 0.780392 0.698039
0.945098 0.807843 0.721569
0.972549 0.835294 0.752941
0.992157 0.866667 0.784314
1.000000 0.901961 0.819608
1.000000 0.941176 0.862745
0.921569 0.780392 0.694118
0.929412 0.784314 0.698039
0.933333 0.792157 0.701961
0.964706 0.819608 0.729412
0.992157 0.847059 0.756863
1.000000 0.870588 0.784314
1.000000 0.901961 0.819608
1.000000 0.925490 0.843137
1.000000 0.952941 0.878431
0.945098 0.800000 0.713726
0.949020 0.803922 0.717647
0.952941 0.807843 0.721569
0.992157 0.847059 0.756863
1.000000 0.862745 0.776471
1.000000 0.894118 0.807843
1.000000 0.917647 0.835294
1.000000 0.937255 0.862745
1.000000 0.952941 0.878431
0.603922 0.486275 0.415686
0.603922 0.486275 0.415686
0.635294 0.513726 0.439216
0.678431 0.552941 0.478431
0.717647 0.592157 0.513726
0.780392 0.650980 0.568627
0.827451 0.698039 0.615686
0.858824 0.729412 0.647059
0.858824 0.729412 0.647059
0.615686 0.498039 0.423529
0.615686 0.498039 0.423529
0.647059 0.525490 0.450980
0.694118 0.568627 0.490196
0.737255 0.611765 0.533333
0.780392 0.654902 0.572549
0.827451 0.698039 0.615686
0.858824 0.729412 0.647059
0.858824 0.729412 0.647059
0.654902 0.533333 0.458824
0.654902 0.533333 0.454902
0.686275 0.560784 0.482353
0.737255 0.615686 0.533333
0.776471 0.647059 0.564706
0.811765 0.686275 0.603922
0.843137 0.717647 0.635294
0.858824 0.733333 0.650980
0.858824 0.733333 0.650980
0.698039 0.576471 0.494118
0.698039 0.576471 0.494118
0.752941 0.627451 0.545098
0.796078 0.670588 0.588235
0.827451 0.698039 0.615686
0.854902 0.729412 0.647059
0.874510 0.749020 0.666667
0.894118 0.764706 0.682353
0.909804 0.776471 0.690196
0.752941 0.627451 0.545098
0.752941 0.627451 0.545098
0.807843 0.678431 0.592157
0.847059 0.721569 0.635294
0.874510 0.749020 0.662745
0.901961 0.780392 0.694118
0.929412 0.803922 0.717647
0.956863 0.823529 0.741176
0.956863 0.823529 0.741176
0.835294 0.709804 0.623529
0.835294 0.709804 0.623529
0.870588 0.737255 0.647059
0.905882 0.776471 0.690196
0.929412 0.803922 0.721569
0.952941 0.835294 0.749020
0.976471 0.858824 0.772549
1.000000 0.882353 0.796078
1.000000 0.890196 0.800000
0.913725 0.776471 0.686275
0.917647 0.776471 0.686275
0.949020 0.807843 0.713726
0.968627 0.827451 0.737255
0.988235 0.854902 0.764706
0.996078 0.882353 0.796078
1.000000 0.909804 0.819608
1.000000 0.933333 0.850980
1.000000 0.937255 0.858824
0.945098 0.803922 0.709804
0.952941 0.811765 0.717647
0.960784 0.819608 0.729412
0.980392 0.839216 0.749020
1.000000 0.866667 0.780392
1.000000 0.898039 0.807843
1.000000 0.917647 0.835294
1.000000 0.952941 0.882353
1.000000 0.952941 0.886275
0.956863 0.811765 0.721569
0.952941 0.807843 0.721569
0.976471 0.835294 0.745098
1.000000 0.862745 0.776471
1.000000 0.894118 0.807843
1.000000 0.909804 0.823529
1.000000 0.925490 0.843137
1.000000 0.952941 0.882353
1.000000 0.952941 0.886275
